; HEADER_BLOCK_START
; generated by OrcaSlicer 2.3.1 on 2026-01-02 at 14:48:14
; total layer number: 99
; filament_density: 1.24
; filament_diameter: 1.75
; max_z_height: 19.77
; HEADER_BLOCK_END

; THUMBNAIL_BLOCK_START

;
; THUMBNAIL_BLOCK_END

; THUMBNAIL_BLOCK_START

;
; THUMBNAIL_BLOCK_END

; THUMBNAIL_BLOCK_START

;
; THUMBNAIL_BLOCK_END

; external perimeters extrusion width = 0.60mm
; perimeters extrusion width = 0.60mm
; infill extrusion width = 0.40mm
; solid infill extrusion width = 0.40mm
; top infill extrusion width = 0.40mm
; support material extrusion width = 0.40mm
; first layer extrusion width = 0.40mm

; EXECUTABLE_BLOCK_START
EXCLUDE_OBJECT_DEFINE NAME=1.stl_id_0_copy_0 CENTER=175,175 POLYGON=[[120.07,134],[228.335,134],[229.93,135.595],[229.93,214.405],[228.335,216],[120.07,216],[120.07,134]]
M73 P0 R41
;TYPE:Custom
G28
G90
G1 X0 F9000
G1 Y20
G1 Z0.600 F600
G1 Y0 F9000
START_PRINT EXTRUDER_TEMP=225 BED_TEMP=60
G90
G1 X0 F9000
G1 Y20
G1 Z0.600 F600
G1 Y0 F9000
M400
G91
M83
M140 S60 ;set bed temp
M104 S225 ;set extruder temp
M190 S60 ;wait for bed temp
M109 S225;wait for extruder temp
G1 E25 F300
G4 P1000
G1 E-0.200 Z5 F600
G1 X88.000 F9000
G1 Z-5.000 F600
G1 X87.000 E20.88 F1800
G1 X87.000 E13.92 F1800
G1 Y1 E0.16 F1800
G1 X-87.000 E13.92 F1800
G1 X-87.000 E20.88 F1800
G1 Y1 E0.24 F1800
G1 X87.000 E20.88 F1800
G1 X87.000 E13.92 F1800
G1 E-0.200 Z1 F600
M73 P1 R41
M400
G90
G21
M83 ; use relative distances for extrusion
; Filament gcode
M106 S0
;LAYER_CHANGE
;Z:0.2
;HEIGHT:0.2
TIMELAPSE_TAKE_FRAME
G92 E0
G1 E-.5 F1800
;_SET_FAN_SPEED_CHANGING_LAYER
SET_VELOCITY_LIMIT ACCEL=3000 ACCEL_TO_DECEL=1500
G1 X126.547 Y136.395 F36000
G1 Z.45
G1 Z.2
G1 E.5 F1800
;TYPE:Skirt
;WIDTH:0.4
G1 F3000
G1 X228.063 Y133.011 E2.95549
G1 X230.74 Y133.011 E.07791
G1 X230.919 Y133.19 E.00735
G1 X230.946 Y216.81 E2.43315
G1 X230.768 Y216.989 E.00735
G1 X228.067 Y216.989 E.0786
G1 X120.064 Y213.389 E3.14435
G1 X119.891 Y213.21 E.00722
G1 X119.891 Y136.79 E2.22365
G1 X120.064 Y136.611 E.00722
G1 X126.507 Y136.396 E.18758
; printing object 1.stl id:0 copy 0
;WIPE_START
G1 X128.506 Y136.33 E-.5
;WIPE_END
EXCLUDE_OBJECT_START NAME=1.stl_id_0_copy_0
G17
G3 Z.45 I.002 J.761 P1  F36000
G1 X227.944 Y136.078 Z.45
G1 Z.2
G1 E.5 F1800
;TYPE:Support interface
G1 X227.653 Y136.367 E.01195
G1 X227.562 Y136.276 E.00376
G1 X227.979 Y135.86 E.01714
G1 X228.071 Y135.952 E.00377
G1 X228.47 Y135.56 E.01628
G1 X228.37 Y135.46 E.00411
G1 X228.105 Y135.734 E.01109
G1 X228.165 Y136.619 F36000
;TYPE:Support
G1 F1800
G1 X228.165 Y137.278 E.01918
G1 X228.555 Y137.709 E.01691
G1 X228.562 Y136.45 E.03664
G1 X228.959 Y136.061 E.01617
G1 X228.959 Y137.561 E.04365
G1 X230.74 Y135.806 F36000
G1 F1800
G1 X230.74 Y133.19 E.07612
G1 X228.069 Y133.19 E.07774
G1 X227.232 Y133.751 E.02933
G1 X225.937 Y135.32 E.05918
G1 X226.223 Y135.606 E.01177
G1 X226.931 Y136.39 E.03072
G1 X227 Y136.39 E.00202
G1 X227.062 Y136.24 E.00471
G1 X227.993 Y135.312 E.03825
G1 X228.359 Y134.914 E.01575
G1 X229.016 Y135.571 E.02704
G1 X228.617 Y135.939 E.0158
G1 X227.688 Y136.867 E.0382
G1 X227.54 Y136.93 E.00468
G1 X227.54 Y137.065 E.00393
G1 X228.531 Y138.163 E.04304
G1 X229.906 Y136.923 E.05388
G1 X230.18 Y136.697 E.01033
G1 X230.74 Y135.859 E.02933
G1 X230.149 Y136.455 F36000
G1 F1800
G1 X230.149 Y133.511 E.08567
G1 X229.752 Y133.511 E.01154
G1 X229.752 Y136.633 E.09084
G1 X229.355 Y136.987 E.01546
G1 X229.355 Y133.511 E.10113
G1 X228.959 Y133.511 E.01154
G1 X228.959 Y135.058 E.04503
G1 X228.562 Y134.662 E.01633
G1 X228.562 Y133.511 E.03348
G1 X228.167 Y133.511 E.0115
G1 X228.165 Y134.649 E.03311
G1 X227.768 Y135.081 E.01707
G1 X227.768 Y133.778 E.03791
G1 X227.45 Y133.992 E.01117
G1 X227.372 Y134.087 E.00357
G1 X227.372 Y135.477 E.04046
G1 X226.975 Y135.873 E.01631
G1 X226.975 Y134.567 E.03799
G1 X226.578 Y135.048 E.01814
G1 X226.578 Y135.759 E.02069
;WIPE_START
G1 X226.578 Y135.048 E-.17779
G1 X226.975 Y134.567 E-.15584
G1 X226.975 Y135.233 E-.16636
;WIPE_END
G17
G3 Z.45 I-.76 J.031 P1  F36000
G1 X230.112 Y213.249 Z.45
G1 Z.2
G1 E.5 F1800
G1 X228.437 Y211.908 E.06244
G1 X227.54 Y213.028 E.04175
G1 X227.54 Y213.073 E.00131
G1 X227.678 Y213.128 E.00433
G1 X228.64 Y214.09 E.03955
G1 X229.018 Y214.422 E.01467
G1 X228.362 Y215.089 E.02721
G1 X227.985 Y214.681 E.01617
G1 X227.064 Y213.764 E.03781
G1 X227.003 Y213.618 E.0046
G1 X225.893 Y214.745 E.04602
G1 X227.008 Y215.976 E.04832
G1 X227.237 Y216.254 E.01048
G1 X228.073 Y216.81 E.02921
G1 X230.768 Y216.81 E.07842
G1 X230.727 Y214.115 E.07843
G1 X230.154 Y213.282 E.02942
G1 X228.165 Y213.388 F36000
G1 F1800
G1 X228.165 Y212.762 E.01822
G1 X228.487 Y212.36 E.01498
G1 X228.562 Y212.42 E.0028
G1 X228.562 Y213.557 E.0331
G1 X228.959 Y213.947 E.01619
G1 X228.959 Y212.737 E.03521
G1 X229.355 Y213.055 E.01479
G1 X229.355 Y216.489 E.09992
G1 X229.752 Y216.489 E.01154
G1 X229.752 Y213.372 E.09069
G1 X229.916 Y213.504 E.00611
G1 X230.149 Y213.842 E.01195
G1 X230.149 Y216.65 E.08169
G1 X228.959 Y216.65 F36000
G1 F1800
G1 X228.959 Y214.941 E.04972
G1 X228.562 Y215.344 E.01645
G1 X228.562 Y216.489 E.03332
G1 X228.17 Y216.489 E.01141
G1 X228.165 Y215.35 E.03314
G1 X227.768 Y214.919 E.01705
G1 X227.768 Y216.222 E.0379
G1 X227.455 Y216.013 E.01097
G1 X227.372 Y215.913 E.00379
G1 X227.372 Y214.525 E.04038
G1 X226.975 Y214.128 E.01632
G1 X226.975 Y215.461 E.03879
G1 X226.578 Y215.023 E.0172
G1 X226.578 Y214.279 E.02166
;WIPE_START
G1 X226.578 Y215.023 E-.18606
G1 X226.975 Y215.461 E-.14781
G1 X226.975 Y214.797 E-.16613
;WIPE_END
G17
G3 Z.45 I.139 J.748 P1  F36000
G1 X228.368 Y214.538 Z.45
G1 Z.2
G1 E.5 F1800
;TYPE:Support interface
G1 X227.562 Y213.725 E.03331
G1 X227.65 Y213.635 E.00365
G1 X228.465 Y214.445 E.03342
G1 X228.405 Y214.505 E.00247
;WIPE_START
G1 X228.465 Y214.445 E-.02123
G1 X227.65 Y213.635 E-.28714
G1 X227.562 Y213.725 E-.03135
G1 X228.013 Y214.18 E-.16028
;WIPE_END
G17
G3 Z.45 I.555 J-.52 P1  F36000
G1 X226.54 Y212.61 Z.45
G1 X226.84 Y212.91
G1 Z.2
G1 E.5 F1800
;TYPE:Outer wall
;WIDTH:0.399999
G1 X120.37 Y212.91 E3.09801
G1 X120.37 Y137.09 E2.20618
G1 X226.84 Y137.09 E3.09801
G1 X226.84 Y212.89 E2.2056
G1 X226.762 Y212.894
M73 P2 R40
;WIPE_START
G1 X224.84 Y212.891 E-.5
;WIPE_END
G17
G3 Z.45 I.635 J-.418 P1  F36000
G1 X221.642 Y208.03 Z.45
G1 Z.2
G1 E.5 F1800
G1 X221.567 Y208.175 E.00475
G1 X221.463 Y208.209 E.00318
G1 X206.394 Y208.209 E.43848
G1 X206.259 Y208.148 E.00429
G1 X206.147 Y207.777 E.01126
G1 X206.237 Y207.623 E.0052
G1 X221.374 Y198.883 E.50859
G1 X221.552 Y198.883 E.0052
G1 X221.642 Y198.988 E.00401
G1 X221.642 Y208.01 E.26251
G1 X221.663 Y208.054
;WIPE_START
G1 X221.567 Y208.175 E-.04529
G1 X221.463 Y208.209 E-.02731
G1 X219.753 Y208.209 E-.4274
;WIPE_END
G17
G3 Z.45 I-.761 J0 P1  F36000
G1 X219.753 Y208.509 Z.45
G1 X189.147 Y208.509
G1 X188.975 Y207.865
G1 X189.268 Y207.786
G1 Z.2
G1 E.5 F1800
G1 X189.308 Y207.652 E.00409
G1 X204.495 Y198.883 E.51026
G1 X204.663 Y198.878 E.0049
G1 X204.762 Y199.038 E.00548
G1 X204.762 Y208.03 E.26165
G1 X204.636 Y208.209 E.00637
G1 X189.514 Y208.209 E.43999
G1 X189.379 Y208.146 E.00435
G1 X189.274 Y207.806 E.01037
G1 X189.244 Y207.772
;WIPE_START
G1 X189.308 Y207.652 E-.0394
G1 X190.903 Y206.73 E-.4606
;WIPE_END
G17
G3 Z.45 I.659 J-.38 P1  F36000
G1 X190.753 Y206.47 Z.45
G1 X205.662 Y196.931
G1 X205.741 Y187.925
G1 X206.175 Y187.674
G1 X206.309 Y187.906
G1 Z.2
G1 E.5 F1800
G1 X221.553 Y196.707 E.51216
G1 X221.629 Y196.795 E.00338
G1 X221.624 Y197.078 E.00823
G1 X221.552 Y197.156 E.0031
G1 X206.431 Y205.886 E.50806
G1 X206.252 Y205.886 E.0052
G1 X206.131 Y205.816 E.00408
G1 X206.042 Y205.662 E.00519
G1 X206.042 Y188.061 E.51214
G1 X206.14 Y187.901 E.00545
G1 X206.289 Y187.905 E.00435
G1 X206.361 Y187.845
;WIPE_START
G1 X208.022 Y188.905 E-.5
;WIPE_END
G17
G3 Z.45 I.659 J.38 P1  F36000
G1 X208.176 Y188.637 Z.45
G1 X221.345 Y195.33
G1 X221.585 Y195.192
G1 X221.435 Y194.932
G1 Z.2
G1 E.5 F1800
G1 X221.256 Y194.932 E.0052
G1 X206.013 Y186.132 E.51214
G1 X205.924 Y185.977 E.0052
G1 X206.013 Y185.823 E.0052
G1 X221.378 Y176.952 E.51622
G1 X221.556 Y176.952 E.0052
G1 X221.645 Y177.057 E.00401
G1 X221.645 Y194.708 E.51359
G1 X221.596 Y194.831 E.00386
G1 X221.452 Y194.922 E.00497
G1 X221.426 Y194.967
;WIPE_START
G1 X221.256 Y194.932 E-.04894
G1 X219.694 Y194.03 E-.45106
;WIPE_END
G17
G3 Z.45 I-.659 J-.38 P1  F36000
G1 X219.543 Y194.29 Z.45
G1 X221.345 Y195.33
G1 X221.945 Y194.984
G1 X221.945 Y176.971
G1 X221.47 Y176.696
G1 X221.794 Y175.434
G1 X221.628 Y175.146
G1 Z.2
G1 E.5 F1800
G1 X221.556 Y175.225 E.0031
G1 X206.435 Y183.955 E.50806
G1 X206.256 Y183.955 E.0052
G1 X206.135 Y183.885 E.00408
G1 X206.045 Y183.73 E.00519
G1 X206.045 Y166.27 E.50806
G1 X206.135 Y166.115 E.00519
G1 X206.257 Y166.045 E.0041
G1 X206.435 Y166.045 E.00518
G1 X221.556 Y174.775 E.50806
G1 X221.634 Y174.867 E.00349
G1 X221.629 Y175.126 E.00756
G1 X221.641 Y175.164
;WIPE_START
G1 X221.556 Y175.225 E-.03058
G1 X219.93 Y176.164 E-.46942
;WIPE_END
G17
G3 Z.45 I-.659 J.38 P1  F36000
G1 X220.08 Y176.423 Z.45
G1 X206.345 Y184.353
G1 X205.745 Y184.007
G1 X205.745 Y175.17
G1 X204.945 Y175.416
G1 X204.763 Y175.101
G1 Z.2
G1 E.5 F1800
G1 X204.612 Y175.262 E.00644
G1 X189.555 Y183.955 E.50588
G1 X189.377 Y183.955 E.0052
G1 X189.166 Y183.789 E.0078
G1 X189.166 Y166.266 E.50988
G1 X189.239 Y166.126 E.00461
G1 X189.377 Y166.045 E.00464
G1 X189.555 Y166.045 E.0052
G1 X204.677 Y174.775 E.50806
G1 X204.766 Y174.93 E.0052
G1 X204.764 Y175.081 E.0044
G1 X204.79 Y175.137
;WIPE_START
G1 X204.612 Y175.262 E-.0591
G1 X203.085 Y176.144 E-.4409
;WIPE_END
G17
G3 Z.45 I-.659 J.38 P1  F36000
G1 X203.235 Y176.404 Z.45
G1 X204.466 Y176.624
G1 X205.066 Y176.971
G1 X205.066 Y194.984
G1 X204.827 Y195.122
G1 X204.677 Y194.862
G1 Z.2
G1 E.5 F1800
G1 X204.555 Y194.932 E.00408
G1 X204.377 Y194.932 E.0052
G1 X189.134 Y186.132 E.51214
G1 X189.048 Y186.013 E.00426
G1 X189.09 Y185.848 E.00495
G1 X204.498 Y176.952 E.5177
G1 X204.667 Y176.947 E.0049
G1 X204.766 Y177.107 E.00548
G1 X204.766 Y194.708 E.51214
G1 X204.687 Y194.845 E.00461
G1 X204.686 Y194.889
;WIPE_START
G1 X204.555 Y194.932 E-.03947
G1 X204.377 Y194.932 E-.04464
G1 X202.936 Y194.101 E-.41589
;WIPE_END
G17
G3 Z.45 I-.659 J-.38 P1  F36000
G1 X202.786 Y194.361 Z.45
G1 X205.662 Y196.931
G1 X189.462 Y206.284
G1 X189.207 Y206.137
G1 X189.357 Y205.877
G1 Z.2
G1 E.5 F1800
G1 X189.162 Y205.723 E.00724
G1 X189.162 Y188.386 E.50447
G1 X189.189 Y187.967 E.01222
G1 X189.235 Y187.917 E.00196
G1 X189.406 Y187.892 E.00505
G1 X204.673 Y196.707 E.51294
G1 X204.762 Y196.861 E.0052
G1 X204.76 Y197.032 E.00498
G1 X204.608 Y197.194 E.00644
G1 X189.552 Y205.886 E.50588
G1 X189.377 Y205.878 E.00507
G1 X189.322 Y205.912
;WIPE_START
G1 X189.162 Y205.723 E-.06633
G1 X189.162 Y203.988 E-.43367
;WIPE_END
G17
G3 Z.45 I0 J-.761 P1  F36000
G1 X188.862 Y203.988 Z.45
G1 X188.266 Y185.977
G1 X205.666 Y175
G1 X205.066 Y173.029
G1 X205.066 Y155.016
G1 X204.71 Y154.81
G1 X204.56 Y155.07
G1 Z.2
G1 E.5 F1800
G1 X204.677 Y155.138 E.00394
G1 X204.766 Y155.292 E.0052
G1 X204.766 Y172.893 E.51214
G1 X204.667 Y173.053 E.00548
G1 X204.498 Y173.048 E.0049
G1 X189.134 Y164.177 E.51622
G1 X189.046 Y164.042 E.0047
G1 X189.088 Y163.895 E.00446
G1 X204.377 Y155.068 E.51369
G1 X204.54 Y155.07 E.00474
G1 X204.577 Y155.049
;WIPE_START
G1 X204.677 Y155.138 E-.03827
G1 X204.766 Y155.292 E-.04463
G1 X204.766 Y156.961 E-.4171
;WIPE_END
G17
G3 Z.45 I0 J.761 P1  F36000
G1 X205.066 Y156.961 Z.45
G1 X205.662 Y153.069
G1 X189.462 Y143.716
G1 X189.051 Y143.953
G1 X189.206 Y144.221
G1 Z.2
G1 E.5 F1800
G1 X189.373 Y144.114 E.00577
G1 X189.552 Y144.114 E.0052
G1 X204.673 Y152.844 E.50806
G1 X204.762 Y152.999 E.0052
G1 X204.76 Y153.17 E.00498
G1 X204.673 Y153.293 E.0044
G1 X189.43 Y162.094 E.51214
G1 X189.235 Y162.083 E.00569
G1 X189.162 Y161.948 E.00446
G1 X189.162 Y144.338 E.5124
G1 X189.199 Y144.24 E.00306
G1 X189.192 Y144.184
;WIPE_START
G1 X189.373 Y144.114 E-.0537
G1 X189.552 Y144.114 E-.04464
G1 X190.943 Y144.917 E-.40167
;WIPE_END
G17
G3 Z.45 I.659 J.38 P1  F36000
G1 X191.093 Y144.657 Z.45
G1 X188.889 Y142.453
G1 X189.147 Y141.491
G1 X205.062 Y141.491
G1 X205.062 Y144.176
G1 X206.103 Y143.853
G1 X206.253 Y144.113
G1 Z.2
G1 E.5 F1800
G1 X206.431 Y144.114 E.00518
G1 X221.552 Y152.844 E.50806
G1 X221.63 Y152.935 E.00349
G1 X221.623 Y153.218 E.00823
G1 X221.435 Y153.361 E.00688
G1 X206.309 Y162.094 E.50819
G1 X206.14 Y162.099 E.00493
G1 X206.042 Y161.939 E.00545
G1 X206.042 Y144.338 E.51214
G1 X206.131 Y144.184 E.00519
M73 P3 R40
G1 X206.235 Y144.123 E.00351
G1 X206.262 Y144.079
;WIPE_START
G1 X206.431 Y144.114 E-.04891
G1 X207.993 Y145.016 E-.45109
;WIPE_END
G17
G3 Z.45 I.659 J.38 P1  F36000
G1 X208.143 Y144.756 Z.45
G1 X222.542 Y153.069
G1 X220.409 Y154.3
G1 X221.585 Y154.808
G1 X221.435 Y155.068
G1 Z.2
G1 E.5 F1800
G1 X221.645 Y155.227 E.00768
G1 X221.645 Y172.893 E.51405
G1 X221.598 Y173.014 E.00377
G1 X221.402 Y173.062 E.00589
G1 X206.013 Y164.177 E.51704
G1 X205.924 Y164.023 E.0052
G1 X206.013 Y163.868 E.00519
G1 X221.256 Y155.068 E.51214
G1 X221.415 Y155.068 E.00461
G1 X221.472 Y155.03
;WIPE_START
G1 X221.645 Y155.227 E-.07006
G1 X221.645 Y156.946 E-.42994
;WIPE_END
G17
G3 Z.45 I0 J.761 P1  F36000
G1 X221.945 Y156.946 Z.45
G1 X222.542 Y153.069
G1 X205.769 Y142.453
G1 X205.931 Y141.846
G1 X206.221 Y141.924
G1 Z.2
G1 E.5 F1800
G1 X206.342 Y141.791 E.00521
G1 X221.463 Y141.791 E.43999
G1 X221.603 Y141.859 E.00451
G1 X221.642 Y141.97 E.00343
G1 X221.642 Y150.962 E.26165
G1 X221.595 Y151.083 E.00376
G1 X221.552 Y151.117 E.00158
G1 X221.374 Y151.117 E.0052
G1 X206.237 Y142.377 E.50859
G1 X206.15 Y142.253 E.0044
G1 X206.217 Y141.943 E.00923
G1 X206.202 Y141.893
;WIPE_START
G1 X206.342 Y141.791 E-.04916
G1 X208.145 Y141.791 E-.45084
;WIPE_END
G17
G3 Z.45 I.761 J0 P1  F36000
G1 X208.145 Y141.491 Z.45
G1 X206.026 Y141.491
G1 X205.769 Y142.453
G1 X205.062 Y151.098
G1 X204.896 Y151.194
G1 X204.762 Y150.962
G1 Z.2
G1 E.5 F1800
G1 X204.663 Y151.122 E.00548
G1 X204.495 Y151.117 E.0049
G1 X189.357 Y142.377 E.50859
G1 X189.27 Y142.245 E.00462
G1 X189.355 Y141.889 E.01065
G1 X189.487 Y141.791 E.00478
G1 X204.646 Y141.802 E.44107
G1 X204.756 Y141.924 E.00477
G1 X204.762 Y142.611 E.01999
G1 X204.762 Y150.942 E.24242
G1 X204.786 Y150.991
;WIPE_START
G1 X204.663 Y151.122 E-.05143
G1 X204.495 Y151.117 E-.0421
G1 X203.086 Y150.304 E-.40646
;WIPE_END
G17
G3 Z.45 I-.659 J-.38 P1  F36000
G1 X202.936 Y150.564 Z.45
G1 X204.462 Y151.445
G1 X205.062 Y151.098
G1 X205.741 Y144.062
G1 X206.342 Y143.716
G1 X221.342 Y151.445
G1 X221.942 Y151.098
G1 X221.942 Y141.491
G1 X219.913 Y141.491
G1 X226.54 Y137.919
G1 X226.733 Y137.919
G1 Z.2
G1 E.5 F1800
;TYPE:Bottom surface
;WIDTH:0.400271
G1 F3000
G1 X226.171 Y137.357 E.0176
G1 X225.666 Y137.357 E.0098
G1 X226.573 Y138.264 E.03124
G1 X226.573 Y138.769 E.0098
G1 X225.161 Y137.357 E.05167
G1 X224.655 Y137.357 E.0098
G1 X226.573 Y139.275 E.0723
G1 X226.573 Y139.78 E.0098
G1 X224.15 Y137.357 E.09296
G1 X223.645 Y137.357 E.0098
G1 X226.573 Y140.285 E.11366
G1 X226.573 Y140.791 E.0098
G1 X223.139 Y137.357 E.13439
G1 X222.634 Y137.357 E.0098
G1 X226.573 Y141.296 E.15533
G1 X226.573 Y141.802 E.0098
G1 X222.128 Y137.357 E.17654
G1 X221.623 Y137.357 E.0098
G1 X226.573 Y142.307 E.19803
G1 X226.573 Y142.812 E.0098
G1 X221.118 Y137.357 E.21979
G1 X220.612 Y137.357 E.0098
G1 X226.573 Y143.318 E.24181
G1 X226.573 Y143.823 E.0098
G1 X220.107 Y137.357 E.26411
G1 X219.602 Y137.357 E.0098
G1 X226.573 Y144.328 E.28669
G1 X226.573 Y144.834 E.0098
G1 X219.096 Y137.357 E.30788
G1 X218.591 Y137.357 E.0098
G1 X226.573 Y145.339 E.32869
G1 X226.573 Y145.844 E.0098
G1 X218.086 Y137.357 E.3495
G1 X217.58 Y137.357 E.0098
G1 X226.573 Y146.35 E.37032
G1 X226.573 Y146.855 E.0098
G1 X221.909 Y142.192 E.18583
G1 X221.909 Y141.962 E.00325
G1 X221.884 Y141.819 E.00147
G1 X221.814 Y141.692 E.00146
G1 X221.723 Y141.606 E.00111
G1 X221.603 Y141.545 E.00128
G1 X221.47 Y141.524 E.00127
G1 X221.241 Y141.524 E.00324
G1 X217.075 Y137.357 E.16485
G1 X216.569 Y137.357 E.0098
G1 X220.736 Y141.524 E.16485
G1 X220.23 Y141.524 E.0098
G1 X216.064 Y137.357 E.16485
