; HEADER_BLOCK_START
; generated by OrcaSlicer 2.3.1 on 2026-01-02 at 23:39:31
; total layer number: 67
; filament_density: 1.24
; filament_diameter: 1.75
; max_z_height: 13.41
; HEADER_BLOCK_END

; THUMBNAIL_BLOCK_START

;
; THUMBNAIL_BLOCK_END

; THUMBNAIL_BLOCK_START

;
; THUMBNAIL_BLOCK_END

; THUMBNAIL_BLOCK_START

;
; THUMBNAIL_BLOCK_END

; external perimeters extrusion width = 0.60mm
; perimeters extrusion width = 0.60mm
; infill extrusion width = 0.40mm
; solid infill extrusion width = 0.40mm
; top infill extrusion width = 0.40mm
; support material extrusion width = 0.40mm
; first layer extrusion width = 0.40mm

; EXECUTABLE_BLOCK_START
EXCLUDE_OBJECT_DEFINE NAME=2.stl_id_0_copy_0 CENTER=175,175 POLYGON=[[120.07,130.384],[228.335,130.384],[229.024,131.073],[229.93,131.98],[229.93,218.02],[229.024,218.927],[228.335,219.616],[120.07,219.616],[120.07,130.384]]
M73 P0 R42
;TYPE:Custom
G28
G90
G1 X0 F9000
G1 Y20
G1 Z0.600 F600
G1 Y0 F9000
START_PRINT EXTRUDER_TEMP=225 BED_TEMP=60
G90
G1 X0 F9000
G1 Y20
G1 Z0.600 F600
G1 Y0 F9000
M400
G91
M83
M140 S60 ;set bed temp
M104 S225 ;set extruder temp
M190 S60 ;wait for bed temp
M109 S225;wait for extruder temp
G1 E25 F300
G4 P1000
G1 E-0.200 Z5 F600
G1 X88.000 F9000
G1 Z-5.000 F600
G1 X87.000 E20.88 F1800
G1 X87.000 E13.92 F1800
G1 Y1 E0.16 F1800
G1 X-87.000 E13.92 F1800
G1 X-87.000 E20.88 F1800
G1 Y1 E0.24 F1800
G1 X87.000 E20.88 F1800
G1 X87.000 E13.92 F1800
G1 E-0.200 Z1 F600
M400
G90
G21
M83 ; use relative distances for extrusion
; Filament gcode
M106 S0
;LAYER_CHANGE
;Z:0.2
;HEIGHT:0.2
TIMELAPSE_TAKE_FRAME
G92 E0
G1 E-.5 F1800
;_SET_FAN_SPEED_CHANGING_LAYER
SET_VELOCITY_LIMIT ACCEL=3000 ACCEL_TO_DECEL=1500
G1 X125.033 Y131.022 F36000
G1 Z.45
M73 P1 R42
G1 Z.2
G1 E.5 F1800
;TYPE:Skirt
;WIDTH:0.4
G1 F3000
G1 X219.417 Y130.834 E2.74635
G1 X228.963 Y130.834 E.27775
G1 X229.089 Y130.886 E.00398
G1 X229.282 Y131.144 E.00937
G1 X229.895 Y143.135 E.34935
G1 X229.927 Y175.204 E.93314
G1 X229.895 Y206.687 E.91608
G1 X229.282 Y218.856 E.35454
G1 X229.089 Y219.114 E.00937
G1 X228.963 Y219.166 E.00398
G1 X219.417 Y219.166 E.27775
G1 X120.07 Y218.968 E2.89078
G1 X119.891 Y218.789 E.00734
G1 X119.891 Y131.211 E2.54832
G1 X120.07 Y131.032 E.00734
G1 X124.993 Y131.022 E.14326
; printing object 2.stl id:0 copy 0
;WIPE_START
G1 X126.993 Y131.018 E-.5
;WIPE_END
EXCLUDE_OBJECT_START NAME=2.stl_id_0_copy_0
G17
G3 Z.45 I-.092 J.755 P1  F36000
G1 X229.717 Y143.48 Z.45
G1 Z.2
G1 E.5 F1800
;TYPE:Support interface
G1 X229.716 Y143.135 E.01004
G1 X229.624 Y143.565 E.01281
G1 X229.717 Y143.658 E.00384
G1 X229.718 Y144.872 E.0353
G1 X229.486 Y144.639 E.00956
G1 X229.468 Y145.833 E.03475
G1 X229.719 Y146.085 E.01035
G1 X229.721 Y147.298 E.0353
G1 X229.45 Y147.028 E.01114
G1 X229.432 Y148.222 E.03475
G1 X229.722 Y148.512 E.01193
G1 X229.723 Y149.725 E.0353
G1 X229.414 Y149.416 E.01271
G1 X229.396 Y150.61 E.03475
G1 X229.724 Y150.938 E.0135
G1 X229.725 Y152.151 E.0353
G1 X229.378 Y151.805 E.01428
G1 X229.379 Y152.619 E.02369
G1 X229.362 Y152.659 E.00127
G1 X229.357 Y152.996 E.00979
G1 X229.727 Y153.365 E.01519
G1 X229.728 Y154.578 E.0353
G1 X229.339 Y154.19 E.01598
G1 X229.322 Y155.384 E.03475
G1 X229.729 Y155.791 E.01677
G1 X229.73 Y157.005 E.0353
G1 X229.304 Y156.578 E.01756
M73 P1 R41
G1 X229.286 Y157.772 E.03475
G1 X229.732 Y158.218 E.01834
G1 X229.733 Y159.431 E.0353
G1 X229.268 Y158.966 E.01913
G1 X229.25 Y160.161 E.03475
G1 X229.734 Y160.645 E.01992
G1 X229.735 Y161.858 E.0353
G1 X229.237 Y161.359 E.02052
G1 X229.238 Y162.573 E.0353
G1 X229.736 Y163.071 E.02052
G1 X229.738 Y164.285 E.0353
G1 X229.239 Y163.786 E.02052
G1 X229.24 Y164.999 E.0353
G1 X229.739 Y165.498 E.02052
G1 X229.74 Y166.711 E.0353
G1 X229.241 Y166.213 E.02052
G1 X229.243 Y167.426 E.0353
G1 X229.741 Y167.925 E.02052
G1 X229.743 Y169.138 E.0353
G1 X229.244 Y168.639 E.02052
G1 X229.245 Y169.853 E.0353
G1 X229.744 Y170.351 E.02052
G1 X229.745 Y171.565 E.0353
G1 X229.246 Y171.066 E.02052
G1 X229.248 Y172.279 E.0353
G1 X229.746 Y172.778 E.02052
G1 X229.747 Y173.991 E.0353
G1 X229.249 Y173.492 E.02052
G1 X229.25 Y174.706 E.0353
G1 X229.748 Y175.204 E.0205
G1 X229.747 Y176.415 E.03523
G1 X229.249 Y175.917 E.02048
G1 X229.248 Y177.128 E.03523
G1 X229.746 Y177.626 E.02048
G1 X229.745 Y178.837 E.03523
G1 X229.247 Y178.339 E.02048
G1 X229.246 Y179.55 E.03523
G1 X229.743 Y180.048 E.02048
G1 X229.742 Y181.258 E.03523
G1 X229.244 Y180.761 E.02048
G1 X229.243 Y181.972 E.03523
G1 X229.741 Y182.469 E.02048
G1 X229.74 Y183.68 E.03523
G1 X229.242 Y183.182 E.02048
G1 X229.241 Y184.393 E.03523
G1 X229.738 Y184.891 E.02048
G1 X229.737 Y186.102 E.03523
G1 X229.24 Y185.604 E.02048
G1 X229.238 Y186.815 E.03523
G1 X229.736 Y187.313 E.02048
G1 X229.735 Y188.524 E.03523
G1 X229.237 Y188.026 E.02048
G1 X229.236 Y188.928 E.02626
G1 X229.241 Y189.242 E.00913
G1 X229.734 Y189.735 E.02027
G1 X229.732 Y190.945 E.03523
G1 X229.259 Y190.472 E.01946
G1 X229.278 Y191.703 E.03581
G1 X229.731 Y192.156 E.01865
G1 X229.73 Y193.367 E.03523
G1 X229.296 Y192.934 E.01784
G1 X229.315 Y194.164 E.03581
G1 X229.729 Y194.578 E.01703
G1 X229.727 Y195.789 E.03523
G1 X229.333 Y195.395 E.01622
G1 X229.352 Y196.625 E.03581
G1 X229.726 Y197 E.01541
G1 X229.725 Y198.211 E.03523
G1 X229.379 Y197.864 E.01425
G1 X229.392 Y199.089 E.03564
G1 X229.724 Y199.421 E.01367
G1 X229.723 Y200.632 E.03523
G1 X229.41 Y200.32 E.01286
G1 X229.428 Y201.55 E.03581
G1 X229.721 Y201.843 E.01205
G1 X229.72 Y203.054 E.03523
G1 X229.447 Y202.781 E.01124
G1 X229.465 Y204.011 E.03581
G1 X229.719 Y204.265 E.01043
G1 X229.718 Y205.476 E.03523
G1 X229.484 Y205.242 E.00962
G1 X229.497 Y206.134 E.02596
G1 X229.636 Y206.463 E.01039
G1 X229.671 Y206.642 E.00529
G1 X229.716 Y206.687 E.00186
;WIPE_START
G1 X229.671 Y206.642 E-.01595
G1 X229.636 Y206.463 E-.04542
G1 X229.497 Y206.134 E-.08929
G1 X229.484 Y205.242 E-.22307
G1 X229.718 Y205.476 E-.08268
G1 X229.718 Y205.302 E-.04359
;WIPE_END
G17
G3 Z.45 I-.759 J-.052 P1  F36000
G1 X228.801 Y218.687 Z.45
G1 Z.2
G1 E.5 F1800
;TYPE:Outer wall
;WIDTH:0.399999
G1 X120.37 Y218.49 E3.15507
G1 X120.37 Y131.51 E2.53089
G1 X228.801 Y131.313 E3.15507
G1 X228.215 Y170.353 E1.1361
G1 X228.215 Y179.645 E.27037
G1 X228.801 Y218.667 E1.13559
G1 X228.732 Y218.648
;WIPE_START
G1 X226.801 Y218.664 E-.5
;WIPE_END
G17
G3 Z.45 I.761 J.01 P1  F36000
M73 P2 R41
G1 X227.971 Y131.421 Z.45
G1 Z.2
G1 E.5 F1800
;TYPE:Bottom surface
;WIDTH:0.400595
G1 F3000
G1 X228.523 Y131.974 E.01726
G1 X228.516 Y132.472 E.00963
G1 X227.626 Y131.583 E.03059
G1 X227.121 Y131.583 E.0098
G1 X228.508 Y132.97 E.0507
G1 X228.501 Y133.469 E.00963
G1 X226.617 Y131.584 E.07103
G1 X226.112 Y131.585 E.0098
G1 X228.493 Y133.967 E.09138
G1 X228.486 Y134.465 E.00963
G1 X225.607 Y131.586 E.11177
G1 X225.102 Y131.587 E.0098
G1 X228.479 Y134.964 E.13219
G1 X228.471 Y135.462 E.00963
G1 X224.597 Y131.588 E.15278
G1 X224.092 Y131.589 E.0098
G1 X228.464 Y135.961 E.17364
G1 X228.456 Y136.459 E.00963
G1 X223.587 Y131.59 E.19477
G1 X223.082 Y131.591 E.0098
G1 X228.449 Y136.957 E.21616
G1 X228.441 Y137.456 E.00963
G1 X222.577 Y131.592 E.23781
G1 X222.072 Y131.593 E.0098
G1 X228.434 Y137.954 E.25973
G1 X228.426 Y138.452 E.00963
G1 X221.567 Y131.594 E.28191
G1 X221.063 Y131.595 E.0098
G1 X228.419 Y138.951 E.30321
G1 X228.411 Y139.449 E.00963
G1 X220.558 Y131.595 E.32371
G1 X220.053 Y131.596 E.0098
G1 X228.404 Y139.947 E.34422
G1 X228.396 Y140.446 E.00963
G1 X219.548 Y131.597 E.36472
G1 X219.043 Y131.598 E.0098
G1 X228.389 Y140.944 E.38522
G1 X228.381 Y141.442 E.00963
G1 X218.538 Y131.599 E.40573
G1 X218.033 Y131.6 E.0098
G1 X228.374 Y141.941 E.42623
G1 X228.366 Y142.439 E.00963
G1 X217.528 Y131.601 E.44673
G1 X217.023 Y131.602 E.0098
G1 X228.359 Y142.937 E.46724
G1 X228.351 Y143.436 E.00963
G1 X216.518 Y131.603 E.48774
G1 X216.013 Y131.604 E.0098
G1 X228.344 Y143.934 E.50824
G1 X228.336 Y144.433 E.00963
G1 X215.509 Y131.605 E.52875
G1 X215.004 Y131.606 E.0098
G1 X228.329 Y144.931 E.54925
G1 X228.321 Y145.429 E.00963
G1 X214.499 Y131.606 E.56975
G1 X213.994 Y131.607 E.0098
G1 X228.314 Y145.928 E.59026
G1 X228.307 Y146.426 E.00963
G1 X213.489 Y131.608 E.61076
G1 X212.984 Y131.609 E.0098
G1 X228.299 Y146.924 E.63127
G1 X228.292 Y147.423 E.00963
G1 X212.479 Y131.61 E.65177
G1 X211.974 Y131.611 E.0098
G1 X228.284 Y147.921 E.67227
G1 X228.277 Y148.419 E.00963
G1 X211.469 Y131.612 E.69278
G1 X210.964 Y131.613 E.0098
G1 X228.269 Y148.918 E.71328
G1 X228.262 Y149.416 E.00963
G1 X210.459 Y131.614 E.73378
G1 X209.955 Y131.615 E.0098
G1 X228.254 Y149.914 E.75429
G1 X228.247 Y150.413 E.00963
G1 X209.45 Y131.616 E.77479
G1 X208.945 Y131.617 E.0098
G1 X228.239 Y150.911 E.79529
G1 X228.232 Y151.409 E.00963
G1 X208.44 Y131.618 E.8158
G1 X207.935 Y131.618 E.0098
G1 X228.224 Y151.908 E.8363
G1 X228.217 Y152.406 E.00963
G1 X207.43 Y131.619 E.8568
G1 X206.925 Y131.62 E.0098
G1 X228.209 Y152.905 E.87731
G1 X228.202 Y153.403 E.00963
G1 X206.42 Y131.621 E.89781
G1 X205.915 Y131.622 E.0098
G1 X228.194 Y153.901 E.91831
G1 X228.187 Y154.4 E.00963
G1 X205.41 Y131.623 E.93882
G1 X204.905 Y131.624 E.0098
G1 X228.179 Y154.898 E.95932
G1 X228.172 Y155.396 E.00963
G1 X204.401 Y131.625 E.97982
G1 X203.896 Y131.626 E.0098
G1 X228.164 Y155.895 E1.00033
G1 X228.157 Y156.393 E.00963
G1 X203.391 Y131.627 E1.02083
G1 X202.886 Y131.628 E.0098
G1 X228.15 Y156.891 E1.04133
G1 X228.142 Y157.39 E.00963
G1 X202.381 Y131.629 E1.06184
G1 X201.876 Y131.629 E.0098
G1 X228.135 Y157.888 E1.08234
G1 X228.127 Y158.386 E.00963
G1 X201.371 Y131.63 E1.10284
G1 X200.866 Y131.631 E.0098
G1 X228.12 Y158.885 E1.12335
G1 X228.112 Y159.383 E.00963
G1 X200.361 Y131.632 E1.14385
G1 X199.856 Y131.633 E.0098
G1 X228.105 Y159.881 E1.16436
G1 X228.097 Y160.38 E.00963
G1 X199.351 Y131.634 E1.18486
G1 X198.847 Y131.635 E.0098
M73 P3 R41
G1 X228.09 Y160.878 E1.20536
G1 X228.082 Y161.376 E.00963
G1 X198.342 Y131.636 E1.22587
G1 X197.837 Y131.637 E.0098
G1 X228.075 Y161.875 E1.24637
G1 X228.067 Y162.373 E.00963
G1 X197.332 Y131.638 E1.26687
G1 X196.827 Y131.639 E.0098
G1 X228.06 Y162.872 E1.28738
G1 X228.052 Y163.37 E.00963
G1 X196.322 Y131.64 E1.30788
G1 X195.817 Y131.641 E.0098
G1 X228.045 Y163.868 E1.32838
G1 X228.037 Y164.367 E.00963
G1 X195.312 Y131.641 E1.34889
G1 X194.807 Y131.642 E.0098
G1 X228.03 Y164.865 E1.36939
G1 X228.022 Y165.363 E.00963
G1 X194.302 Y131.643 E1.38989
G1 X193.797 Y131.644 E.0098
G1 X228.015 Y165.862 E1.4104
G1 X228.007 Y166.36 E.00963
G1 X193.293 Y131.645 E1.4309
G1 X192.788 Y131.646 E.0098
G1 X228 Y166.858 E1.4514
G1 X227.992 Y167.357 E.00963
G1 X192.283 Y131.647 E1.47191
G1 X191.778 Y131.648 E.0098
G1 X227.985 Y167.855 E1.49241
G1 X227.978 Y168.353 E.00963
G1 X191.273 Y131.649 E1.51291
G1 X190.768 Y131.65 E.0098
G1 X227.97 Y168.852 E1.53342
G1 X227.963 Y169.35 E.00963
G1 X190.263 Y131.651 E1.55392
G1 X189.758 Y131.652 E.0098
G1 X227.955 Y169.848 E1.57442
G1 X227.948 Y170.347 E.00963
M73 P3 R40
G1 X189.253 Y131.652 E1.59493
G1 X188.748 Y131.653 E.0098
G1 X227.948 Y170.853 E1.61574
G1 X227.948 Y171.358 E.00982
G1 X188.243 Y131.654 E1.63655
G1 X187.739 Y131.655 E.0098
G1 X227.948 Y171.864 E1.65736
G1 X227.948 Y172.37 E.00982
G1 X187.234 Y131.656 E1.67817
G1 X186.729 Y131.657 E.0098
G1 X227.948 Y172.876 E1.69899
G1 X227.948 Y173.382 E.00982
G1 X186.224 Y131.658 E1.7198
G1 X185.719 Y131.659 E.0098
M73 P4 R40
G1 X227.948 Y173.888 E1.74061
G1 X227.948 Y174.393 E.00982
G1 X185.214 Y131.66 E1.76142
G1 X184.709 Y131.661 E.0098
G1 X227.948 Y174.899 E1.78223
G1 X227.948 Y175.405 E.00982
G1 X184.204 Y131.662 E1.80304
G1 X183.699 Y131.663 E.0098
G1 X227.948 Y175.911 E1.82386
G1 X227.948 Y176.417 E.00982
G1 X183.194 Y131.663 E1.84467
G1 X182.689 Y131.664 E.0098
G1 X227.948 Y176.923 E1.86548
G1 X227.948 Y177.428 E.00982
G1 X182.185 Y131.665 E1.88629
G1 X181.68 Y131.666 E.0098
G1 X227.948 Y177.934 E1.9071
G1 X227.948 Y178.44 E.00982
G1 X181.175 Y131.667 E1.92791
G1 X180.67 Y131.668 E.0098
G1 X227.948 Y178.946 E1.94873
G1 X227.948 Y179.452 E.00982
G1 X180.165 Y131.669 E1.96954
G1 X179.66 Y131.67 E.0098
G1 X227.952 Y179.962 E1.99054
G1 X227.96 Y180.476 E.01003
G1 X179.155 Y131.671 E2.01167
G1 X178.65 Y131.672 E.0098
G1 X227.968 Y180.989 E2.0328
G1 X227.975 Y181.503 E.01003
G1 X178.145 Y131.673 E2.05393
G1 X177.64 Y131.674 E.0098
G1 X227.983 Y182.016 E2.07506
G1 X227.991 Y182.53 E.01003
G1 X177.135 Y131.675 E2.09619
G1 X176.631 Y131.675 E.0098
G1 X227.998 Y183.043 E2.11732
G1 X228.006 Y183.557 E.01003
M73 P5 R40
G1 X176.126 Y131.676 E2.13845
G1 X175.621 Y131.677 E.0098
G1 X228.014 Y184.07 E2.15958
G1 X228.022 Y184.584 E.01003
G1 X175.116 Y131.678 E2.1807
G1 X174.611 Y131.679 E.0098
G1 X228.029 Y185.098 E2.20183
G1 X228.037 Y185.611 E.01003
G1 X174.106 Y131.68 E2.22296
G1 X173.601 Y131.681 E.0098
G1 X228.045 Y186.125 E2.24409
G1 X228.052 Y186.638 E.01003
G1 X173.096 Y131.682 E2.26522
G1 X172.591 Y131.683 E.0098
G1 X228.06 Y187.152 E2.28635
G1 X228.068 Y187.665 E.01003
G1 X172.086 Y131.684 E2.30748
G1 X171.581 Y131.685 E.0098
G1 X228.076 Y188.179 E2.32861
G1 X228.083 Y188.692 E.01003
G1 X171.077 Y131.686 E2.34974
G1 X170.572 Y131.686 E.0098
G1 X228.091 Y189.206 E2.37087
G1 X228.099 Y189.719 E.01003
G1 X170.067 Y131.687 E2.392
G1 X169.562 Y131.688 E.0098
G1 X228.106 Y190.233 E2.41313
G1 X228.114 Y190.746 E.01003
G1 X169.057 Y131.689 E2.43426
G1 X168.552 Y131.69 E.0098
G1 X228.122 Y191.26 E2.45538
G1 X228.129 Y191.773 E.01003
M73 P6 R40
G1 X168.047 Y131.691 E2.47651
G1 X167.542 Y131.692 E.0098
M73 P6 R39
G1 X228.137 Y192.287 E2.49764
G1 X228.145 Y192.801 E.01003
G1 X167.037 Y131.693 E2.51877
G1 X166.532 Y131.694 E.0098
G1 X228.153 Y193.314 E2.5399
G1 X228.16 Y193.828 E.01003
G1 X166.027 Y131.695 E2.56103
G1 X165.523 Y131.696 E.0098
G1 X228.168 Y194.341 E2.58216
G1 X228.176 Y194.855 E.01003
G1 X165.018 Y131.697 E2.60329
G1 X164.513 Y131.698 E.0098
G1 X228.183 Y195.368 E2.62442
G1 X228.191 Y195.882 E.01003
G1 X164.008 Y131.698 E2.64555
G1 X163.503 Y131.699 E.0098
G1 X228.199 Y196.395 E2.66668
G1 X228.207 Y196.909 E.01003
G1 X162.998 Y131.7 E2.68781
G1 X162.493 Y131.701 E.0098
G1 X228.214 Y197.422 E2.70894
G1 X228.222 Y197.936 E.01003
G1 X161.988 Y131.702 E2.73007
G1 X161.483 Y131.703 E.0098
G1 X228.23 Y198.449 E2.75119
G1 X228.237 Y198.963 E.01003
M73 P7 R39
G1 X160.978 Y131.704 E2.77232
G1 X160.473 Y131.705 E.0098
G1 X228.245 Y199.476 E2.79345
G1 X228.253 Y199.99 E.01003
G1 X159.969 Y131.706 E2.81458
G1 X159.464 Y131.707 E.0098
G1 X228.26 Y200.504 E2.83571
G1 X228.268 Y201.017 E.01003
G1 X158.959 Y131.708 E2.85684
G1 X158.454 Y131.709 E.0098
G1 X228.276 Y201.531 E2.87797
G1 X228.284 Y202.044 E.01003
G1 X157.949 Y131.709 E2.8991
G1 X157.444 Y131.71 E.0098
G1 X228.291 Y202.558 E2.92023
G1 X228.299 Y203.071 E.01003
G1 X156.939 Y131.711 E2.94136
G1 X156.434 Y131.712 E.0098
G1 X228.307 Y203.585 E2.96249
G1 X228.314 Y204.098 E.01003
G1 X155.929 Y131.713 E2.98362
G1 X155.424 Y131.714 E.0098
G1 X228.322 Y204.612 E3.00475
G1 X228.33 Y205.125 E.01003
G1 X154.919 Y131.715 E3.02588
G1 X154.415 Y131.716 E.0098
M73 P8 R39
G1 X228.338 Y205.639 E3.047
G1 X228.345 Y206.152 E.01003
G1 X153.91 Y131.717 E3.06813
G1 X153.405 Y131.718 E.0098
G1 X228.353 Y206.666 E3.08926
G1 X228.361 Y207.179 E.01003
G1 X152.9 Y131.719 E3.11039
G1 X152.395 Y131.72 E.0098
G1 X228.368 Y207.693 E3.13152
G1 X228.376 Y208.207 E.01003
M73 P8 R38
G1 X151.89 Y131.721 E3.15265
G1 X151.385 Y131.721 E.0098
G1 X228.384 Y208.72 E3.17378
G1 X228.391 Y209.234 E.01003
G1 X150.88 Y131.722 E3.19491
G1 X150.375 Y131.723 E.0098
G1 X228.399 Y209.747 E3.21604
G1 X228.407 Y210.261 E.01003
G1 X149.87 Y131.724 E3.23717
G1 X149.365 Y131.725 E.0098
G1 X228.415 Y210.774 E3.2583
G1 X228.422 Y211.288 E.01003
G1 X148.861 Y131.726 E3.27943
G1 X148.356 Y131.727 E.0098
M73 P9 R38
G1 X228.43 Y211.801 E3.30056
G1 X228.438 Y212.315 E.01003
G1 X147.851 Y131.728 E3.32168
G1 X147.346 Y131.729 E.0098
G1 X228.445 Y212.828 E3.34281
G1 X228.453 Y213.342 E.01003
G1 X146.841 Y131.73 E3.36394
G1 X146.336 Y131.731 E.0098
G1 X228.461 Y213.855 E3.38507
G1 X228.469 Y214.369 E.01003
G1 X145.831 Y131.732 E3.4062
G1 X145.326 Y131.732 E.0098
G1 X228.476 Y214.882 E3.42733
