; HEADER_BLOCK_START
; generated by OrcaSlicer 2.3.1 on 2025-12-23 at 19:59:26
; total layer number: 1
; filament_density: 1.24
; filament_diameter: 1.75
; max_z_height: 0.20
; HEADER_BLOCK_END

; THUMBNAIL_BLOCK_START

;
; THUMBNAIL_BLOCK_END

; THUMBNAIL_BLOCK_START

;
; THUMBNAIL_BLOCK_END

; THUMBNAIL_BLOCK_START

;
; THUMBNAIL_BLOCK_END

; external perimeters extrusion width = 0.60mm
; perimeters extrusion width = 0.60mm
; infill extrusion width = 0.40mm
; solid infill extrusion width = 0.40mm
; top infill extrusion width = 0.40mm
; support material extrusion width = 0.40mm
; first layer extrusion width = 0.40mm

; EXECUTABLE_BLOCK_START
EXCLUDE_OBJECT_DEFINE NAME=Cylinder_id_0_copy_0 CENTER=175,175 POLYGON=[[157.5,175],[157.511,174.389],[157.543,173.779],[157.596,173.171],[157.67,172.564],[157.766,171.961],[157.882,171.362],[158.02,170.766],[158.178,170.176],[158.357,169.592],[158.555,169.015],[158.774,168.444],[159.013,167.882],[159.271,167.329],[159.548,166.784],[159.845,166.25],[160.159,165.726],[160.492,165.214],[160.842,164.714],[161.21,164.226],[161.594,163.751],[161.995,163.29],[162.412,162.843],[162.843,162.412],[163.29,161.995],[163.751,161.594],[164.226,161.21],[164.714,160.842],[165.214,160.492],[165.726,160.159],[166.25,159.845],[166.784,159.548],[167.329,159.271],[167.882,159.013],[168.444,158.774],[169.015,158.555],[169.592,158.357],[170.176,158.178],[170.766,158.02],[171.362,157.882],[171.961,157.766],[172.564,157.67],[173.171,157.596],[173.779,157.543],[174.389,157.511],[175,157.5],[175.611,157.511],[176.221,157.543],[176.829,157.596],[177.436,157.67],[178.039,157.766],[178.638,157.882],[179.234,158.02],[179.824,158.178],[180.408,158.357],[180.985,158.555],[181.556,158.774],[182.118,159.013],[182.671,159.271],[183.216,159.548],[183.75,159.845],[184.274,160.159],[184.786,160.492],[185.286,160.842],[185.774,161.21],[186.249,161.594],[186.71,161.995],[187.157,162.412],[187.588,162.843],[188.005,163.29],[188.406,163.751],[188.79,164.226],[189.158,164.714],[189.508,165.214],[189.841,165.726],[190.155,166.25],[190.452,166.784],[190.729,167.329],[190.987,167.882],[191.226,168.444],[191.445,169.015],[191.643,169.592],[191.822,170.176],[191.98,170.766],[192.118,171.362],[192.234,171.961],[192.33,172.564],[192.404,173.171],[192.457,173.779],[192.489,174.389],[192.5,175],[192.489,175.611],[192.457,176.221],[192.404,176.829],[192.33,177.436],[192.234,178.039],[192.118,178.638],[191.98,179.234],[191.822,179.824],[191.643,180.408],[191.445,180.985],[191.226,181.556],[190.987,182.118],[190.729,182.671],[190.452,183.216],[190.155,183.75],[189.841,184.274],[189.508,184.786],[189.158,185.286],[188.79,185.774],[188.406,186.249],[188.005,186.71],[187.588,187.157],[187.157,187.588],[186.71,188.005],[186.249,188.406],[185.774,188.79],[185.286,189.158],[184.786,189.508],[184.274,189.841],[183.75,190.155],[183.216,190.452],[182.671,190.729],[182.118,190.987],[181.556,191.226],[180.985,191.445],[180.408,191.643],[179.824,191.822],[179.234,191.98],[178.638,192.118],[178.039,192.234],[177.436,192.33],[176.829,192.404],[176.221,192.457],[175.611,192.489],[175,192.5],[174.389,192.489],[173.779,192.457],[173.171,192.404],[172.564,192.33],[171.961,192.234],[171.362,192.118],[170.766,191.98],[170.176,191.822],[169.592,191.643],[169.015,191.445],[168.444,191.226],[167.882,190.987],[167.329,190.729],[166.784,190.452],[166.25,190.155],[165.726,189.841],[165.214,189.508],[164.714,189.158],[164.226,188.79],[163.751,188.406],[163.29,188.005],[162.843,187.588],[162.412,187.157],[161.995,186.71],[161.594,186.249],[161.21,185.774],[160.842,185.286],[160.492,184.786],[160.159,184.274],[159.845,183.75],[159.548,183.216],[159.271,182.671],[159.013,182.118],[158.774,181.556],[158.555,180.985],[158.357,180.408],[158.178,179.824],[158.02,179.234],[157.882,178.638],[157.766,178.039],[157.67,177.436],[157.596,176.829],[157.543,176.221],[157.511,175.611],[157.5,175]]
M73 P0 R1
;TYPE:Custom
G28
G90
G1 X0 F9000
G1 Y20
G1 Z0.600 F600
G1 Y0 F9000
START_PRINT EXTRUDER_TEMP=225 BED_TEMP=60
G90
G1 X0 F9000
G1 Y20
G1 Z0.600 F600
G1 Y0 F9000
M400
G91
M83
M140 S60 ;set bed temp
M104 S225 ;set extruder temp
M190 S60 ;wait for bed temp
M109 S225;wait for extruder temp
G1 E25 F300
M73 P1 R1
G4 P1000
G1 E-0.200 Z5 F600
M73 P7 R1
G1 X88.000 F9000
G1 Z-5.000 F600
M73 P8 R1
G1 X87.000 E20.88 F1800
M73 P9 R1
G1 X87.000 E13.92 F1800
M73 P12 R1
G1 Y1 E0.16 F1800
M73 P15 R1
G1 X-87.000 E13.92 F1800
G1 X-87.000 E20.88 F1800
M73 P19 R1
G1 Y1 E0.24 F1800
M73 P22 R1
G1 X87.000 E20.88 F1800
G1 X87.000 E13.92 F1800
M73 P26 R1
G1 E-0.200 Z1 F600
M73 P29 R0
M400
G90
G21
M83 ; use relative distances for extrusion
; Filament gcode
M106 S0
;LAYER_CHANGE
;Z:0.2
;HEIGHT:0.2
TIMELAPSE_TAKE_FRAME
G92 E0
G1 E-.5 F1800
;_SET_FAN_SPEED_CHANGING_LAYER
SET_VELOCITY_LIMIT ACCEL=3000 ACCEL_TO_DECEL=1500
G1 X162.684 Y162.322 F36000
G1 Z.45
M73 P30 R0
G1 Z.2
G1 E.5 F1800
;TYPE:Skirt
;WIDTH:0.4
G1 F3000
G1 X162.722 Y162.281 E.00162
G1 X164.114 Y161.071 E.05366
G1 X165.629 Y160.009 E.05384
G1 X167.247 Y159.112 E.05384
G1 X168.38 Y158.608 E.03609
G1 X170.124 Y158.007 E.05366
G1 X171.927 Y157.591 E.05384
G1 X173.764 Y157.365 E.05384
G1 X175.308 Y157.327 E.04496
G1 X176.851 Y157.419 E.04496
G1 X178.679 Y157.708 E.05384
G1 X180.466 Y158.188 E.05384
M73 P31 R0
G1 X182.188 Y158.849 E.05366
G1 X183.837 Y159.688 E.05384
G1 X185.389 Y160.696 E.05384
G1 X186.366 Y161.459 E.03609
G1 X187.719 Y162.722 E.05384
G1 X188.929 Y164.114 E.05366
G1 X189.991 Y165.629 E.05384
G1 X190.611 Y166.703 E.03609
G1 X191.392 Y168.38 E.05384
G1 X191.995 Y170.13 E.05384
G1 X192.409 Y171.927 E.05366
G1 X192.635 Y173.764 E.05384
G1 X192.668 Y175.614 E.05384
G1 X192.507 Y177.457 E.05384
G1 X192.292 Y178.679 E.03609
G1 X191.812 Y180.466 E.05384
G1 X191.151 Y182.188 E.05366
G1 X190.312 Y183.837 E.05384
G1 X189.304 Y185.389 E.05384
G1 X188.14 Y186.827 E.05384
G1 X187.278 Y187.719 E.03609
G1 X185.882 Y188.933 E.05384
G1 X184.371 Y189.991 E.05366
G1 X182.753 Y190.888 E.05384
M73 P32 R0
G1 X181.049 Y191.611 E.05384
G1 X179.28 Y192.153 E.05384
G1 X178.067 Y192.41 E.03609
G1 X176.23 Y192.636 E.05384
G1 X174.386 Y192.668 E.05366
G1 X172.543 Y192.507 E.05384
G1 X171.321 Y192.292 E.03609
G1 X169.534 Y191.812 E.05384
G1 X167.812 Y191.151 E.05366
G1 X166.163 Y190.312 E.05384
G1 X164.611 Y189.304 E.05384
G1 X163.634 Y188.541 E.03609
G1 X162.281 Y187.278 E.05384
G1 X161.071 Y185.886 E.05366
G1 X160.009 Y184.371 E.05384
G1 X159.112 Y182.753 E.05384
G1 X158.608 Y181.62 E.03609
G1 X158.005 Y179.87 E.05384
G1 X157.59 Y178.067 E.05384
G1 X157.364 Y176.23 E.05384
G1 X157.332 Y174.386 E.05366
G1 X157.493 Y172.543 E.05384
G1 X157.708 Y171.321 E.03609
G1 X158.186 Y169.54 E.05366
M73 P33 R0
G1 X158.849 Y167.812 E.05384
G1 X159.688 Y166.163 E.05384
G1 X160.696 Y164.611 E.05384
G1 X161.459 Y163.634 E.03609
G1 X162.656 Y162.351 E.05106
; printing object Cylinder id:0 copy 0
;WIPE_START
G1 X162.722 Y162.281 E-.0239
G1 X164.114 Y161.071 E-.46106
G1 X164.163 Y161.037 E-.01504
;WIPE_END
EXCLUDE_OBJECT_START NAME=Cylinder_id_0_copy_0
G17
G3 Z.45 I-.754 J-.096 P1  F36000
G1 X161.086 Y185.111 Z.45
G1 Z.2
G1 E.5 F1800
;TYPE:Outer wall
;WIDTH:0.399999
G1 X160.413 Y184.113 E.03503
G1 X160.105 Y183.601 E.01737
G1 X159.541 Y182.54 E.03498
G1 X159.052 Y181.442 E.03498
G1 X158.837 Y180.883 E.01742
G1 X158.642 Y180.317 E.01742
G1 X158.311 Y179.159 E.03503
G1 X158.176 Y178.578 E.01737
G1 X157.967 Y177.392 E.03503
M73 P34 R0
G1 X157.894 Y176.8 E.01737
G1 X157.811 Y175.6 E.03498
G1 X157.811 Y174.399 E.03495
G1 X157.868 Y173.501 E.02618
G1 X157.967 Y172.607 E.02618
G1 X158.176 Y171.422 E.035
G1 X158.311 Y170.841 E.01737
G1 X158.642 Y169.683 E.03503
G1 X158.837 Y169.119 E.01737
G1 X159.288 Y168.003 E.03503
G1 X159.54 Y167.462 E.01737
G1 X160.105 Y166.399 E.03503
G1 X160.413 Y165.887 E.01737
G1 X161.085 Y164.89 E.03498
G1 X161.825 Y163.943 E.03498
G1 X162.217 Y163.492 E.01737
G1 X163.053 Y162.626 E.03503
G1 X163.49 Y162.219 E.01738
G1 X164.177 Y161.635 E.02623
G1 X164.891 Y161.084 E.02623
G1 X165.38 Y160.742 E.01738
G1 X166.402 Y160.104 E.03503
G1 X167.458 Y159.542 E.03483
G1 X168.557 Y159.053 E.03498
G1 X169.687 Y158.641 E.03498
G1 X170.837 Y158.311 E.03483
M73 P35 R0
G1 X172.015 Y158.061 E.03504
G1 X172.604 Y157.968 E.01737
G1 X173.802 Y157.842 E.03504
G1 X174.399 Y157.811 E.01738
G1 X175.3 Y157.805 E.02623
G1 X176.201 Y157.842 E.02624
G1 X176.798 Y157.894 E.01743
G1 X177.392 Y157.967 E.01742
G1 X178.578 Y158.176 E.03503
G1 X179.159 Y158.311 E.01737
G1 X180.315 Y158.642 E.03498
G1 X181.445 Y159.053 E.03498
G1 X181.994 Y159.286 E.01737
G1 X183.076 Y159.814 E.03504
G1 X183.598 Y160.104 E.01737
G1 X184.62 Y160.742 E.03503
G1 X185.108 Y161.084 E.01737
G1 X186.056 Y161.824 E.035
G1 X186.729 Y162.423 E.02618
G1 X187.372 Y163.052 E.02618
G1 X188.177 Y163.945 E.035
G1 X188.914 Y164.889 E.03483
G1 X189.586 Y165.885 E.03498
G1 X190.187 Y166.927 E.03498
G1 X190.458 Y167.458 E.01737
G1 X190.948 Y168.558 E.03503
G1 X191.162 Y169.116 E.01737
M73 P36 R0
G1 X191.534 Y170.261 E.03503
G1 X191.689 Y170.837 E.01737
G1 X191.939 Y172.015 E.03504
G1 X192.032 Y172.604 E.01736
G1 X192.127 Y173.505 E.02635
G1 X192.174 Y174.1 E.01736
G1 X192.189 Y174.696 E.01736
G1 X192.189 Y175.602 E.02635
G1 X192.158 Y176.198 E.01737
G1 X192.032 Y177.394 E.03498
G1 X191.824 Y178.578 E.03498
G1 X191.689 Y179.159 E.01737
G1 X191.358 Y180.317 E.03503
G1 X191.163 Y180.883 E.01742
G1 X190.948 Y181.442 E.01742
G1 X190.459 Y182.54 E.03498
G1 X189.895 Y183.6 E.03495
G1 X189.423 Y184.366 E.02618
G1 X188.915 Y185.109 E.02618
G1 X188.175 Y186.057 E.035
G1 X187.783 Y186.508 E.01739
G1 X187.16 Y187.16 E.02623
G1 X186.509 Y187.782 E.02618
G1 X185.589 Y188.554 E.03495
G1 X184.617 Y189.26 E.03498
G1 X184.116 Y189.585 E.01737
G1 X183.073 Y190.187 E.03503
G1 X182.54 Y190.459 E.01742
M73 P37 R0
G1 X181.997 Y190.712 E.01742
G1 X180.881 Y191.163 E.03503
G1 X180.317 Y191.358 E.01737
G1 X179.161 Y191.689 E.03498
G1 X177.985 Y191.939 E.03499
G1 X177.394 Y192.033 E.01742
G1 X176.8 Y192.106 E.01742
G1 X175.6 Y192.189 E.03498
G1 X174.4 Y192.189 E.03493
G1 X173.2 Y192.106 E.03498
G1 X172.608 Y192.033 E.01737
G1 X171.422 Y191.824 E.03503
G1 X170.841 Y191.689 E.01737
G1 X169.683 Y191.358 E.03503
G1 X169.119 Y191.163 E.01737
G1 X168.003 Y190.712 E.03503
G1 X167.462 Y190.46 E.01737
G1 X166.399 Y189.895 E.03503
G1 X165.887 Y189.587 E.01737
G1 X164.89 Y188.915 E.03498
G1 X163.943 Y188.175 E.03498
G1 X163.053 Y187.373 E.03485
G1 X162.423 Y186.729 E.02623
G1 X161.823 Y186.055 E.02623
G1 X161.098 Y185.127 E.03427
G1 X161.119 Y185.038
;WIPE_START
G1 X160.413 Y184.113 E-.306
G1 X160.105 Y183.601 E-.14922
M73 P38 R0
G1 X160.021 Y183.443 E-.04478
;WIPE_END
G17
G3 Z.45 I.499 J.574 P1  F36000
G1 X185.342 Y161.402 Z.45
G1 Z.2
G1 E.5 F1800
;TYPE:Bottom surface
;WIDTH:0.403088
G1 F3000
G1 X187.199 Y163.259 E.07039
G1 X187.973 Y164.119 E.02795
G1 X188.696 Y165.044 E.0284
G1 X189.155 Y165.724 E.01845
G1 X184.268 Y160.838 E.19689
G1 X183.462 Y160.334 E.02206
G1 X182.998 Y160.077 E.01057
G1 X189.92 Y166.999 E.28676
G1 X190.217 Y167.574 E.0137
M73 P39 R0
G1 X190.402 Y167.991 E.00861
G1 X181.997 Y159.586 E.34885
G1 X181.123 Y159.221 E.02198
G1 X190.786 Y168.884 E.40107
G1 X191.06 Y169.667 E.01868
G1 X180.322 Y158.93 E.44565
G1 X179.599 Y158.715 E.01666
M73 P40 R0
G1 X191.298 Y170.415 E.4856
G1 X191.47 Y171.096 E.01522
G1 X178.9 Y158.525 E.52174
G1 X178.256 Y158.392 E.01399
M73 P41 R0
G1 X191.607 Y171.742 E.55414
G1 X191.724 Y172.368 E.01343
G1 X177.638 Y158.283 E.58465
G1 X177.046 Y158.2 E.01236
G1 X191.8 Y172.954 E.61236
G1 X191.86 Y173.523 E.01168
M73 P42 R0
G1 X176.477 Y158.14 E.63847
G1 X175.926 Y158.099 E.01113
M73 P43 R0
G1 X191.904 Y174.077 E.66319
G1 X191.922 Y174.604 E.01045
G1 X175.395 Y158.077 E.68594
G1 X174.884 Y158.076 E.01003
M73 P44 R0
G1 X191.922 Y175.113 E.70715
G1 X191.92 Y175.621 E.00995
G1 X174.379 Y158.08 E.72806
G1 X173.895 Y158.105 E.00933
M73 P45 R0
G1 X191.895 Y176.105 E.7471
G1 X191.85 Y176.569 E.00887
G1 X173.431 Y158.15 E.7645
M73 P46 R0
G1 X172.97 Y158.199 E.00879
G1 X191.801 Y177.03 E.78162
G1 X191.745 Y177.483 E.0086
M73 P47 R0
G1 X172.515 Y158.253 E.79816
G1 X172.075 Y158.323 E.00832
G1 X191.668 Y177.916 E.81324
G1 X191.592 Y178.349 E.00819
M73 P48 R0
G1 X171.655 Y158.411 E.82752
G1 X171.235 Y158.501 E.00793
M73 P49 R0
G1 X191.504 Y178.771 E.84132
G1 X191.405 Y179.18 E.00774
M73 P50 R0
G1 X170.819 Y158.595 E.85441
G1 X170.424 Y158.709 E.0075
G1 X191.291 Y179.576 E.86613
G1 X191.178 Y179.972 E.0075
M73 P51 R0
G1 X170.028 Y158.822 E.87785
G1 X169.64 Y158.943 E.00737
M73 P52 R0
G1 X191.059 Y180.362 E.88901
G1 X190.928 Y180.741 E.00723
G1 X169.266 Y159.079 E.8991
G1 X168.893 Y159.215 E.00715
M73 P53 R0
G1 X190.788 Y181.111 E.90879
G1 X190.641 Y181.473 E.007
M73 P54 R0
G1 X168.527 Y159.359 E.91786
G1 X168.175 Y159.516 E.00688
M73 P55 R0
G1 X190.484 Y181.825 E.92597
G1 X190.327 Y182.178 E.00688
G1 X167.822 Y159.673 E.93409
G1 X167.476 Y159.836 E.00681
M73 P56 R0
G1 X190.164 Y182.524 E.94171
G1 X189.987 Y182.857 E.00666
M73 P57 R0
G1 X167.143 Y160.012 E.94817
G1 X166.811 Y160.189 E.00666
M73 P58 R0
G1 X189.811 Y183.189 E.95463
G1 X189.631 Y183.519 E.00663
M73 P59 R0
G1 X166.482 Y160.369 E.96084
G1 X166.168 Y160.565 E.0065
G1 X189.437 Y183.834 E.96578
G1 X189.242 Y184.149 E.00651
M73 P60 R0
G1 X165.855 Y160.761 E.97073
G1 X165.541 Y160.957 E.0065
M73 P61 R0
G1 X189.038 Y184.454 E.97528
G1 X188.832 Y184.757 E.00642
M73 P62 R0
G1 X165.241 Y161.166 E.97916
G1 X164.946 Y161.38 E.00638
M73 P63 R0
G1 X188.619 Y185.054 E.98258
G1 X188.396 Y185.34 E.00634
G1 X164.658 Y161.602 E.98524
G1 X164.371 Y161.824 E.00635
M73 P64 R0
G1 X188.172 Y185.626 E.9879
G1 X187.948 Y185.91 E.00634
M73 P65 R0
G1 X164.094 Y162.057 E.99005
G1 X163.819 Y162.291 E.00631
M73 P66 R0
G1 X187.711 Y186.183 E.99165
G1 X187.468 Y186.45 E.00629
M73 P67 R0
G1 X163.549 Y162.53 E.9928
G1 X163.285 Y162.776 E.00628
G1 X187.22 Y186.71 E.99342
M73 P68 R0
G1 X186.971 Y186.971 E.00628
G1 X163.033 Y163.033 E.99357
G1 X162.783 Y163.292 E.00628
M73 P69 R0
G1 X186.71 Y187.22 E.99314
G1 X186.45 Y187.468 E.00628
M73 P70 R0
G1 X162.532 Y163.551 E.99271
G1 X162.289 Y163.817 E.00629
M73 P71 R0
G1 X186.18 Y187.708 E.99162
G1 X185.903 Y187.941 E.00631
M73 P72 R0
G1 X162.052 Y164.09 E.98995
G1 X161.828 Y164.375 E.00634
G1 X185.626 Y188.173 E.98778
G1 X185.344 Y188.401 E.00632
M73 P73 R0
G1 X161.604 Y164.661 E.98535
G1 X161.381 Y164.946 E.00634
M73 P74 R0
G1 X185.049 Y188.615 E.98238
G1 X184.754 Y188.829 E.00638
M73 P75 R0
G1 X161.169 Y165.244 E.97892
G1 X160.964 Y165.548 E.00643
M73 P76 R0
G1 X184.459 Y189.043 E.97518
G1 X184.15 Y189.244 E.00646
G1 X160.759 Y165.853 E.97088
G1 X160.56 Y166.163 E.00647
M73 P77 R0
G1 X183.835 Y189.438 E.96608
G1 X183.512 Y189.625 E.00657
M73 P78 R0
G1 X160.368 Y166.481 E.96061
G1 X160.189 Y166.811 E.00664
M73 P79 R0
G1 X183.189 Y189.811 E.95464
G1 X182.863 Y189.994 E.0066
M73 P80 R0
G1 X160.012 Y167.144 E.94843
G1 X159.836 Y167.476 E.00666
G1 X182.526 Y190.166 E.94177
G1 X182.181 Y190.331 E.00678
M73 P81 R0
G1 X159.669 Y167.819 E.93439
G1 X159.51 Y168.169 E.00685
M73 P82 R0
G1 X181.831 Y190.49 E.92649
G1 X181.469 Y190.637 E.00701
M73 P83 R0
G1 X159.363 Y168.531 E.91751
G1 X159.216 Y168.894 E.00701
M73 P84 R0
G1 X181.106 Y190.784 E.90854
G1 X180.741 Y190.928 E.00703
G1 X159.072 Y169.259 E.8994
G1 X158.941 Y169.638 E.00723
M73 P85 R0
G1 X180.362 Y191.059 E.88909
G1 X179.972 Y191.178 E.00741
M73 P86 R0
G1 X158.822 Y170.028 E.87784
G1 X158.709 Y170.424 E.0075
G1 X179.576 Y191.291 E.86612
M73 P87 R0
G1 X179.18 Y191.405 E.0075
G1 X158.595 Y170.82 E.8544
G1 X158.496 Y171.23 E.00774
M73 P88 R0
G1 X178.765 Y191.499 E.84131
G1 X178.345 Y191.589 E.00793
M73 P89 R0
G1 X158.408 Y171.651 E.82752
G1 X158.332 Y172.084 E.00819
G1 X177.925 Y191.677 E.81323
G1 X177.485 Y191.747 E.00832
M73 P90 R0
G1 X158.255 Y172.517 E.79815
G1 X158.197 Y172.968 E.00856
M73 P91 R0
G1 X177.035 Y191.807 E.78191
G1 X176.572 Y191.853 E.00884
G1 X158.146 Y173.427 E.7648
G1 X158.111 Y173.901 E.0091
M73 P92 R0
G1 X176.096 Y191.886 E.7465
G1 X175.62 Y191.92 E.00914
M73 P93 R0
