; HEADER_BLOCK_START
; generated by OrcaSlicer 2.3.1 on 2025-12-22 at 13:46:30
; total layer number: 1
; filament_density: 1.24
; filament_diameter: 1.75
; max_z_height: 0.20
; HEADER_BLOCK_END

; THUMBNAIL_BLOCK_START

;
; THUMBNAIL_BLOCK_END

; THUMBNAIL_BLOCK_START

;
; THUMBNAIL_BLOCK_END

; THUMBNAIL_BLOCK_START

;
; THUMBNAIL_BLOCK_END

; external perimeters extrusion width = 0.60mm
; perimeters extrusion width = 0.60mm
; infill extrusion width = 0.40mm
; solid infill extrusion width = 0.40mm
; top infill extrusion width = 0.40mm
; support material extrusion width = 0.40mm
; first layer extrusion width = 0.40mm

; EXECUTABLE_BLOCK_START
EXCLUDE_OBJECT_DEFINE NAME=Cylinder_id_0_copy_0 CENTER=175,175 POLYGON=[[160,175],[160.009,174.477],[160.037,173.954],[160.082,173.432],[160.146,172.912],[160.228,172.395],[160.328,171.881],[160.446,171.371],[160.581,170.865],[160.734,170.365],[160.905,169.87],[161.092,169.381],[161.297,168.899],[161.518,168.424],[161.756,167.958],[162.01,167.5],[162.279,167.051],[162.564,166.612],[162.865,166.183],[163.18,165.765],[163.509,165.358],[163.853,164.963],[164.21,164.58],[164.58,164.21],[164.963,163.853],[165.358,163.509],[165.765,163.18],[166.183,162.865],[166.612,162.564],[167.051,162.279],[167.5,162.01],[167.958,161.756],[168.424,161.518],[168.899,161.297],[169.381,161.092],[169.87,160.905],[170.365,160.734],[170.865,160.581],[171.371,160.446],[171.881,160.328],[172.395,160.228],[172.912,160.146],[173.432,160.082],[173.954,160.037],[174.477,160.009],[175,160],[175.523,160.009],[176.046,160.037],[176.568,160.082],[177.088,160.146],[177.605,160.228],[178.119,160.328],[178.629,160.446],[179.135,160.581],[179.635,160.734],[180.13,160.905],[180.619,161.092],[181.101,161.297],[181.576,161.518],[182.042,161.756],[182.5,162.01],[182.949,162.279],[183.388,162.564],[183.817,162.865],[184.235,163.18],[184.642,163.509],[185.037,163.853],[185.42,164.21],[185.79,164.58],[186.147,164.963],[186.491,165.358],[186.82,165.765],[187.135,166.183],[187.436,166.612],[187.721,167.051],[187.99,167.5],[188.244,167.958],[188.482,168.424],[188.703,168.899],[188.908,169.381],[189.095,169.87],[189.266,170.365],[189.419,170.865],[189.554,171.371],[189.672,171.881],[189.772,172.395],[189.854,172.912],[189.918,173.432],[189.963,173.954],[189.991,174.477],[190,175],[189.991,175.523],[189.963,176.046],[189.918,176.568],[189.854,177.088],[189.772,177.605],[189.672,178.119],[189.554,178.629],[189.419,179.135],[189.266,179.635],[189.095,180.13],[188.908,180.619],[188.703,181.101],[188.482,181.576],[188.244,182.042],[187.99,182.5],[187.721,182.949],[187.436,183.388],[187.135,183.817],[186.82,184.235],[186.491,184.642],[186.147,185.037],[185.79,185.42],[185.42,185.79],[185.037,186.147],[184.642,186.491],[184.235,186.82],[183.817,187.135],[183.388,187.436],[182.949,187.721],[182.5,187.99],[182.042,188.244],[181.576,188.482],[181.101,188.703],[180.619,188.908],[180.13,189.095],[179.635,189.266],[179.135,189.419],[178.629,189.554],[178.119,189.672],[177.605,189.772],[177.088,189.854],[176.568,189.918],[176.046,189.963],[175.523,189.991],[175,190],[174.477,189.991],[173.954,189.963],[173.432,189.918],[172.912,189.854],[172.395,189.772],[171.881,189.672],[171.371,189.554],[170.865,189.419],[170.365,189.266],[169.87,189.095],[169.381,188.908],[168.899,188.703],[168.424,188.482],[167.958,188.244],[167.5,187.99],[167.051,187.721],[166.612,187.436],[166.183,187.135],[165.765,186.82],[165.358,186.491],[164.963,186.147],[164.58,185.79],[164.21,185.42],[163.853,185.037],[163.509,184.642],[163.18,184.235],[162.865,183.817],[162.564,183.388],[162.279,182.949],[162.01,182.5],[161.756,182.042],[161.518,181.576],[161.297,181.101],[161.092,180.619],[160.905,180.13],[160.734,179.635],[160.581,179.135],[160.446,178.629],[160.328,178.119],[160.228,177.605],[160.146,177.088],[160.082,176.568],[160.037,176.046],[160.009,175.523],[160,175]]
M73 P0 R1
;TYPE:Custom
G28
G90
G1 X0 F9000
G1 Y20
G1 Z0.600 F600
G1 Y0 F9000
START_PRINT
G90
G1 X0 F9000
G1 Y20
G1 Z0.600 F600
M73 P1 R1
G1 Y0 F9000
M400
G91
M83
M140 S55 ;set bed temp
M104 S220 ;set extruder temp
M190 S55 ;wait for bed temp
M109 S220;wait for extruder temp
G1 E25 F300
G4 P1000
G1 E-0.200 Z5 F600
M73 P8 R1
G1 X88.000 F9000
M73 P9 R1
G1 Z-5.000 F600
M73 P10 R1
G1 X87.000 E20.88 F1800
M73 P11 R1
G1 X87.000 E13.92 F1800
M73 P15 R0
G1 Y1 E0.16 F1800
M73 P19 R0
G1 X-87.000 E13.92 F1800
G1 X-87.000 E20.88 F1800
M73 P23 R0
G1 Y1 E0.24 F1800
M73 P27 R0
G1 X87.000 E20.88 F1800
G1 X87.000 E13.92 F1800
M73 P31 R0
G1 E-0.200 Z1 F600
M73 P36 R0
M400
G90
G21
M83 ; use relative distances for extrusion
; Filament gcode
SET_PRESSURE_ADVANCE ADVANCE=0.02; Override pressure advance value
M106 S0
;LAYER_CHANGE
;Z:0.2
;HEIGHT:0.2
TIMELAPSE_TAKE_FRAME
G92 E0
G1 E-.5 F1800
;_SET_FAN_SPEED_CHANGING_LAYER
SET_VELOCITY_LIMIT ACCEL=3000 ACCEL_TO_DECEL=1500
G1 X164.348 Y164.193 F36000
G1 Z.45
M73 P37 R0
G1 Z.2
G1 E.5 F1800
;TYPE:Skirt
;WIDTH:0.4
G1 F3000
G1 X164.458 Y164.079 E.00461
G1 X165.653 Y163.041 E.04605
G1 X166.954 Y162.13 E.04623
G1 X168.343 Y161.359 E.04623
G1 X169.317 Y160.926 E.03101
G1 X170.819 Y160.409 E.04623
G1 X172.361 Y160.053 E.04605
G1 X173.938 Y159.859 E.04623
G1 X175.527 Y159.831 E.04623
G1 X177.109 Y159.969 E.04623
G1 X178.159 Y160.154 E.03101
G1 X179.693 Y160.565 E.04623
G1 X181.171 Y161.132 E.04605
G1 X182.587 Y161.853 E.04623
G1 X183.919 Y162.719 E.04623
G1 X185.154 Y163.718 E.04623
G1 X185.921 Y164.458 E.03101
G1 X186.963 Y165.658 E.04623
G1 X187.874 Y166.959 E.04623
G1 X188.641 Y168.343 E.04605
G1 X189.262 Y169.806 E.04623
M73 P38 R0
G1 X189.727 Y171.325 E.04623
G1 X189.948 Y172.367 E.03101
G1 X190.142 Y173.944 E.04623
G1 X190.169 Y175.527 E.04605
G1 X190.031 Y177.109 E.04623
G1 X189.846 Y178.159 E.03101
G1 X189.435 Y179.693 E.04623
G1 X188.868 Y181.171 E.04605
G1 X188.147 Y182.587 E.04623
G1 X187.582 Y183.49 E.03101
G1 X186.625 Y184.759 E.04623
G1 X185.542 Y185.921 E.04623
G1 X184.347 Y186.959 E.04605
G1 X183.046 Y187.87 E.04623
G1 X181.657 Y188.641 E.04623
G1 X180.194 Y189.262 E.04623
G1 X178.675 Y189.727 E.04623
G1 X177.633 Y189.948 E.03101
G1 X176.056 Y190.142 E.04623
G1 X174.473 Y190.169 E.04605
G1 X172.891 Y190.031 E.04623
G1 X171.841 Y189.846 E.03101
G1 X170.307 Y189.435 E.04623
G1 X168.829 Y188.868 E.04605
M73 P39 R0
G1 X167.413 Y188.147 E.04623
G1 X166.081 Y187.282 E.04623
G1 X164.846 Y186.282 E.04623
G1 X164.079 Y185.542 E.03101
G1 X163.041 Y184.347 E.04605
G1 X162.13 Y183.046 E.04623
G1 X161.359 Y181.657 E.04623
G1 X160.738 Y180.194 E.04623
G1 X160.273 Y178.675 E.04623
G1 X160.052 Y177.633 E.03101
G1 X159.858 Y176.056 E.04623
G1 X159.831 Y174.473 E.04605
G1 X159.969 Y172.891 E.04623
G1 X160.154 Y171.841 E.03101
G1 X160.565 Y170.307 E.04623
G1 X161.132 Y168.829 E.04605
G1 X161.853 Y167.413 E.04623
G1 X162.718 Y166.081 E.04623
G1 X163.718 Y164.846 E.04623
G1 X164.321 Y164.222 E.02523
; printing object Cylinder id:0 copy 0
;WIPE_START
G1 X164.458 Y164.079 E-.04961
G1 X165.653 Y163.041 E-.39564
G1 X165.832 Y162.915 E-.05475
;WIPE_END
EXCLUDE_OBJECT_START NAME=Cylinder_id_0_copy_0
G17
G3 Z.45 I-.254 J.717 P1  F36000
M73 P40 R0
G1 X189.201 Y171.211 Z.45
G1 Z.2
G1 E.5 F1800
;TYPE:Outer wall
;WIDTH:0.399999
G1 X189.356 Y171.87 E.01972
G1 X189.487 Y172.541 E.01989
G1 X189.606 Y173.397 E.02515
G1 X189.662 Y174.042 E.01884
G1 X189.691 Y174.932 E.02589
G1 X189.691 Y175.514 E.01694
G1 X189.642 Y176.281 E.02237
G1 X189.557 Y177.045 E.02238
G1 X189.378 Y178.058 E.02992
G1 X189.263 Y178.556 E.01488
G1 X189.131 Y179.05 E.01488
G1 X188.813 Y180.028 E.0299
G1 X188.429 Y180.979 E.02986
G1 X187.978 Y181.903 E.02991
G1 X187.731 Y182.35 E.01488
M73 P41 R0
G1 X187.467 Y182.788 E.01488
G1 X186.892 Y183.64 E.02991
G1 X186.26 Y184.45 E.02991
G1 X185.925 Y184.835 E.01483
G1 X185.211 Y185.575 E.02992
G1 X184.643 Y186.092 E.02237
G1 X184.049 Y186.584 E.02243
G1 X183.642 Y186.891 E.01485
G1 X182.788 Y187.467 E.02996
G1 X182.351 Y187.73 E.01483
G1 X181.442 Y188.213 E.02996
G1 X180.981 Y188.428 E.01483
G1 X180.026 Y188.814 E.02996
G1 X179.544 Y188.98 E.01483
G1 X178.556 Y189.263 E.02992
G1 X177.804 Y189.428 E.02238
G1 X177.046 Y189.557 E.02239
G1 X176.281 Y189.642 E.02239
G1 X175.514 Y189.691 E.02237
G1 X174.486 Y189.691 E.02989
G1 X173.719 Y189.642 E.02237
G1 X172.955 Y189.557 E.02238
G1 X171.942 Y189.378 E.02992
G1 X171.445 Y189.264 E.01483
G1 X170.456 Y188.98 E.02996
G1 X169.974 Y188.814 E.01483
M73 P42 R0
G1 X169.019 Y188.428 E.02996
G1 X168.558 Y188.213 E.01483
G1 X167.65 Y187.73 E.02991
G1 X166.778 Y187.186 E.02991
G1 X166.361 Y186.894 E.01483
G1 X165.55 Y186.26 E.02996
G1 X165.165 Y185.925 E.01483
G1 X164.426 Y185.211 E.02991
G1 X163.738 Y184.448 E.02991
G1 X163.416 Y184.05 E.01488
G1 X163.109 Y183.642 E.01488
G1 X162.533 Y182.788 E.02996
G1 X162.27 Y182.351 E.01483
G1 X161.788 Y181.444 E.02991
G1 X161.37 Y180.505 E.02991
G1 X161.187 Y180.028 E.01488
G1 X161.02 Y179.544 E.01488
G1 X160.736 Y178.555 E.02996
G1 X160.622 Y178.058 E.01483
G1 X160.443 Y177.046 E.0299
G1 X160.336 Y176.024 E.02991
G1 X160.309 Y175.515 E.01483
G1 X160.309 Y174.485 E.02996
G1 X160.336 Y173.976 E.01483
G1 X160.443 Y172.954 E.02991
G1 X160.622 Y171.942 E.0299
G1 X160.737 Y171.444 E.01488
M73 P43 R0
G1 X160.869 Y170.95 E.01488
G1 X161.187 Y169.972 E.0299
G1 X161.572 Y169.019 E.02991
G1 X161.787 Y168.558 E.01483
G1 X162.27 Y167.649 E.02996
G1 X162.533 Y167.212 E.01483
G1 X163.108 Y166.36 E.02991
G1 X163.74 Y165.55 E.02991
G1 X164.075 Y165.165 E.01483
G1 X164.789 Y164.426 E.02991
G1 X165.552 Y163.738 E.0299
G1 X165.95 Y163.416 E.01488
G1 X166.358 Y163.109 E.01488
G1 X167.212 Y162.533 E.02996
G1 X167.649 Y162.27 E.01483
G1 X168.556 Y161.788 E.02991
G1 X169.495 Y161.37 E.02991
G1 X169.971 Y161.187 E.01483
G1 X170.95 Y160.869 E.02996
G1 X171.442 Y160.737 E.01483
G1 X172.449 Y160.523 E.02996
G1 X172.952 Y160.443 E.01483
G1 X173.976 Y160.336 E.02996
G1 X174.485 Y160.309 E.01483
G1 X175.515 Y160.309 E.02996
G1 X176.024 Y160.336 E.01483
M73 P44 R0
G1 X177.046 Y160.443 E.02991
G1 X178.058 Y160.622 E.0299
G1 X178.555 Y160.736 E.01483
G1 X179.543 Y161.02 E.02991
G1 X180.508 Y161.371 E.02991
G1 X180.977 Y161.57 E.01483
G1 X181.903 Y162.022 E.02996
G1 X182.35 Y162.269 E.01488
G1 X182.788 Y162.533 E.01488
G1 X183.64 Y163.108 E.02991
G1 X184.45 Y163.74 E.02991
G1 X184.835 Y164.075 E.01483
G1 X185.574 Y164.789 E.02991
G1 X186.262 Y165.552 E.0299
G1 X186.584 Y165.95 E.01488
G1 X186.891 Y166.358 E.01488
G1 X187.466 Y167.21 E.02991
G1 X187.98 Y168.1 E.0299
G1 X188.211 Y168.554 E.01483
G1 X188.63 Y169.495 E.02996
G1 X188.813 Y169.971 E.01483
G1 X189.195 Y171.192 E.03722
G1 X189.144 Y171.267
;WIPE_START
G1 X189.356 Y171.87 E-.17439
G1 X189.487 Y172.541 E-.17089
G1 X189.572 Y173.154 E-.15472
;WIPE_END
G17
G3 Z.45 I.653 J-.39 P1  F36000
M73 P45 R0
G1 X183.674 Y163.27 Z.45
G1 Z.2
G1 E.5 F1800
;TYPE:Bottom surface
;WIDTH:0.403619
G1 F3000
G1 X185.404 Y165 E.06528
G1 X186.058 Y165.726 E.02287
G1 X186.673 Y166.514 E.02348
G1 X187.224 Y167.33 E.02306
G1 X182.67 Y162.776 E.18286
G1 X182.216 Y162.501 E.01058
G1 X181.514 Y162.13 E.01777
G1 X187.882 Y168.498 E.26225
G1 X188.312 Y169.438 E.02443
M73 P46 R0
G1 X180.556 Y161.682 E.32237
G1 X179.74 Y161.377 E.01989
G1 X188.626 Y170.262 E.36935
G1 X188.871 Y171.018 E.01776
G1 X178.995 Y161.141 E.41055
G1 X178.295 Y160.951 E.01587
M73 P47 R0
G1 X189.046 Y171.702 E.44688
G1 X189.182 Y172.349 E.01411
G1 X177.656 Y160.823 E.4791
G1 X177.037 Y160.714 E.01324
M73 P48 R0
G1 X189.287 Y172.963 E.50919
G1 X189.352 Y173.539 E.01189
G1 X176.465 Y160.651 E.53571
G1 X175.901 Y160.597 E.01154
M73 P49 R0
G1 X189.397 Y174.094 E.56103
G1 X189.423 Y174.63 E.01072
G1 X175.37 Y160.577 E.58415
G1 X174.86 Y160.577 E.01002
M73 P50 R0
G1 X189.423 Y175.14 E.60536
G1 X189.414 Y175.642 E.00979
M73 P51 R0
G1 X174.357 Y160.584 E.6259
G1 X173.878 Y160.615 E.00922
G1 X189.384 Y176.121 E.64452
G1 X189.338 Y176.586 E.00889
M73 P52 R0
G1 X173.416 Y160.664 E.66183
G1 X172.956 Y160.714 E.00878
M73 P53 R0
G1 X189.285 Y177.043 E.67875
G1 X189.209 Y177.477 E.00821
G1 X172.516 Y160.784 E.69388
G1 X172.095 Y160.872 E.00797
M73 P54 R0
G1 X189.132 Y177.91 E.70822
G1 X189.041 Y178.329 E.00792
M73 P55 R0
G1 X171.674 Y160.962 E.7219
G1 X171.264 Y161.062 E.00775
G1 X188.938 Y178.736 E.73465
G1 X188.823 Y179.131 E.0075
M73 P56 R0
G1 X170.869 Y161.177 E.7463
G1 X170.484 Y161.302 E.00734
M73 P57 R0
G1 X188.698 Y179.516 E.75711
G1 X188.573 Y179.901 E.00734
M73 P58 R0
G1 X170.099 Y161.427 E.76791
G1 X169.729 Y161.567 E.00712
G1 X188.428 Y180.266 E.77728
G1 X188.281 Y180.63 E.00703
M73 P59 R0
G1 X169.37 Y161.719 E.78608
G1 X169.017 Y161.876 E.0069
M73 P60 R0
G1 X188.128 Y180.986 E.79437
G1 X187.96 Y181.329 E.00678
M73 P61 R0
G1 X168.665 Y162.033 E.80206
G1 X168.332 Y162.21 E.00668
M73 P62 R0
G1 X187.793 Y181.672 E.80896
G1 X187.616 Y182.005 E.00668
G1 X167.999 Y162.388 E.81543
M73 P63 R0
G1 X167.671 Y162.57 E.00664
G1 X187.43 Y182.329 E.82136
G1 X187.239 Y182.648 E.00656
M73 P64 R0
G1 X167.352 Y162.761 E.82663
G1 X167.047 Y162.967 E.00646
M73 P65 R0
G1 X187.033 Y182.953 E.83076
G1 X186.828 Y183.257 E.00646
M73 P66 R0
G1 X166.743 Y163.172 E.83488
G1 X166.442 Y163.381 E.00644
M73 P67 R0
G1 X186.618 Y183.557 E.83866
G1 X186.394 Y183.843 E.00636
G1 X166.151 Y163.6 E.84145
M73 P68 R0
G1 X165.868 Y163.827 E.00635
G1 X186.17 Y184.13 E.84392
G1 X185.94 Y184.41 E.00634
M73 P69 R0
G1 X165.593 Y164.062 E.84579
G1 X165.324 Y164.304 E.00631
M73 P70 R0
G1 X185.701 Y184.681 E.84702
G1 X185.451 Y184.941 E.0063
M73 P71 R0
G1 X165.056 Y164.546 E.84776
G1 X164.8 Y164.8 E.0063
M73 P72 R0
G1 X185.2 Y185.2 E.84799
G1 X184.945 Y185.455 E.0063
M73 P73 R0
G1 X164.549 Y165.059 E.84779
G1 X164.299 Y165.319 E.0063
G1 X184.678 Y185.698 E.84711
G1 X184.408 Y185.939 E.00631
M73 P74 R0
G1 X164.06 Y165.59 E.84583
G1 X163.83 Y165.87 E.00634
M73 P75 R0
G1 X184.129 Y186.17 E.8438
G1 X183.849 Y186.4 E.00634
M73 P76 R0
G1 X163.606 Y166.157 E.84145
G1 X163.382 Y166.443 E.00636
M73 P77 R0
G1 X183.558 Y186.619 E.83866
G1 X183.257 Y186.828 E.00644
M73 P78 R0
G1 X163.172 Y166.743 E.83488
G1 X162.967 Y167.048 E.00646
M73 P79 R0
G1 X182.952 Y187.033 E.83076
G1 X182.648 Y187.239 E.00646
G1 X162.761 Y167.352 E.82663
G1 X162.57 Y167.671 E.00656
M73 P80 R0
G1 X182.329 Y187.43 E.82136
G1 X182.001 Y187.613 E.00664
M73 P81 R0
G1 X162.387 Y167.999 E.81529
G1 X162.21 Y168.332 E.00668
M73 P82 R0
G1 X181.668 Y187.79 E.80881
G1 X181.335 Y187.967 E.00668
M73 P83 R0
G1 X162.033 Y168.665 E.80232
G1 X161.871 Y169.012 E.00683
G1 X180.988 Y188.129 E.79465
M73 P84 R0
G1 X180.63 Y188.281 E.00697
G1 X161.719 Y169.37 E.78607
G1 X161.572 Y169.734 E.00703
M73 P85 R0
G1 X180.266 Y188.428 E.77707
G1 X179.902 Y188.574 E.00705
M73 P86 R0
G1 X161.427 Y170.099 E.76794
G1 X161.302 Y170.484 E.00734
M73 P87 R0
G1 X179.522 Y188.704 E.75736
G1 X179.128 Y188.821 E.00748
G1 X161.177 Y170.869 E.74619
G1 X161.062 Y171.264 E.0075
M73 P88 R0
G1 X178.732 Y188.934 E.73449
G1 X178.327 Y189.039 E.00767
M73 P89 R0
G1 X160.959 Y171.671 E.72194
G1 X160.868 Y172.09 E.00792
M73 P90 R0
G1 X177.908 Y189.131 E.70834
G1 X177.479 Y189.211 E.00813
G1 X160.791 Y172.524 E.69367
G1 X160.715 Y172.957 E.00821
M73 P91 R0
G1 X177.043 Y189.286 E.67873
G1 X176.586 Y189.338 E.00872
M73 P92 R0
G1 X160.664 Y173.417 E.66183
G1 X160.615 Y173.878 E.00882
G1 X176.121 Y189.384 E.64452
G1 X175.641 Y189.414 E.00924
M73 P93 R0
G1 X160.584 Y174.357 E.6259
G1 X160.577 Y174.86 E.00983
M73 P94 R0
G1 X175.14 Y189.423 E.60535
G1 X174.63 Y189.423 E.01002
G1 X160.577 Y175.37 E.58415
G1 X160.597 Y175.901 E.01058
M73 P95 R0
G1 X174.094 Y189.397 E.56102
G1 X173.539 Y189.352 E.01128
M73 P96 R0
G1 X160.651 Y176.465 E.5357
G1 X160.714 Y177.037 E.01178
G1 X172.963 Y189.286 E.50917
G1 X172.344 Y189.177 E.01324
M73 P97 R0
G1 X160.823 Y177.656 E.47889
G1 X160.951 Y178.295 E.01385
G1 X171.705 Y189.049 E.44701
G1 X170.997 Y188.851 E.01615
M73 P98 R0
G1 X161.141 Y178.995 E.40967
G1 X161.368 Y179.732 E.01712
G1 X170.265 Y188.629 E.36984
G1 X169.426 Y188.3 E.02073
G1 X161.689 Y180.563 E.32164
G1 X162.127 Y181.511 E.02477
M73 P99 R0
G1 X168.489 Y187.873 E.26199
G1 X167.784 Y187.498 E.01788
