; HEADER_BLOCK_START
; generated by OrcaSlicer 2.3.1 on 2026-01-20 at 15:13:16
; total layer number: 50
; filament_density: 1.24
; filament_diameter: 1.75
; max_z_height: 15.50
; HEADER_BLOCK_END

; THUMBNAIL_BLOCK_START

;
; THUMBNAIL_BLOCK_END

; THUMBNAIL_BLOCK_START

;
; THUMBNAIL_BLOCK_END

; THUMBNAIL_BLOCK_START

;
; THUMBNAIL_BLOCK_END

; external perimeters extrusion width = 0.70mm
; perimeters extrusion width = 0.60mm
; infill extrusion width = 0.40mm
; solid infill extrusion width = 0.40mm
; top infill extrusion width = 0.40mm
; first layer extrusion width = 0.40mm

; EXECUTABLE_BLOCK_START
EXCLUDE_OBJECT_DEFINE NAME=SpeedTestStructure.step_id_0_copy_0 CENTER=175,175 POLYGON=[[85.0007,145],[85.0031,144.731],[85.0036,144.669],[85.0066,144.517],[85.0123,144.325],[85.0143,144.275],[85.023,144.058],[85.0241,144.034],[85.0333,143.859],[85.0474,143.635],[85.0533,143.551],[85.0621,143.436],[85.0655,143.396],[85.08,143.223],[85.0941,143.07],[85.1123,142.891],[85.1227,142.795],[85.1251,142.774],[85.1351,142.686],[85.1466,142.589],[85.152,142.545],[85.1535,142.533],[85.1593,142.486],[85.1732,142.379],[85.1747,142.368],[85.1804,142.325],[85.1929,142.234],[85.1944,142.224],[85.2036,142.159],[85.2073,142.133],[85.209,142.122],[85.2106,142.11],[85.2129,142.095],[85.2154,142.078],[85.2173,142.065],[85.2179,142.061],[85.2752,141.702],[85.2862,141.633],[85.3733,141.157],[85.4719,140.684],[85.5819,140.214],[85.7032,139.746],[85.8358,139.281],[85.8438,139.256],[85.9796,138.82],[86.1345,138.362],[86.3004,137.908],[86.4773,137.458],[86.4876,137.433],[86.6649,137.013],[86.8633,136.572],[87.0722,136.136],[87.2916,135.706],[87.3043,135.682],[87.5214,135.28],[87.5347,135.257],[87.7614,134.861],[88.0114,134.447],[88.2713,134.04],[88.2863,134.018],[88.5411,133.639],[88.8204,133.244],[88.8364,133.223],[89.1092,132.857],[89.4073,132.476],[89.4243,132.456],[89.7144,132.103],[90.0305,131.738],[90.3554,131.38],[90.6888,131.03],[91.0305,130.688],[91.0499,130.67],[91.3804,130.355],[91.7383,130.03],[91.7585,130.012],[92.1039,129.714],[92.477,129.407],[92.8575,129.108],[93.245,128.82],[93.6394,128.54],[93.6617,128.525],[94.0405,128.271],[94.063,128.256],[94.4479,128.011],[94.4708,127.997],[94.8615,127.761],[95.2811,127.521],[95.7063,127.291],[95.7301,127.279],[96.1369,127.071],[96.161,127.06],[96.5727,126.863],[96.5971,126.852],[97.0135,126.664],[97.0381,126.654],[97.4588,126.477],[97.9086,126.3],[97.9338,126.29],[98.3626,126.134],[98.3879,126.125],[98.8204,125.979],[98.8459,125.971],[99.2818,125.835],[99.7466,125.702],[100.214,125.581],[100.685,125.471],[101.158,125.373],[101.634,125.285],[102.111,125.21],[102.59,125.146],[103.07,125.093],[103.552,125.053],[103.579,125.051],[104.034,125.023],[104.517,125.006],[105.001,125],[255.001,125],[255.02,125],[255.346,125.006],[255.691,125.024],[256.035,125.054],[256.054,125.056],[256.377,125.095],[256.718,125.149],[257.057,125.214],[257.076,125.218],[257.394,125.291],[257.728,125.379],[258.058,125.479],[258.076,125.485],[258.385,125.59],[258.708,125.712],[258.725,125.72],[259.026,125.846],[259.34,125.99],[259.648,126.145],[259.951,126.311],[259.967,126.321],[260.248,126.487],[260.264,126.497],[260.539,126.673],[260.823,126.869],[260.838,126.881],[261.1,127.075],[261.115,127.087],[261.37,127.29],[261.384,127.303],[261.632,127.515],[261.886,127.748],[261.9,127.762],[262.133,127.99],[262.37,128.241],[262.383,128.255],[262.599,128.499],[262.611,128.514],[262.819,128.765],[262.831,128.78],[263.03,129.039],[263.041,129.054],[263.231,129.319],[263.241,129.335],[263.422,129.607],[263.432,129.623],[263.603,129.901],[263.612,129.917],[263.774,130.201],[263.934,130.506],[263.943,130.523],[264.084,130.817],[264.092,130.835],[264.223,131.133],[264.351,131.454],[264.468,131.779],[264.573,132.107],[264.578,132.126],[264.667,132.44],[264.672,132.458],[264.75,132.775],[264.754,132.793],[264.821,133.113],[264.88,133.453],[264.928,133.795],[264.93,133.814],[264.964,134.138],[264.987,134.482],[264.999,134.827],[264.999,215.173],[264.987,215.518],[264.986,215.537],[264.964,215.862],[264.928,216.205],[264.925,216.224],[264.88,216.547],[264.821,216.887],[264.75,217.225],[264.667,217.56],[264.573,217.893],[264.567,217.911],[264.468,218.221],[264.351,218.546],[264.344,218.564],[264.223,218.867],[264.215,218.884],[264.084,219.183],[263.934,219.494],[263.925,219.511],[263.774,219.799],[263.603,220.099],[263.593,220.116],[263.422,220.393],[263.241,220.665],[263.231,220.681],[263.041,220.946],[263.03,220.961],[262.831,221.22],[262.819,221.235],[262.807,221.25],[262.599,221.501],[262.37,221.759],[262.357,221.773],[262.133,222.01],[261.9,222.238],[261.886,222.252],[261.632,222.485],[261.384,222.697],[261.37,222.71],[261.115,222.913],[261.1,222.925],[260.838,223.119],[260.823,223.131],[260.539,223.327],[260.264,223.503],[260.248,223.513],[259.967,223.679],[259.951,223.689],[259.648,223.855],[259.357,224.001],[259.34,224.01],[259.026,224.154],[258.725,224.28],[258.708,224.288],[258.385,224.41],[258.076,224.515],[258.058,224.521],[257.746,224.616],[257.728,224.621],[257.394,224.709],[257.057,224.786],[256.718,224.851],[256.377,224.905],[256.054,224.944],[256.035,224.946],[255.691,224.976],[255.346,224.994],[255.001,225],[105.001,225],[104.806,224.998],[104.517,224.994],[104.491,224.993],[104.034,224.977],[103.552,224.947],[103.07,224.907],[102.59,224.854],[102.563,224.851],[102.111,224.79],[102.085,224.786],[101.634,224.715],[101.158,224.627],[100.685,224.529],[100.659,224.523],[100.214,224.419],[99.7466,224.298],[99.7209,224.29],[99.2818,224.165],[98.8204,224.021],[98.3626,223.866],[97.9086,223.7],[97.8838,223.691],[97.4588,223.523],[97.4342,223.513],[97.0135,223.336],[96.5727,223.137],[96.5486,223.126],[96.1369,222.929],[95.7063,222.709],[95.2811,222.479],[95.2579,222.466],[94.8615,222.239],[94.8387,222.226],[94.4479,221.989],[94.0405,221.729],[93.6394,221.46],[93.245,221.18],[92.8575,220.892],[92.477,220.593],[92.1039,220.286],[91.7383,219.97],[91.3804,219.645],[91.3611,219.627],[91.0305,219.312],[90.6888,218.97],[90.3554,218.62],[90.3374,218.601],[90.0305,218.262],[89.7144,217.897],[89.4073,217.524],[89.3908,217.503],[89.1092,217.143],[88.8204,216.756],[88.5411,216.361],[88.2713,215.96],[88.2569,215.938],[88.0114,215.553],[87.9975,215.53],[87.7614,215.139],[87.5214,214.72],[87.2916,214.294],[87.2795,214.271],[87.0722,213.864],[86.8633,213.428],[86.6649,212.987],[86.6545,212.963],[86.4772,212.542],[86.3004,212.092],[86.2912,212.067],[86.1345,211.638],[86.1259,211.613],[85.9796,211.18],[85.8358,210.719],[85.7032,210.254],[85.5819,209.786],[85.5758,209.76],[85.4719,209.316],[85.4665,209.29],[85.3733,208.843],[85.2862,208.367],[85.2752,208.298],[85.2673,208.249],[85.2179,207.939],[85.2179,207.939],[85.2177,207.938],[85.2174,207.936],[85.2165,207.93],[85.2136,207.91],[85.2102,207.887],[85.209,207.879],[85.2083,207.874],[85.2021,207.831],[85.1998,207.815],[85.1858,207.715],[85.1741,207.627],[85.167,207.573],[85.1652,207.559],[85.1593,207.514],[85.1466,207.411],[85.1437,207.387],[85.1419,207.371],[85.1347,207.311],[85.1176,207.157],[85.1135,207.119],[85.1117,207.102],[85.1044,207.033],[85.0941,206.93],[85.0812,206.79],[85.0798,206.775],[85.074,206.709],[85.0533,206.449],[85.0485,206.381],[85.0476,206.368],[85.0441,206.315],[85.0241,205.966],[85.0207,205.892],[85.0066,205.483],[85.0051,205.413],[85.0018,205.204],[85.0007,205],[85.0007,145]]
M73 P0 R18
;TYPE:Custom
G28
G90
G1 X0 F9000
G1 Y20
G1 Z0.600 F600
G1 Y0 F9000
START_PRINT EXTRUDER_TEMP=225 BED_TEMP=60
G90
G1 X0 F9000
G1 Y20
G1 Z0.600 F600
G1 Y0 F9000
M400
G91
M83
M140 S60 ;set bed temp
M104 S225 ;set extruder temp
M190 S60 ;wait for bed temp
M109 S225;wait for extruder temp
G1 E25 F300
G4 P1000
G1 E-0.200 Z5 F600
G1 X88.000 F9000
G1 Z-5.000 F600
G1 X87.000 E20.88 F1800
G1 X87.000 E13.92 F1800
G1 Y1 E0.16 F1800
M73 P1 R18
G1 X-87.000 E13.92 F1800
G1 X-87.000 E20.88 F1800
G1 Y1 E0.24 F1800
G1 X87.000 E20.88 F1800
G1 X87.000 E13.92 F1800
M73 P2 R18
G1 E-0.200 Z1 F600
M400
G90
G21
M83 ; use relative distances for extrusion
; Filament gcode
M106 S0
;LAYER_CHANGE
;Z:0.2
;HEIGHT:0.2
TIMELAPSE_TAKE_FRAME
G92 E0
G1 Z.2 F36000
;_SET_FAN_SPEED_CHANGING_LAYER
SET_VELOCITY_LIMIT ACCEL=3000 ACCEL_TO_DECEL=1500
G1 E-.5 F1800
G1 Z.45 F36000
G1 X101.425 Y120.078
G1 Z.2
G1 Z.2
G1 E.5 F1800
;TYPE:Skirt
;WIDTH:0.4
G1 F3000
G1 X104.457 Y119.829 E.08851
G1 X255.005 Y119.822 E4.38055
G1 X256.477 Y119.895 E.04289
G1 X257.699 Y120.065 E.03589
G1 X259.059 Y120.376 E.04062
G1 X260.55 Y120.874 E.04574
G1 X261.669 Y121.366 E.03557
G1 X262.896 Y122.038 E.0407
G1 X264.594 Y123.239 E.06052
G1 X265.512 Y124.052 E.03569
G1 X267.138 Y125.887 E.07133
G1 X267.831 Y126.892 E.03553
G1 X268.523 Y128.108 E.04071
G1 X269.338 Y130.022 E.06052
G1 X269.693 Y131.196 E.03568
G1 X269.889 Y132.055 E.02564
G1 X270.152 Y134.122 E.06065
G1 X270.129 Y216.216 E2.38872
G1 X269.818 Y218.286 E.06092
M73 P2 R17
G1 X269.503 Y219.477 E.03583
G1 X269.029 Y220.791 E.04065
G1 X268.097 Y222.67 E.06104
G1 X266.816 Y224.526 E.06563
G1 X265.882 Y225.58 E.04097
G1 X264.321 Y226.978 E.06098
G1 X262.443 Y228.227 E.06562
G1 X260.714 Y229.061 E.05586
G1 X259.049 Y229.627 E.05115
G1 X257.17 Y230.021 E.05587
G1 X255.087 Y230.177 E.06078
G1 X105.001 Y230.178 E4.36714
G1 X103.241 Y230.116 E.05122
M73 P3 R17
G1 X100.11 Y229.698 E.09193
G1 X97.161 Y228.926 E.08871
G1 X94.334 Y227.806 E.08847
G1 X91.661 Y226.353 E.08851
G1 X90.249 Y225.403 E.04953
G1 X88.815 Y224.286 E.05289
G1 X86.607 Y222.192 E.08854
G1 X84.67 Y219.851 E.08841
G1 X83.028 Y217.292 E.08847
G1 X81.708 Y214.557 E.08838
G1 X80.725 Y211.677 E.08855
G1 X80.172 Y209.175 E.07455
G1 X79.85 Y206.151 E.0885
G1 X79.823 Y145 E1.77934
G1 X79.947 Y142.508 E.07259
G1 X80.429 Y139.512 E.08829
G1 X81.23 Y136.703 E.08501
G1 X82.403 Y133.898 E.08847
G1 X83.91 Y131.25 E.08866
G1 X85.716 Y128.814 E.08822
G1 X87.809 Y126.606 E.08852
G1 X90.15 Y124.669 E.08844
G1 X92.71 Y123.026 E.08849
G1 X95.56 Y121.659 E.09199
G1 X98.441 Y120.692 E.0884
G1 X101.386 Y120.086 E.0875
; printing object SpeedTestStructure.step id:0 copy 0
EXCLUDE_OBJECT_START NAME=SpeedTestStructure.step_id_0_copy_0
G1 X101.446 Y120.436 F36000
;TYPE:Brim
G1 F1800
G1 X101.475 Y120.431 E.00086
G1 X102.068 Y120.354 E.01739
G1 X103.14 Y120.25 E.03134
G1 X104.461 Y120.186 E.0385
G1 X254.999 Y120.179 E4.38026
G1 X255.597 Y120.192 E.01739
G1 X256.446 Y120.251 E.02477
G1 X257.631 Y120.415 E.03482
G1 X258.466 Y120.591 E.02481
G1 X258.959 Y120.718 E.01484
G1 X259.612 Y120.916 E.01984
G1 X260.412 Y121.203 E.02473
G1 X261.509 Y121.685 E.03485
G1 X262.263 Y122.082 E.02481
G1 X262.702 Y122.338 E.0148
G1 X263.699 Y123.001 E.03482
G1 X264.372 Y123.519 E.02473
G1 X265.266 Y124.311 E.03475
G1 X265.865 Y124.92 E.02484
G1 X266.316 Y125.43 E.01982
G1 X266.847 Y126.095 E.02477
G1 X267.527 Y127.08 E.03481
G1 X267.961 Y127.813 E.02479
G1 X268.201 Y128.262 E.01482
G1 X268.701 Y129.35 E.03483
G1 X269.003 Y130.144 E.02472
G1 X269.212 Y130.795 E.0199
G1 X269.348 Y131.287 E.01485
G1 X269.537 Y132.116 E.02474
G1 X269.723 Y133.3 E.03486
G1 X269.796 Y134.148 E.02479
G1 X269.82 Y134.83 E.01984
G1 X269.817 Y135.34 E.01485
G1 X269.773 Y136.191 E.0248
G1 X269.629 Y137.379 E.03481
G1 X269.538 Y137.88 E.01481
G1 X269.349 Y138.711 E.0248
G1 X269.003 Y139.855 E.03479
G1 X268.701 Y140.652 E.02479
G1 X268.498 Y141.121 E.01486
G1 X268.203 Y141.733 E.01975
G1 X267.793 Y142.483 E.02488
G1 X267.148 Y143.49 E.03479
G1 X266.641 Y144.172 E.02473
G1 X266.206 Y144.699 E.01989
G1 X265.865 Y145.08 E.01487
G1 X265.268 Y145.687 E.02478
G1 X264.373 Y146.48 E.0348
G1 X263.698 Y147 E.02478
G1 X263.281 Y147.291 E.01482
G1 X262.262 Y147.919 E.03482
G1 X261.507 Y148.315 E.0248
G1 X261.046 Y148.531 E.01481
G1 X259.935 Y148.974 E.03481
G1 X259.124 Y149.235 E.02479
G1 X258.468 Y149.409 E.01973
G1 X257.631 Y149.585 E.0249
G1 X256.617 Y149.732 E.02982
G1 X255.939 Y149.79 E.01979
G1 X254.998 Y149.821 E.02741
G1 X114.828 Y149.824 E4.07858
G1 X114.297 Y149.87 E.01551
M73 P4 R17
G1 X113.772 Y149.969 E.01556
G1 X113.257 Y150.124 E.01564
G1 X112.762 Y150.33 E.0156
G1 X112.292 Y150.587 E.0156
G1 X111.85 Y150.891 E.0156
G1 X111.442 Y151.238 E.0156
G1 X111.072 Y151.627 E.01562
G1 X110.744 Y152.051 E.0156
G1 X110.463 Y152.505 E.01554
G1 X110.229 Y152.989 E.01564
G1 X110.046 Y153.493 E.0156
G1 X109.917 Y154.014 E.0156
G1 X109.842 Y154.544 E.0156
G1 X109.823 Y155.08 E.0156
G1 X109.841 Y155.441 E.01051
G1 X109.914 Y155.968 E.0155
G1 X109.997 Y156.335 E.01095
G1 X110.156 Y156.828 E.01507
G1 X110.37 Y157.317 E.01554
G1 X110.551 Y157.649 E.01098
G1 X110.838 Y158.08 E.01508
G1 X111.178 Y158.494 E.01558
G1 X111.43 Y158.751 E.01049
G1 X111.835 Y159.098 E.01551
G1 X112.276 Y159.403 E.0156
G1 X112.746 Y159.662 E.0156
G1 X113.075 Y159.807 E.01049
G1 X113.58 Y159.98 E.01551
G1 X113.942 Y160.069 E.01085
G1 X114.297 Y160.13 E.01049
G1 X114.828 Y160.176 E.01551
G1 X254.998 Y160.179 E4.07858
G1 X255.939 Y160.21 E.0274
G1 X256.617 Y160.268 E.0198
G1 X257.463 Y160.386 E.02486
G1 X258.131 Y160.514 E.01979
G1 X259.121 Y160.764 E.02971
G1 X260.098 Y161.084 E.0299
G1 X260.573 Y161.267 E.01481
G1 X261.353 Y161.611 E.02482
G1 X262.263 Y162.081 E.02979
G1 X263.136 Y162.613 E.02976
G1 X264.109 Y163.309 E.0348
G1 X264.504 Y163.628 E.0148
G1 X265.143 Y164.194 E.02482
G1 X265.864 Y164.919 E.02976
G1 X266.641 Y165.827 E.03477
G1 X267.246 Y166.652 E.02976
G1 X267.793 Y167.517 E.02978
G1 X268.202 Y168.265 E.02482
G1 X268.426 Y168.723 E.01482
G1 X268.827 Y169.665 E.02981
G1 X269.211 Y170.792 E.03465
G1 X269.468 Y171.787 E.02989
G1 X269.57 Y172.286 E.01483
G1 X269.702 Y173.128 E.02479
G1 X269.805 Y174.318 E.03478
G1 X269.817 Y175.342 E.02978
G1 X269.773 Y176.193 E.02482
G1 X269.723 Y176.7 E.01481
G1 X269.57 Y177.713 E.02981
G1 X269.348 Y178.712 E.02978
G1 X269.058 Y179.693 E.02976
G1 X268.635 Y180.81 E.03476
G1 X268.202 Y181.736 E.02975
G1 X267.705 Y182.631 E.02979
G1 X267.245 Y183.349 E.02481
G1 X266.951 Y183.765 E.0148
G1 X266.206 Y184.699 E.03479
G1 X265.509 Y185.45 E.02979
G1 X265.144 Y185.805 E.01483
G1 X264.506 Y186.371 E.02482
G1 X263.698 Y186.999 E.02977
G1 X262.704 Y187.661 E.03476
G1 X261.812 Y188.162 E.02976
G1 X261.045 Y188.532 E.02479
G1 X260.096 Y188.916 E.02978
G1 X259.452 Y189.136 E.01982
G1 X258.464 Y189.41 E.02982
G1 X257.63 Y189.585 E.02481
G1 X256.957 Y189.69 E.01981
G1 X255.938 Y189.79 E.0298
G1 X255.084 Y189.82 E.02486
G1 X114.813 Y189.825 E4.08153
M73 P5 R17
G1 X114.279 Y189.872 E.0156
G1 X113.77 Y189.97 E.01507
G1 X113.408 Y190.072 E.01095
G1 X112.908 Y190.263 E.01558
G1 X112.429 Y190.505 E.0156
G1 X111.978 Y190.795 E.0156
G1 X111.56 Y191.13 E.0156
G1 X111.178 Y191.506 E.0156
G1 X110.849 Y191.905 E.01506
G1 X110.551 Y192.351 E.0156
G1 X110.301 Y192.826 E.01562
G1 X110.101 Y193.323 E.01558
G1 X109.954 Y193.839 E.0156
G1 X109.861 Y194.367 E.01562
G1 X109.823 Y194.901 E.01558
G1 X109.83 Y195.277 E.01094
G1 X109.883 Y195.792 E.01506
G1 X109.993 Y196.317 E.0156
G1 X110.156 Y196.828 E.01562
G1 X110.294 Y197.16 E.01048
G1 X110.541 Y197.633 E.01551
G1 X110.745 Y197.95 E.01095
G1 X111.06 Y198.36 E.01505
G1 X111.428 Y198.749 E.0156
G1 X111.835 Y199.098 E.0156
G1 X112.276 Y199.403 E.0156
G1 X112.746 Y199.662 E.0156
G1 X113.075 Y199.807 E.01049
G1 X113.426 Y199.933 E.01085
G1 X113.927 Y200.066 E.01506
G1 X114.456 Y200.15 E.0156
G1 X114.816 Y200.175 E.01049
G1 X254.998 Y200.179 E4.07894
G1 X255.937 Y200.21 E.02733
G1 X256.617 Y200.268 E.01988
G1 X257.463 Y200.386 E.02483
G1 X258.131 Y200.514 E.01981
G1 X259.125 Y200.766 E.02984
G1 X259.612 Y200.916 E.01481
G1 X260.414 Y201.204 E.0248
G1 X261.353 Y201.611 E.02979
G1 X262.411 Y202.166 E.03476
G1 X263.279 Y202.707 E.02976
G1 X264.108 Y203.309 E.02981
G1 X264.504 Y203.628 E.01481
G1 X265.143 Y204.194 E.02482
G1 X265.864 Y204.919 E.02977
G1 X266.639 Y205.825 E.03467
G1 X267.246 Y206.652 E.02985
G1 X267.792 Y207.516 E.02977
G1 X268.278 Y208.417 E.02977
G1 X268.702 Y209.35 E.02983
G1 X268.887 Y209.824 E.0148
G1 X269.161 Y210.629 E.02476
G1 X269.43 Y211.619 E.02984
G1 X269.655 Y212.791 E.03474
G1 X269.773 Y213.808 E.02977
G1 X269.82 Y214.831 E.02981
G1 X269.817 Y215.34 E.01482
