; HEADER_BLOCK_START
; generated by OrcaSlicer 2.3.1 on 2025-12-24 at 13:41:56
; total layer number: 201
; filament_density: 1.27
; filament_diameter: 1.75
; max_z_height: 17.50
; HEADER_BLOCK_END

; THUMBNAIL_BLOCK_START

;
; THUMBNAIL_BLOCK_END

; THUMBNAIL_BLOCK_START

;
; THUMBNAIL_BLOCK_END

; THUMBNAIL_BLOCK_START

;
; THUMBNAIL_BLOCK_END

; external perimeters extrusion width = 0.60mm
; perimeters extrusion width = 0.60mm
; infill extrusion width = 0.40mm
; solid infill extrusion width = 0.40mm
; top infill extrusion width = 0.40mm
; support material extrusion width = 0.40mm
; first layer extrusion width = 0.40mm

; EXECUTABLE_BLOCK_START
EXCLUDE_OBJECT_DEFINE NAME=sv08-btt-eddy-mount_rap-v307-single-model.stl_id_0_copy_0 CENTER=175,175 POLYGON=[[165.5,178.875],[167,163.925],[168.5,163.925],[176,163.925],[184,167.125],[184.5,167.625],[184.5,176.625],[176.5,185.575],[176,186.075],[167,186.075],[165.5,184.075],[165.5,178.875]]
M73 P0 R21
;TYPE:Custom
G28
G90
G1 X0 F9000
G1 Y20
G1 Z0.600 F600
G1 Y0 F9000
START_PRINT EXTRUDER_TEMP=255 BED_TEMP=60
G90
G1 X0 F9000
G1 Y20
G1 Z0.600 F600
G1 Y0 F9000
M400
G91
M83
M140 S60 ;set bed temp
M104 S255 ;set extruder temp
M190 S60 ;wait for bed temp
M109 S255;wait for extruder temp
G1 E25 F300
G4 P1000
G1 E-0.200 Z5 F600
G1 X88.000 F9000
G1 Z-5.000 F600
G1 X87.000 E20.88 F1800
G1 X87.000 E13.92 F1800
G1 Y1 E0.16 F1800
M73 P1 R21
G1 X-87.000 E13.92 F1800
G1 X-87.000 E20.88 F1800
G1 Y1 E0.24 F1800
M73 P1 R20
G1 X87.000 E20.88 F1800
G1 X87.000 E13.92 F1800
G1 E-0.200 Z1 F600
M400
G90
G21
M83 ; use relative distances for extrusion
; Filament gcode
M106 S0
;LAYER_CHANGE
;Z:0.1
;HEIGHT:0.1
TIMELAPSE_TAKE_FRAME
G92 E0
G1 E-.5 F1800
;_SET_FAN_SPEED_CHANGING_LAYER
SET_VELOCITY_LIMIT ACCEL=3000 ACCEL_TO_DECEL=1500
G1 X166.391 Y165.746 F36000
G1 Z.35
M73 P2 R20
G1 Z.1
G1 E.5 F1800
;TYPE:Skirt
;WIDTH:0.4
G1 F3000
G1 X166.819 Y164.321 E.02225
G1 X167 Y164.186 E.00338
G1 X176.03 Y164.188 E.13501
G1 X184.775 Y165.588 E.13241
G1 X185.984 Y166.745 E.02502
G1 X186.039 Y166.879 E.00217
G1 X186.039 Y177.371 E.15686
G1 X185.984 Y177.505 E.00217
G1 X184.865 Y178.622 E.02364
G1 X176.12 Y185.772 E.16889
G1 X168.271 Y188.964 E.12668
G1 X168.066 Y188.923 E.00313
G1 X162.152 Y183.009 E.12505
G1 X162.097 Y182.875 E.00217
G1 X162.105 Y180.02 E.04268
G1 X166.379 Y165.784 E.22223
; printing object sv08-btt-eddy-mount_rap-v307-single-model.stl id:0 copy 0
;WIPE_START
G1 X166.819 Y164.321 E-.38198
G1 X167 Y164.186 E-.05648
G1 X167.246 Y164.186 E-.06154
;WIPE_END
EXCLUDE_OBJECT_START NAME=sv08-btt-eddy-mount_rap-v307-single-model.stl_id_0_copy_0
G17
G3 Z.35 I-.758 J-.058 P1  F36000
G1 X166.167 Y178.304 Z.35
G1 Z.1
G1 E.5 F1800
;TYPE:Support
G1 X166.167 Y176.675 E.02436
G1 X165.747 Y177.095 E.00889
G1 X165.747 Y178.134 E.01553
G1 X165.326 Y178.134 E.00629
G1 X165.326 Y177.516 E.00924
G1 X164.906 Y177.937 E.00889
G1 X164.906 Y178.422 E.00725
G1 X164.759 Y178.568 E.00309
G1 X164.759 Y179.734 E.01743
G1 X164.485 Y179.734 E.0041
G1 X164.485 Y178.357 E.02058
G1 X164.064 Y178.778 E.00889
G1 X164.064 Y179.734 E.0143
G1 X163.644 Y179.734 E.00629
G1 X163.644 Y179.198 E.00801
G1 X163.223 Y179.619 E.00889
G1 X163.223 Y179.904 E.00427
;WIPE_START
G1 X163.223 Y179.619 E-.07132
G1 X163.644 Y179.198 E-.1487
G1 X163.644 Y179.734 E-.13389
G1 X164.064 Y179.734 E-.10515
G1 X164.064 Y179.57 E-.04094
;WIPE_END
G17
G3 Z.35 I.302 J.698 P1  F36000
G1 X166.6 Y178.475 Z.35
G1 Z.1
G1 E.5 F1800
G1 X165.334 Y178.475 E.01892
G1 X165.1 Y178.709 E.00495
G1 X165.1 Y180.075 E.02042
G1 X162.286 Y180.075 E.04208
G1 X166.6 Y175.76 E.09122
G1 X166.6 Y178.418 E.03973
;WIPE_START
G1 X166.6 Y176.418 E-.5
;WIPE_END
G17
G3 Z.35 I-.747 J-.144 P1  F36000
G1 X165.1 Y184.184 Z.35
G1 Z.1
G1 E.5 F1800
G1 X165.1 Y182.875 E.01957
G1 X162.286 Y182.875 E.04207
G1 X168.2 Y188.789 E.12505
G1 X168.2 Y186.025 E.04132
G1 X166.834 Y186.025 E.02042
G1 X166.6 Y185.791 E.00495
G1 X166.6 Y184.475 E.01968
G1 X165.334 Y184.475 E.01892
G1 X165.1 Y184.24 E.00495
G1 X163.223 Y183.571 F36000
G1 F1800
G1 X163.223 Y183.216 E.00532
G1 X163.644 Y183.216 E.00629
G1 X163.644 Y183.751 E.00801
G1 X164.064 Y184.172 E.00889
G1 X164.064 Y183.216 E.0143
G1 X164.485 Y183.216 E.00629
G1 X164.485 Y184.592 E.02058
G1 X164.906 Y185.013 E.00889
G1 X164.906 Y184.528 E.00725
G1 X165.193 Y184.815 E.00608
G1 X165.326 Y184.815 E.00199
G1 X165.326 Y185.433 E.00924
G1 X165.747 Y185.854 E.00889
G1 X165.747 Y184.815 E.01553
G1 X166.167 Y184.815 E.00629
G1 X166.167 Y186.275 E.02182
G1 X166.588 Y186.695 E.00889
G1 X166.588 Y186.261 E.0065
G1 X166.693 Y186.366 E.00222
G1 X167.009 Y186.366 E.00472
G1 X167.009 Y187.116 E.01121
G1 X167.429 Y187.536 E.00889
G1 X167.429 Y186.366 E.0175
G1 X167.85 Y186.366 E.00629
G1 X167.85 Y188.198 E.02739
;WIPE_START
G1 X167.85 Y186.366 E-.45802
G1 X167.682 Y186.366 E-.04198
;WIPE_END
G17
G3 Z.35 I.333 J.684 P1  F36000
G1 X170.435 Y185.025 Z.35
G1 X175.45 Y182.583
G1 X185.094 Y177.885
G1 Z.1
G1 E.5 F1800
G1 X185.094 Y166.606 E.16864
G1 X184.674 Y166.186 E.00889
G1 X184.674 Y178.065 E.17761
G1 X184.604 Y178.135 E.00147
G1 X184.253 Y178.135 E.00525
G1 X184.253 Y166.116 E.17969
G1 X183.833 Y166.116 E.00629
G1 X183.833 Y178.135 E.17969
G1 X183.412 Y178.135 E.00629
G1 X183.412 Y166.116 E.17969
G1 X182.991 Y166.116 E.00629
G1 X182.991 Y178.135 E.17969
G1 X182.571 Y178.135 E.00629
G1 X182.571 Y166.116 E.17969
G1 X182.15 Y166.116 E.00629
G1 X182.15 Y178.135 E.17969
G1 X181.73 Y178.135 E.00629
G1 X181.73 Y166.116 E.17969
G1 X181.309 Y166.116 E.00629
G1 X181.309 Y178.135 E.17969
G1 X181.074 Y178.135 E.00351
G1 X180.888 Y178.198 E.00293
G1 X180.888 Y166.052 E.18159
G1 X180.768 Y166.011 E.0019
G1 X180.468 Y166.064 E.00456
G1 X180.468 Y178.186 E.18124
G1 X180.047 Y178.112 E.00638
G1 X180.047 Y166.138 E.17903
G1 X179.627 Y166.212 E.00638
G1 X179.627 Y178.039 E.17682
G1 X179.56 Y178.027 E.00101
G1 X179.206 Y177.473 E.00983
G1 X179.206 Y166.45 E.16481
G1 X181.076 Y165.757 F36000
G1 F1800
G1 X180.796 Y165.66 E.00442
G1 X179.331 Y165.918 E.02224
G1 X178.658 Y167.02 E.01931
G1 X178.615 Y167.848 E.01239
G1 X178.66 Y168.041 E.00296
G1 X178.66 Y176.21 E.12213
G1 X178.615 Y176.403 E.00296
G1 X178.659 Y177.251 E.01269
G1 X179.354 Y178.337 E.01927
G1 X180.797 Y178.59 E.02191
G1 X181.131 Y178.475 E.00528
G1 X184.746 Y178.475 E.05404
G1 X185.85 Y177.371 E.02335
G1 X185.85 Y166.879 E.15686
G1 X184.745 Y165.775 E.02335
M73 P3 R20
G1 X181.13 Y165.775 E.05405
;WIPE_START
G1 X183.13 Y165.775 E-.5
;WIPE_END
G17
G3 Z.35 I-.415 J-.637 P1  F36000
G1 X175.45 Y170.778 Z.35
G1 X175.45 Y164.975
G1 X167.6 Y164.975
G1 X168.889 Y170.611
G1 X169.084 Y171.786
G1 X169.1 Y172.272
G1 X169.1 Y175.111
G1 X168.8 Y175.111
G1 Z.1
G1 E.5 F1800
;TYPE:Outer wall
;WIDTH:0.399999
G1 X168.8 Y171.416 E.05524
;WIDTH:0.428106
G1 X168.814 Y170.891 E.00844
G1 X168.749 Y170.747 E.00253
;WIDTH:0.418558
G1 X168.611 Y170.7 E.00229
;WIDTH:0.399999
G1 X167.3 Y170.7 E.0196
G1 X167.3 Y164.675 E.09008
G1 X175.75 Y164.675 E.12634
G1 X175.75 Y185.325 E.30874
G1 X167.3 Y185.325 E.12634
G1 X167.3 Y183.964 E.02035
G1 X167.26 Y183.847 E.00184
G1 X167.111 Y183.775 E.00248
G1 X165.8 Y183.775 E.0196
G1 X165.8 Y179.175 E.06877
G1 X167.111 Y179.175 E.0196
G1 X167.238 Y179.126 E.00203
G1 X167.3 Y178.985 E.0023
G1 X167.3 Y175.3 E.0551
G1 X168.611 Y175.3 E.0196
G1 X168.736 Y175.253 E.002
G1 X168.792 Y175.129 E.00203
G1 X168.877 Y175.09
;WIPE_START
G1 X168.796 Y173.129 E-.5
;WIPE_END
G17
G3 Z.35 I0 J.761 P1  F36000
G1 X169.1 Y173.129 Z.35
G1 X171.936 Y171.974
G1 X172.307 Y171.76
G1 X172.63 Y171.48
G1 X172.895 Y171.143
G1 X173.091 Y170.762
G1 X173.212 Y170.352
G1 X173.253 Y169.925
G1 X173.212 Y169.499
G1 X173.091 Y169.088
G1 X172.895 Y168.707
G1 X172.765 Y168.542
G1 X172.528 Y168.728
G1 Z.1
G1 E.5 F1800
G1 X172.65 Y168.886 E.00298
G1 X172.817 Y169.217 E.00554
G1 X172.918 Y169.574 E.00554
G1 X172.95 Y169.943 E.00554
G1 X172.911 Y170.312 E.00554
G1 X172.803 Y170.667 E.00554
G1 X172.63 Y170.994 E.00554
G1 X172.399 Y171.284 E.00554
G1 X172.116 Y171.524 E.00554
G1 X171.794 Y171.706 E.00554
G1 X171.442 Y171.824 E.00554
G1 X171.075 Y171.873 E.00554
G1 X170.705 Y171.852 E.00554
G1 X170.345 Y171.762 E.00554
G1 X170.01 Y171.605 E.00554
G1 X169.71 Y171.387 E.00554
G1 X169.456 Y171.116 E.00554
;WIDTH:0.433081
G1 X169.184 Y170.66 E.00864
G1 X169.065 Y170.15 E.00851
;WIDTH:0.399999
G1 X169.057 Y169.758 E.00586
G1 X169.134 Y169.359 E.00608
G1 X169.275 Y169.016 E.00554
G1 X169.479 Y168.706 E.00554
G1 X169.737 Y168.44 E.00554
G1 X170.041 Y168.228 E.00554
G1 X170.379 Y168.077 E.00554
G1 X170.74 Y167.993 E.00554
G1 X171.111 Y167.979 E.00554
G1 X171.477 Y168.035 E.00554
G1 X171.826 Y168.159 E.00554
G1 X172.224 Y168.416 E.00708
G1 X172.423 Y168.593 E.00398
G1 X172.516 Y168.712 E.00226
G1 X172.567 Y168.721
;WIPE_START
G1 X172.65 Y168.886 E-.05489
G1 X172.817 Y169.217 E-.09267
G1 X172.918 Y169.574 E-.09267
G1 X172.95 Y169.943 E-.09267
G1 X172.911 Y170.312 E-.09267
G1 X172.824 Y170.597 E-.07445
;WIPE_END
G17
G3 Z.35 I.718 J.252 P1  F36000
G1 X174.861 Y164.789 Z.35
G1 Z.1
G1 E.5 F1800
;TYPE:Bottom surface
;WIDTH:0.404651
G1 F3000
G1 X175.466 Y165.394 E.01001
G1 X175.466 Y165.935 E.0056
G1 X174.49 Y164.959 E.0177
G1 X173.948 Y164.959 E.0056
G1 X175.466 Y166.477 E.02911
G1 X175.466 Y167.019 E.0056
G1 X173.406 Y164.959 E.04061
G1 X172.864 Y164.959 E.0056
G1 X175.466 Y167.561 E.05214
G1 X175.466 Y168.103 E.0056
G1 X172.322 Y164.959 E.06368
G1 X171.78 Y164.959 E.0056
G1 X175.466 Y168.645 E.07527
G1 X175.466 Y169.187 E.0056
G1 X171.238 Y164.959 E.08702
G1 X170.696 Y164.959 E.0056
G1 X175.466 Y169.729 E.09894
G1 X175.466 Y170.271 E.0056
G1 X170.154 Y164.959 E.11102
G1 X169.613 Y164.959 E.0056
G1 X175.466 Y170.813 E.12325
G1 X175.466 Y171.355 E.0056
G1 X169.071 Y164.959 E.13566
G1 X168.529 Y164.959 E.0056
G1 X171.291 Y167.721 E.05554
G1 X171.069 Y167.693 E.00162
G1 X170.742 Y167.714 E.00285
G1 X167.987 Y164.959 E.05539
G1 X167.584 Y164.959 E.00376
G1 X167.584 Y165.098 E.0007
G1 X170.297 Y167.811 E.0545
G1 X169.916 Y167.972 E.00388
G1 X167.584 Y165.64 E.0464
G1 X167.584 Y166.182 E.0056
G1 X169.6 Y168.198 E.03967
G1 X169.51 Y168.262 E.00045
G1 X169.324 Y168.464 E.00222
G1 X167.584 Y166.724 E.03381
G1 X167.584 Y167.266 E.0056
G1 X169.096 Y168.777 E.02897
G1 X168.998 Y168.935 E.00117
G1 X168.916 Y169.14 E.00159
G1 X167.584 Y167.808 E.02517
G1 X167.584 Y168.35 E.0056
G1 X168.803 Y169.569 E.02279
G1 X168.78 Y169.676 E.00045
G1 X168.78 Y170.088 E.00387
G1 X167.584 Y168.892 E.02231
G1 X167.584 Y169.433 E.0056
G1 X168.567 Y170.416 E.01783
G1 X168.025 Y170.416 E.0056
G1 X167.414 Y169.805 E.01014
;WIPE_START
G1 X168.025 Y170.416 E-.21613
G1 X168.567 Y170.416 E-.13548
G1 X168.147 Y169.997 E-.14839
;WIPE_END
G17
G3 Z.35 I.214 J.73 P1  F36000
G1 X168.786 Y169.81 Z.35
G1 X168.757 Y169.711
G1 X168.838 Y169.291
G1 X168.998 Y168.893
G1 X169.229 Y168.533
G1 X169.525 Y168.223
G1 X169.874 Y167.974
G1 X170.263 Y167.796
G1 X170.679 Y167.695
G1 X171.107 Y167.675
G1 X171.531 Y167.736
G1 X171.936 Y167.876
G1 X172.307 Y168.09
G1 X172.63 Y168.371
G1 X172.895 Y168.707
G1 X173.091 Y169.088
G1 X173.176 Y169.374
G1 X172.997 Y169.427
G1 Z.1
G1 E.5 F1800
G1 F3000
G1 X175.466 Y171.896 E.04932
G1 X175.466 Y172.438 E.0056
G1 X173.211 Y170.183 E.04476
G1 X173.196 Y170.342 E.0009
G1 X173.114 Y170.628 E.00249
G1 X175.466 Y172.98 E.04683
G1 X175.466 Y173.522 E.0056
G1 X172.947 Y171.003 E.05037
G1 X172.899 Y171.102 E.00045
G1 X172.725 Y171.323 E.0023
G1 X175.466 Y174.064 E.0551
G1 X175.466 Y174.606 E.0056
G1 X172.461 Y171.601 E.06071
G1 X172.265 Y171.766 E.002
G1 X172.15 Y171.832 E.00065
G1 X175.466 Y175.148 E.06734
G1 X175.466 Y175.69 E.0056
G1 X171.782 Y172.006 E.07524
G1 X171.527 Y172.097 E.00217
G1 X171.357 Y172.122 E.00104
G1 X175.466 Y176.232 E.08444
G1 X175.466 Y176.774 E.0056
G1 X170.837 Y172.145 E.09583
G1 X170.719 Y172.141 E.00051
G1 X170.304 Y172.048 E.00404
G1 X170.109 Y171.958 E.00152
G1 X175.466 Y177.316 E.11204
G1 X175.466 Y177.858 E.0056
G1 X169.083 Y171.475 E.13536
G1 X169.082 Y172.015 E.00558
G1 X175.466 Y178.399 E.1354
G1 X175.466 Y178.941 E.0056
G1 X169.08 Y172.556 E.13543
G1 X169.079 Y173.096 E.00558
G1 X175.466 Y179.483 E.13547
G1 X175.466 Y180.025 E.0056
G1 X169.077 Y173.636 E.1355
G1 X169.076 Y174.177 E.00558
G1 X175.466 Y180.567 E.13554
G1 X175.466 Y181.109 E.0056
G1 X169.074 Y174.717 E.13558
G1 X169.062 Y175.247 E.00544
G1 X175.466 Y181.651 E.13585
G1 X175.466 Y182.193 E.0056
G1 X168.813 Y175.54 E.14161
G1 X168.622 Y175.584 E.0013
G1 X168.315 Y175.584 E.00259
G1 X175.466 Y182.735 E.15305
G1 X175.466 Y183.277 E.0056
G1 X167.774 Y175.584 E.16465
G1 X167.584 Y175.584 E.00123
G1 X167.584 Y175.936 E.00314
G1 X175.466 Y183.819 E.16871
G1 X175.466 Y184.36 E.0056
G1 X167.584 Y176.478 E.16871
G1 X167.584 Y177.02 E.0056
G1 X175.466 Y184.902 E.16871
G1 X175.466 Y185.041 E.0007
G1 X175.063 Y185.041 E.00376
G1 X167.584 Y177.562 E.16008
G1 X167.584 Y178.104 E.0056
G1 X174.521 Y185.041 E.14822
G1 X173.979 Y185.041 E.0056
G1 X167.584 Y178.646 E.13565
G1 X167.584 Y178.996 E.00311
G1 X167.55 Y179.154 E.00093
G1 X173.437 Y185.041 E.12403
G1 X172.895 Y185.041 E.0056
G1 X167.275 Y179.421 E.11797
G1 X167.122 Y179.459 E.00088
G1 X166.771 Y179.459 E.00313
G1 X172.354 Y185.041 E.11712
G1 X171.812 Y185.041 E.0056
G1 X166.229 Y179.459 E.11712
G1 X166.084 Y179.459 E.00076
G1 X166.084 Y179.856 E.00368
G1 X171.27 Y185.041 E.1082
G1 X170.728 Y185.041 E.0056
G1 X166.084 Y180.397 E.09616
G1 X166.084 Y180.939 E.0056
G1 X170.186 Y185.041 E.08428
G1 X169.644 Y185.041 E.0056
M73 P4 R20
G1 X166.084 Y181.481 E.07257
G1 X166.084 Y182.023 E.0056
G1 X169.102 Y185.041 E.06099
G1 X168.56 Y185.041 E.0056
G1 X167.584 Y184.065 E.01769
G1 X167.584 Y183.954 E.00046
G1 X167.546 Y183.774 E.00117
G1 X167.432 Y183.615 E.0013
G1 X167.327 Y183.542 E.0006
G1 X167.122 Y183.491 E.00148
G1 X167.01 Y183.491 E.00047
G1 X166.084 Y182.565 E.01664
G1 X166.084 Y183.107 E.0056
G1 X166.638 Y183.661 E.00899
;WIPE_START
G1 X166.084 Y183.107 E-.19593
G1 X166.084 Y182.565 E-.13548
G1 X166.561 Y183.042 E-.16859
;WIPE_END
G17
G3 Z.35 I-.761 J0 P1  F36000
G1 X166.561 Y183.475 Z.35
G1 X167.6 Y183.475
G1 X167.6 Y184.437
G1 X167.414 Y184.437
G1 Z.1
G1 E.5 F1800
G1 F3000
G1 X168.189 Y185.212 E.01351
; stop printing object sv08-btt-eddy-mount_rap-v307-single-model.stl id:0 copy 0
;LAYER_CHANGE
;Z:0.2
;HEIGHT:0.1
TIMELAPSE_TAKE_FRAME
G92 E0
;WIPE_START
G1 F3000
G1 X167.414 Y184.437 E-.5
;WIPE_END
EXCLUDE_OBJECT_END NAME=sv08-btt-eddy-mount_rap-v307-single-model.stl_id_0_copy_0
;_SET_FAN_SPEED_CHANGING_LAYER
SET_VELOCITY_LIMIT ACCEL=20000 ACCEL_TO_DECEL=10000
M140 S60 ; set bed temperature
; printing object sv08-btt-eddy-mount_rap-v307-single-model.stl id:0 copy 0
EXCLUDE_OBJECT_START NAME=sv08-btt-eddy-mount_rap-v307-single-model.stl_id_0_copy_0
G17
G3 Z.45 I0 J.761 P1  F36000
G1 X167.868 Y184.437 Z.45
G1 X173.341 Y170.862
G1 X173.476 Y170.402
G1 X173.522 Y169.925
G1 X173.476 Y169.448
G1 X173.341 Y168.988
G1 X173.122 Y168.562
G1 X173.03 Y168.445
G1 X173.484 Y168.088
G1 Z.2
G1 E.5 F1800
SET_VELOCITY_LIMIT ACCEL=12000 ACCEL_TO_DECEL=6000
;TYPE:Inner wall
;WIDTH:0.599999
G1 F2200
G1 X173.339 Y167.885 E.0057
G1 X172.911 Y167.479 E.01348
G1 X172.413 Y167.162 E.01348
G1 X171.865 Y166.944 E.01348
;WIDTH:0.645316
G1 X171.788 Y166.906 E.00212
;WIDTH:0.690634
G1 X171.711 Y166.868 E.00227
;WIDTH:0.735951
G1 X171.634 Y166.829 E.00242
;WIDTH:0.781268
G1 X171.557 Y166.791 E.00258
;WIDTH:0.826586
G1 X171.48 Y166.753 E.00273
;WIDTH:0.871903
G1 X171.403 Y166.714 E.00289
G1 X171.004 Y166.694 E.01342
;WIDTH:0.877216
G1 X170.49 Y166.72 E.01741
G1 X170.427 Y166.759 E.00247
;WIDTH:0.831013
G1 X170.365 Y166.797 E.00234
;WIDTH:0.78481
G1 X170.303 Y166.835 E.00221
;WIDTH:0.738608
G1 X170.24 Y166.874 E.00207
;WIDTH:0.692405
G1 X170.178 Y166.912 E.00194
;WIDTH:0.646202
G1 X170.116 Y166.95 E.00181
;WIDTH:0.599999
G1 X169.856 Y167.04 E.00628
G1 X169.331 Y167.309 E.01348
G1 X168.866 Y167.672 E.01348
G1 X168.457 Y168.149 E.01435
G1 X168.457 Y165.732 E.05522
G1 X169.97 Y165.732 E.03458
;WIDTH:0.646202
G1 X170.044 Y165.755 E.00192
;WIDTH:0.692405
G1 X170.119 Y165.778 E.00206
;WIDTH:0.738608
