; HEADER_BLOCK_START
; generated by OrcaSlicer 2.3.1 on 2025-12-22 at 13:54:43
; total layer number: 241
; filament_density: 1.27
; filament_diameter: 1.75
; max_z_height: 17.50
; HEADER_BLOCK_END

; THUMBNAIL_BLOCK_START

;
; THUMBNAIL_BLOCK_END

; THUMBNAIL_BLOCK_START

;
; THUMBNAIL_BLOCK_END

; THUMBNAIL_BLOCK_START

;
; THUMBNAIL_BLOCK_END

; external perimeters extrusion width = 0.60mm
; perimeters extrusion width = 0.60mm
; infill extrusion width = 0.40mm
; solid infill extrusion width = 0.40mm
; top infill extrusion width = 0.40mm
; support material extrusion width = 0.40mm
; first layer extrusion width = 0.40mm

; EXECUTABLE_BLOCK_START
EXCLUDE_OBJECT_DEFINE NAME=sv08-btt-eddy-mount_rap-v307-single-model.stl_id_0_copy_0 CENTER=175,175 POLYGON=[[165.5,178.875],[167,163.925],[168.5,163.925],[176,163.925],[184,167.125],[184.5,167.625],[184.5,176.625],[176.5,185.575],[176,186.075],[167,186.075],[165.5,184.075],[165.5,178.875]]
M73 P0 R18
;TYPE:Custom
G28
G90
G1 X0 F9000
G1 Y20
G1 Z0.600 F600
G1 Y0 F9000
START_PRINT
G90
G1 X0 F9000
G1 Y20
G1 Z0.600 F600
G1 Y0 F9000
M400
G91
M83
M140 S60 ;set bed temp
M104 S255 ;set extruder temp
M190 S60 ;wait for bed temp
M109 S255;wait for extruder temp
G1 E25 F300
G4 P1000
G1 E-0.200 Z5 F600
G1 X88.000 F9000
G1 Z-5.000 F600
G1 X87.000 E20.88 F1800
G1 X87.000 E13.92 F1800
G1 Y1 E0.16 F1800
M73 P1 R18
G1 X-87.000 E13.92 F1800
G1 X-87.000 E20.88 F1800
G1 Y1 E0.24 F1800
G1 X87.000 E20.88 F1800
G1 X87.000 E13.92 F1800
G1 E-0.200 Z1 F600
M73 P2 R18
M400
G90
G21
M83 ; use relative distances for extrusion
; Filament gcode
M106 S0
;LAYER_CHANGE
;Z:0.09
;HEIGHT:0.09
TIMELAPSE_TAKE_FRAME
G92 E0
G1 E-.5 F1800
;_SET_FAN_SPEED_CHANGING_LAYER
SET_VELOCITY_LIMIT ACCEL=3000 ACCEL_TO_DECEL=1500
G1 X166.393 Y165.738 F36000
G1 Z.34
G1 Z.09
G1 E.5 F1800
;TYPE:Skirt
;WIDTH:0.4
G1 F3000
G1 X166.818 Y164.325 E.01996
G1 X167 Y164.19 E.00307
G1 X176.029 Y164.192 E.12219
G1 X184.775 Y165.552 E.11977
G1 X186.02 Y166.745 E.02333
G1 X186.075 Y166.88 E.00197
G1 X186.075 Y177.371 E.14197
G1 X186.02 Y177.505 E.00197
G1 X184.866 Y178.658 E.02207
G1 X176.12 Y185.768 E.15252
G1 X168.271 Y188.957 E.11464
G1 X168.065 Y188.916 E.00285
G1 X162.159 Y183.009 E.11303
G1 X162.103 Y182.876 E.00196
G1 X162.096 Y180.02 E.03865
G1 X166.381 Y165.776 E.20128
; printing object sv08-btt-eddy-mount_rap-v307-single-model.stl id:0 copy 0
;WIPE_START
G1 X166.818 Y164.325 E-.37876
G1 X167 Y164.19 E-.05678
G1 X167.258 Y164.19 E-.06446
;WIPE_END
EXCLUDE_OBJECT_START NAME=sv08-btt-eddy-mount_rap-v307-single-model.stl_id_0_copy_0
G17
G3 Z.34 I-.759 J-.045 P1  F36000
G1 X166.545 Y176.303 Z.34
G1 Z.09
G1 E.5 F1800
;TYPE:Support
G1 X165.898 Y176.106 E.00916
G1 X165.155 Y177.213 E.01804
G1 X162.278 Y180.075 E.05491
G1 X165.1 Y180.075 E.03819
G1 X165.1 Y178.709 E.01848
G1 X165.334 Y178.475 E.00448
G1 X166.6 Y178.475 E.01713
G1 X166.6 Y176.319 E.02917
G1 X166.117 Y178.303 F36000
G1 F1800
G1 X166.117 Y176.531 E.02399
G1 X166.041 Y176.507 E.00108
G1 X165.694 Y177.024 E.00842
G1 X165.694 Y178.132 E.01499
G1 X165.271 Y178.132 E.00572
G1 X165.271 Y177.581 E.00746
G1 X164.848 Y178.002 E.00807
G1 X164.848 Y178.476 E.00642
G1 X164.757 Y178.567 E.00174
G1 X164.757 Y179.732 E.01576
G1 X164.425 Y179.732 E.00449
G1 X164.425 Y178.422 E.01772
G1 X164.002 Y178.843 E.00807
G1 X164.002 Y179.732 E.01203
G1 X163.579 Y179.732 E.00572
G1 X163.579 Y179.264 E.00634
G1 X163.156 Y179.684 E.00807
G1 X163.156 Y179.903 E.00296
;WIPE_START
G1 X163.156 Y179.684 E-.05477
G1 X163.579 Y179.264 E-.14914
G1 X163.579 Y179.732 E-.11711
G1 X164.002 Y179.732 E-.10575
G1 X164.002 Y179.439 E-.07323
;WIPE_END
G17
G3 Z.34 I-.745 J-.155 P1  F36000
G1 X163.156 Y183.495 Z.34
G1 Z.09
G1 E.5 F1800
G1 X163.156 Y183.217 E.00376
G1 X163.579 Y183.217 E.00572
G1 X163.579 Y183.676 E.0062
G1 X164.002 Y184.099 E.00809
G1 X164.002 Y183.217 E.01193
G1 X164.425 Y183.217 E.00572
G1 X164.425 Y184.522 E.01765
G1 X164.848 Y184.945 E.00809
G1 X164.848 Y184.473 E.00638
G1 X165.192 Y184.817 E.00658
G1 X165.271 Y184.817 E.00107
G1 X165.271 Y185.368 E.00745
G1 X165.694 Y185.791 E.00809
G1 X165.694 Y184.817 E.01317
G1 X166.117 Y184.817 E.00572
G1 X166.117 Y186.214 E.0189
G1 X166.54 Y186.637 E.00809
G1 X166.54 Y186.211 E.00577
G1 X166.692 Y186.363 E.00291
G1 X166.963 Y186.363 E.00367
G1 X166.963 Y187.06 E.00943
G1 X167.386 Y187.483 E.00809
G1 X167.386 Y186.363 E.01516
G1 X167.809 Y186.363 E.00572
G1 X167.809 Y188.148 E.02416
G1 X165.1 Y184.24 F36000
G1 F1800
G1 X165.334 Y184.475 E.00448
G1 X166.6 Y184.475 E.01713
G1 X166.6 Y185.786 E.01774
G1 X166.834 Y186.02 E.00448
G1 X168.2 Y186.02 E.01848
G1 X168.2 Y188.781 E.03736
G1 X162.294 Y182.875 E.11303
G1 X165.1 Y182.875 E.03797
G1 X165.1 Y184.183 E.01771
;WIPE_START
G1 X165.1 Y182.875 E-.32713
G1 X164.409 Y182.875 E-.17287
;WIPE_END
G17
G3 Z.34 I.179 J.739 P1  F36000
G1 X166.1 Y182.466 Z.34
G1 X175.445 Y180.208
G1 X185.152 Y177.862
G1 Z.09
G1 E.5 F1800
G1 X185.152 Y166.631 E.15198
G1 X184.729 Y166.208 E.00809
G1 X184.729 Y178.043 E.16015
G1 X184.604 Y178.168 E.00239
G1 X184.306 Y178.168 E.00403
G1 X184.306 Y166.083 E.16353
G1 X183.883 Y166.083 E.00572
G1 X183.883 Y178.168 E.16353
G1 X183.46 Y178.168 E.00572
G1 X183.46 Y166.083 E.16353
G1 X183.037 Y166.083 E.00572
G1 X183.037 Y178.168 E.16353
G1 X182.614 Y178.168 E.00572
G1 X182.614 Y166.083 E.16353
G1 X182.191 Y166.083 E.00572
G1 X182.191 Y178.168 E.16353
G1 X181.768 Y178.168 E.00572
M73 P3 R18
G1 X181.768 Y166.083 E.16353
G1 X181.345 Y166.083 E.00572
G1 X181.345 Y178.168 E.16353
G1 X181.057 Y178.168 E.0039
G1 X180.922 Y178.214 E.00193
G1 X180.922 Y166.037 E.16479
G1 X180.665 Y165.948 E.00367
G1 X180.499 Y165.998 E.00235
G1 X180.499 Y178.253 E.16584
G1 X180.076 Y178.128 E.00597
G1 X180.076 Y166.122 E.16246
G1 X179.653 Y166.247 E.00597
G1 X179.653 Y178.003 E.15907
G1 X179.32 Y177.904 E.0047
G1 X179.23 Y177.648 E.00368
G1 X179.23 Y166.194 E.15499
G1 X181.059 Y165.721 F36000
G1 F1800
G1 X180.673 Y165.589 E.00553
G1 X179.048 Y166.069 E.02293
G1 X178.544 Y167.536 E.02099
G1 X178.696 Y168.049 E.00723
G1 X178.696 Y176.203 E.11034
G1 X178.543 Y176.722 E.00733
G1 X179.054 Y178.183 E.02095
G1 X180.674 Y178.662 E.02285
G1 X181.114 Y178.51 E.0063
G1 X184.746 Y178.51 E.04914
G1 X185.885 Y177.371 E.02181
G1 X185.885 Y166.88 E.14197
G1 X184.745 Y165.74 E.02181
G1 X181.113 Y165.74 E.04915
;WIPE_START
G1 X183.113 Y165.74 E-.5
;WIPE_END
G17
G3 Z.34 I-.417 J-.636 P1  F36000
G1 X175.445 Y170.76 Z.34
G1 X175.445 Y164.98
G1 X167.6 Y164.98
G1 X168.889 Y170.611
G1 X169.084 Y171.786
G1 X169.1 Y172.272
G1 X169.1 Y175.11
G1 X168.8 Y175.11
G1 Z.09
G1 E.5 F1800
;TYPE:Outer wall
;WIDTH:0.399999
G1 X168.8 Y171.416 E.04998
;WIDTH:0.427488
G1 X168.814 Y170.891 E.00763
G1 X168.749 Y170.748 E.00228
;WIDTH:0.418007
G1 X168.61 Y170.7 E.00208
;WIDTH:0.399999
G1 X167.3 Y170.7 E.01772
G1 X167.3 Y164.68 E.08146
G1 X175.745 Y164.68 E.11428
G1 X175.745 Y185.32 E.2793
G1 X167.3 Y185.32 E.11428
G1 X167.3 Y183.965 E.01834
G1 X167.259 Y183.848 E.00168
G1 X167.11 Y183.775 E.00225
G1 X165.8 Y183.775 E.01772
G1 X165.8 Y179.175 E.06225
G1 X167.11 Y179.175 E.01772
G1 X167.237 Y179.126 E.00185
G1 X167.3 Y178.984 E.00209
G1 X167.3 Y175.3 E.04986
G1 X168.61 Y175.3 E.01772
G1 X168.735 Y175.253 E.00182
G1 X168.792 Y175.128 E.00185
G1 X168.877 Y175.089
;WIPE_START
G1 X168.796 Y173.128 E-.5
;WIPE_END
G17
G3 Z.34 I0 J.761 P1  F36000
G1 X169.1 Y173.128 Z.34
G1 X169.184 Y170.861
G1 X169.031 Y170.503
G1 X168.879 Y170.128
G1 X168.757 Y169.711
G1 X168.838 Y169.291
G1 X168.998 Y168.893
G1 X169.229 Y168.533
G1 X169.525 Y168.223
G1 X169.831 Y168.004
G1 X170.007 Y168.251
G1 Z.09
G1 E.5 F1800
G1 X170.041 Y168.228 E.00055
G1 X170.379 Y168.077 E.00502
G1 X170.74 Y167.993 E.00502
G1 X171.111 Y167.979 E.00502
G1 X171.477 Y168.035 E.00502
G1 X171.826 Y168.159 E.00502
G1 X172.224 Y168.416 E.0064
G1 X172.424 Y168.593 E.00361
G1 X172.65 Y168.886 E.00502
G1 X172.817 Y169.217 E.00502
G1 X172.918 Y169.574 E.00502
G1 X172.95 Y169.943 E.00502
G1 X172.911 Y170.312 E.00502
G1 X172.803 Y170.667 E.00502
G1 X172.63 Y170.994 E.00502
G1 X172.399 Y171.284 E.00502
G1 X172.116 Y171.524 E.00502
G1 X171.793 Y171.706 E.00502
G1 X171.442 Y171.824 E.00502
G1 X171.075 Y171.873 E.00502
G1 X170.705 Y171.852 E.00502
G1 X170.345 Y171.762 E.00502
G1 X170.01 Y171.605 E.00502
G1 X169.71 Y171.387 E.00502
G1 X169.456 Y171.116 E.00502
;WIDTH:0.43217
G1 X169.185 Y170.66 E.00779
G1 X169.065 Y170.149 E.00771
;WIDTH:0.399999
G1 X169.057 Y169.758 E.00529
G1 X169.134 Y169.359 E.0055
G1 X169.275 Y169.016 E.00502
G1 X169.479 Y168.706 E.00502
G1 X169.737 Y168.44 E.00502
G1 X169.991 Y168.263 E.00419
G1 X170.006 Y168.243
;WIPE_START
G1 X170.041 Y168.228 E-.01525
G1 X170.379 Y168.077 E-.09267
G1 X170.74 Y167.993 E-.09267
G1 X171.111 Y167.979 E-.09267
G1 X171.477 Y168.035 E-.09267
G1 X171.826 Y168.159 E-.09266
G1 X171.898 Y168.206 E-.02142
;WIPE_END
G17
G3 Z.34 I.575 J.498 P1  F36000
G1 X174.856 Y164.794 Z.34
G1 Z.09
G1 E.5 F1800
;TYPE:Bottom surface
;WIDTH:0.402276
G1 F3000
G1 X175.459 Y165.397 E.00897
G1 X175.459 Y165.939 E.00503
G1 X174.486 Y164.966 E.01586
G1 X173.945 Y164.966 E.00503
G1 X175.459 Y166.481 E.02612
G1 X175.459 Y167.022 E.00503
G1 X173.403 Y164.966 E.03646
G1 X172.861 Y164.966 E.00503
G1 X175.459 Y167.564 E.04682
G1 X175.459 Y168.105 E.00503
G1 X172.32 Y164.966 E.05719
G1 X171.778 Y164.966 E.00503
G1 X175.459 Y168.647 E.06762
G1 X175.459 Y169.189 E.00503
G1 X171.237 Y164.966 E.07818
G1 X170.695 Y164.966 E.00503
G1 X175.459 Y169.73 E.08889
G1 X175.459 Y170.272 E.00503
G1 X170.153 Y164.966 E.09974
G1 X169.612 Y164.966 E.00503
G1 X175.459 Y170.813 E.11074
G1 X175.459 Y171.355 E.00503
G1 X169.07 Y164.966 E.12189
G1 X168.529 Y164.966 E.00503
G1 X171.281 Y167.718 E.04977
G1 X171.069 Y167.691 E.00136
G1 X170.734 Y167.713 E.00264
G1 X167.987 Y164.966 E.04967
G1 X167.586 Y164.966 E.00336
G1 X167.586 Y165.106 E.00064
G1 X170.291 Y167.811 E.04887
G1 X169.912 Y167.973 E.00348
G1 X167.586 Y165.647 E.04161
G1 X167.586 Y166.189 E.00503
G1 X169.595 Y168.199 E.03557
G1 X169.509 Y168.26 E.00038
G1 X169.32 Y168.465 E.00204
G1 X167.586 Y166.731 E.03031
G1 X167.586 Y167.272 E.00503
G1 X169.093 Y168.779 E.02597
G1 X168.997 Y168.934 E.00103
G1 X168.914 Y169.142 E.00146
G1 X167.586 Y167.814 E.02256
G1 X167.586 Y168.355 E.00503
G1 X168.801 Y169.571 E.02043
G1 X168.779 Y169.676 E.00039
G1 X168.779 Y170.09 E.00351
G1 X167.586 Y168.897 E.02001
G1 X167.586 Y169.438 E.00503
G1 X168.562 Y170.415 E.01591
G1 X168.02 Y170.415 E.00503
G1 X167.414 Y169.809 E.00903
;WIPE_START
G1 X168.02 Y170.415 E-.21422
G1 X168.562 Y170.415 E-.1354
G1 X168.136 Y169.989 E-.15038
;WIPE_END
G17
G3 Z.34 I.214 J.73 P1  F36000
G1 X168.783 Y169.8 Z.34
G1 X168.757 Y169.711
G1 X168.838 Y169.291
G1 X168.998 Y168.893
G1 X169.229 Y168.533
G1 X169.525 Y168.223
G1 X169.874 Y167.974
G1 X170.263 Y167.796
G1 X170.679 Y167.695
G1 X171.107 Y167.675
G1 X171.531 Y167.736
G1 X171.936 Y167.876
G1 X172.307 Y168.09
G1 X172.63 Y168.371
G1 X172.895 Y168.707
G1 X173.091 Y169.088
G1 X173.178 Y169.383
G1 X172.998 Y169.436
G1 Z.09
G1 E.5 F1800
G1 F3000
G1 X175.459 Y171.897 E.0442
G1 X175.459 Y172.438 E.00503
G1 X173.211 Y170.19 E.04012
G1 X173.197 Y170.342 E.00075
G1 X173.114 Y170.634 E.00231
G1 X175.459 Y172.98 E.04199
G1 X175.459 Y173.521 E.00503
G1 X172.946 Y171.008 E.04519
G1 X172.9 Y171.102 E.00037
G1 X172.723 Y171.327 E.00211
G1 X175.459 Y174.063 E.04946
G1 X175.459 Y174.605 E.00503
G1 X172.46 Y171.605 E.05451
G1 X172.265 Y171.767 E.00177
M73 P4 R18
G1 X172.147 Y171.833 E.0006
G1 X175.459 Y175.146 E.06051
G1 X175.459 Y175.688 E.00503
G1 X171.783 Y172.011 E.06752
G1 X171.527 Y172.099 E.00196
G1 X171.354 Y172.124 E.00095
G1 X175.459 Y176.229 E.07587
G1 X175.459 Y176.771 E.00503
G1 X170.835 Y172.146 E.08611
G1 X170.719 Y172.143 E.00044
G1 X170.304 Y172.049 E.00364
G1 X170.106 Y171.959 E.0014
G1 X175.459 Y177.312 E.10071
G1 X175.459 Y177.854 E.00503
G1 X169.085 Y171.48 E.12158
G1 X169.083 Y172.02 E.00501
G1 X175.459 Y178.396 E.12161
G1 X175.459 Y178.937 E.00503
G1 X169.082 Y172.56 E.12165
G1 X169.08 Y173.1 E.00501
G1 X175.459 Y179.479 E.12168
G1 X175.459 Y180.02 E.00503
G1 X169.079 Y173.64 E.12171
G1 X169.077 Y174.18 E.00501
G1 X175.459 Y180.562 E.12174
G1 X175.459 Y181.104 E.00503
G1 X169.076 Y174.72 E.12178
G1 X169.063 Y175.249 E.00488
G1 X175.459 Y181.645 E.12204
G1 X175.459 Y182.187 E.00503
G1 X168.814 Y175.541 E.12722
G1 X168.621 Y175.586 E.00119
G1 X168.317 Y175.586 E.00231
G1 X175.459 Y182.728 E.13751
G1 X175.459 Y183.27 E.00503
G1 X167.775 Y175.586 E.14794
G1 X167.586 Y175.586 E.00111
G1 X167.586 Y175.938 E.00282
G1 X175.459 Y183.812 E.15159
G1 X175.459 Y184.353 E.00503
G1 X167.586 Y176.479 E.15159
G1 X167.586 Y177.021 E.00503
G1 X175.459 Y184.895 E.15159
G1 X175.459 Y185.035 E.00064
G1 X175.058 Y185.035 E.00336
G1 X167.586 Y177.562 E.14386
G1 X167.586 Y178.104 E.00503
G1 X174.516 Y185.035 E.13318
G1 X173.975 Y185.035 E.00503
G1 X167.586 Y178.646 E.12189
G1 X167.586 Y178.995 E.00279
G1 X167.551 Y179.153 E.00084
G1 X173.433 Y185.035 E.11144
G1 X172.892 Y185.035 E.00503
G1 X167.278 Y179.421 E.10597
G1 X167.121 Y179.46 E.00083
G1 X166.775 Y179.46 E.00276
G1 X172.35 Y185.035 E.10517
G1 X171.808 Y185.035 E.00503
G1 X166.234 Y179.46 E.10517
G1 X166.086 Y179.46 E.00071
G1 X166.086 Y179.853 E.00327
G1 X171.267 Y185.035 E.09723
G1 X170.725 Y185.035 E.00503
G1 X166.086 Y180.395 E.08641
G1 X166.086 Y180.937 E.00503
G1 X170.184 Y185.035 E.07573
G1 X169.642 Y185.035 E.00503
G1 X166.086 Y181.478 E.0652
G1 X166.086 Y182.02 E.00503
G1 X169.1 Y185.035 E.0548
G1 X168.559 Y185.035 E.00503
G1 X167.586 Y184.061 E.01586
G1 X167.586 Y183.955 E.00038
G1 X167.548 Y183.774 E.00106
G1 X167.432 Y183.614 E.00118
G1 X167.328 Y183.54 E.00054
G1 X167.121 Y183.489 E.00134
G1 X167.013 Y183.489 E.00039
G1 X166.086 Y182.561 E.01501
G1 X166.086 Y183.103 E.00503
G1 X166.643 Y183.661 E.00815
;WIPE_START
G1 X166.086 Y183.103 E-.19712
G1 X166.086 Y182.561 E-.1354
G1 X166.559 Y183.035 E-.16749
;WIPE_END
G17
G3 Z.34 I-.761 J0 P1  F36000
G1 X166.559 Y183.475 Z.34
G1 X167.6 Y183.475
G1 X167.6 Y184.432
G1 X167.414 Y184.432
G1 Z.09
G1 E.5 F1800
G1 F3000
G1 X168.188 Y185.206 E.01214
; stop printing object sv08-btt-eddy-mount_rap-v307-single-model.stl id:0 copy 0
;LAYER_CHANGE
;Z:0.18
;HEIGHT:0.09
TIMELAPSE_TAKE_FRAME
G92 E0
;WIPE_START
G1 F3000
G1 X167.414 Y184.432 E-.5
;WIPE_END
EXCLUDE_OBJECT_END NAME=sv08-btt-eddy-mount_rap-v307-single-model.stl_id_0_copy_0
;_SET_FAN_SPEED_CHANGING_LAYER
SET_VELOCITY_LIMIT ACCEL=20000 ACCEL_TO_DECEL=10000
M140 S60 ; set bed temperature
; printing object sv08-btt-eddy-mount_rap-v307-single-model.stl id:0 copy 0
EXCLUDE_OBJECT_START NAME=sv08-btt-eddy-mount_rap-v307-single-model.stl_id_0_copy_0
G17
G3 Z.43 I0 J.761 P1  F36000
G1 X167.871 Y184.432 Z.43
G1 X169.371 Y175.871
G1 X169.371 Y173.224
G1 X169.353 Y172.777
G1 X168.825 Y169.718
G1 X168.763 Y169.268
G1 X168.789 Y168.785
G1 X169.015 Y168.364
G1 X169.346 Y168.017
G1 X169.738 Y167.738
G1 X169.425 Y167.256
G1 Z.18
G1 E.5 F1800
SET_VELOCITY_LIMIT ACCEL=12000 ACCEL_TO_DECEL=6000
;TYPE:Inner wall
;WIDTH:0.599999
G1 F5200
G1 X169.328 Y167.305 E.00225
G1 X168.862 Y167.669 E.0122
G1 X168.461 Y168.134 E.01268
G1 X168.461 Y165.752 E.04918
G1 X169.972 Y165.752 E.03118
;WIDTH:0.644049
G1 X170.046 Y165.774 E.00172
;WIDTH:0.6881
G1 X170.12 Y165.796 E.00184
;WIDTH:0.73215
G1 X170.195 Y165.818 E.00196
;WIDTH:0.7762
G1 X170.269 Y165.84 E.00208
;WIDTH:0.82025
G1 X170.343 Y165.862 E.0022
;WIDTH:0.8643
G1 X170.417 Y165.884 E.00232
G1 X171.079 Y165.872 E.01988
;WIDTH:0.874418
G1 X171.678 Y165.889 E.01822
G1 X171.743 Y165.866 E.00208
;WIDTH:0.829763
G1 X171.808 Y165.844 E.00197
;WIDTH:0.785109
G1 X171.872 Y165.822 E.00186
;WIDTH:0.740454
G1 X171.937 Y165.799 E.00175
;WIDTH:0.695799
G1 X172.001 Y165.777 E.00164
;WIDTH:0.651145
G1 X172.066 Y165.755 E.00154
;WIDTH:0.60649
G1 X172.382 Y165.752 E.00659
;WIDTH:0.599999
G1 X174.674 Y165.752 E.04731
G1 X174.674 Y168.439 E.05547
;WIDTH:0.601516
G1 X174.678 Y169.925 E.03076
;WIDTH:0.619004
G1 X174.674 Y171.057 E.02414
;WIDTH:0.599999
G1 X174.674 Y184.249 E.27229
G1 X168.461 Y184.249 E.12823
