; HEADER_BLOCK_START
; generated by OrcaSlicer 2.3.1 on 2025-12-23 at 12:19:36
; total layer number: 109
; filament_density: 1.27
; filament_diameter: 1.75
; max_z_height: 17.50
; HEADER_BLOCK_END

; THUMBNAIL_BLOCK_START

;
; THUMBNAIL_BLOCK_END

; THUMBNAIL_BLOCK_START

;
; THUMBNAIL_BLOCK_END

; THUMBNAIL_BLOCK_START

;
; THUMBNAIL_BLOCK_END

; external perimeters extrusion width = 0.60mm
; perimeters extrusion width = 0.60mm
; infill extrusion width = 0.40mm
; solid infill extrusion width = 0.40mm
; top infill extrusion width = 0.40mm
; support material extrusion width = 0.40mm
; first layer extrusion width = 0.40mm

; EXECUTABLE_BLOCK_START
EXCLUDE_OBJECT_DEFINE NAME=sv08-btt-eddy-mount_rap-v307-single-model.stl_id_0_copy_0 CENTER=175,175 POLYGON=[[165.5,178.875],[167,163.925],[168.5,163.925],[176,163.925],[184,167.125],[184.5,167.625],[184.5,176.625],[176.5,185.575],[176,186.075],[167,186.075],[165.5,184.075],[165.5,178.875]]
M73 P0 R12
;TYPE:Custom
G28
G90
G1 X0 F9000
G1 Y20
G1 Z0.600 F600
G1 Y0 F9000
START_PRINT
G90
G1 X0 F9000
G1 Y20
G1 Z0.600 F600
G1 Y0 F9000
M400
G91
M83
M140 S60 ;set bed temp
M104 S255 ;set extruder temp
M190 S60 ;wait for bed temp
M109 S255;wait for extruder temp
G1 E25 F300
G4 P1000
G1 E-0.200 Z5 F600
G1 X88.000 F9000
G1 Z-5.000 F600
G1 X87.000 E20.88 F1800
M73 P1 R12
G1 X87.000 E13.92 F1800
G1 Y1 E0.16 F1800
G1 X-87.000 E13.92 F1800
G1 X-87.000 E20.88 F1800
M73 P2 R12
G1 Y1 E0.24 F1800
G1 X87.000 E20.88 F1800
G1 X87.000 E13.92 F1800
G1 E-0.200 Z1 F600
M73 P3 R11
M400
G90
G21
M83 ; use relative distances for extrusion
; Filament gcode
M106 S0
;LAYER_CHANGE
;Z:0.2
;HEIGHT:0.2
TIMELAPSE_TAKE_FRAME
G92 E0
G1 E-.5 F1800
;_SET_FAN_SPEED_CHANGING_LAYER
SET_VELOCITY_LIMIT ACCEL=3000 ACCEL_TO_DECEL=1500
G1 X166.407 Y165.68 F36000
G1 Z.45
G1 Z.2
G1 E.5 F1800
;TYPE:Skirt
;WIDTH:0.4
G1 F3000
G1 X166.829 Y164.274 E.04142
G1 X167 Y164.147 E.00601
G1 X176.026 Y164.149 E.2546
G1 X184.772 Y165.449 E.24939
G1 X186.126 Y166.753 E.05305
G1 X186.179 Y166.88 E.00385
G1 X186.179 Y177.371 E.29592
G1 X184.858 Y178.764 E.05416
G1 X176.112 Y185.814 E.31685
G1 X168.266 Y188.969 E.23852
G1 X168.074 Y188.93 E.00555
G1 X162.145 Y183.001 E.23649
G1 X162.093 Y182.875 E.00385
G1 X162.1 Y180.023 E.08043
G1 X166.395 Y165.719 E.42128
; printing object sv08-btt-eddy-mount_rap-v307-single-model.stl id:0 copy 0
;WIPE_START
G1 X166.829 Y164.274 E-.37714
G1 X167 Y164.147 E-.05328
G1 X167.278 Y164.147 E-.06958
;WIPE_END
EXCLUDE_OBJECT_START NAME=sv08-btt-eddy-mount_rap-v307-single-model.stl_id_0_copy_0
G17
G3 Z.45 I-.759 J-.054 P1  F36000
G1 X166.271 Y178.314 Z.45
G1 Z.2
G1 E.5 F1800
;TYPE:Support
G1 X166.271 Y176.529 E.05035
G1 X165.875 Y176.926 E.01583
G1 X165.875 Y178.153 E.03462
G1 X165.478 Y178.153 E.01119
G1 X165.478 Y177.323 E.02343
G1 X165.081 Y177.719 E.01583
G1 X165.081 Y178.273 E.01563
G1 X164.779 Y178.576 E.01207
G1 X164.779 Y179.753 E.03321
G1 X164.684 Y179.753 E.00266
G1 X164.684 Y178.116 E.04618
G1 X164.288 Y178.513 E.01583
G1 X164.288 Y179.753 E.03499
G1 X163.891 Y179.753 E.01119
G1 X163.891 Y178.91 E.0238
G1 X163.494 Y179.306 E.01583
G1 X163.494 Y179.753 E.01261
G1 X163.097 Y179.753 E.01119
G1 X163.097 Y179.476 E.00782
;WIPE_START
G1 X163.097 Y179.753 E-.06935
G1 X163.494 Y179.753 E-.09919
G1 X163.494 Y179.306 E-.11173
G1 X163.891 Y178.91 E-.14027
G1 X163.891 Y179.227 E-.07946
;WIPE_END
G17
G3 Z.45 I.204 J.733 P1  F36000
G1 X166.6 Y178.475 Z.45
G1 Z.2
G1 E.5 F1800
G1 X165.334 Y178.475 E.0357
G1 X165.1 Y178.709 E.00935
G1 X165.1 Y180.075 E.03852
G1 X162.271 Y180.075 E.07979
G1 X166.6 Y175.746 E.17267
G1 X166.6 Y178.421 E.07546
;WIPE_START
G1 X166.6 Y176.421 E-.5
;WIPE_END
G17
G3 Z.45 I-.672 J-.356 P1  F36000
G1 X163.097 Y183.036 Z.45
G1 Z.2
G1 E.5 F1800
G1 X163.097 Y183.246 E.00595
G1 X163.494 Y183.643 E.01583
G1 X163.494 Y183.196 E.01261
G1 X163.891 Y183.196 E.01119
G1 X163.891 Y184.04 E.0238
G1 X164.288 Y184.437 E.01583
G1 X164.288 Y183.196 E.03499
G1 X164.684 Y183.196 E.01119
G1 X164.684 Y184.833 E.04618
G1 X165.081 Y185.23 E.01583
M73 P4 R11
G1 X165.081 Y184.676 E.01563
G1 X165.201 Y184.796 E.00479
G1 X165.478 Y184.796 E.0078
G1 X165.478 Y185.627 E.02343
G1 X165.875 Y186.024 E.01583
G1 X165.875 Y184.796 E.03462
G1 X166.271 Y184.796 E.01119
G1 X166.271 Y186.42 E.04582
G1 X166.668 Y186.817 E.01583
G1 X166.668 Y186.364 E.0128
G1 X166.701 Y186.397 E.00132
G1 X167.065 Y186.397 E.01026
G1 X167.065 Y187.214 E.02305
G1 X167.462 Y187.611 E.01583
G1 X167.462 Y186.397 E.03425
G1 X167.858 Y186.397 E.01119
G1 X167.858 Y188.235 E.05185
G1 X165.1 Y184.24 F36000
G1 F1800
G1 X165.334 Y184.475 E.00935
G1 X166.6 Y184.475 E.0357
G1 X166.6 Y185.841 E.03853
G1 X166.834 Y186.075 E.00935
G1 X168.2 Y186.075 E.03852
G1 X168.2 Y188.803 E.07695
G1 X162.271 Y182.875 E.23649
G1 X165.1 Y182.875 E.07979
G1 X165.1 Y184.187 E.03701
;WIPE_START
G1 X165.1 Y182.875 E-.32801
G1 X164.412 Y182.875 E-.17199
;WIPE_END
G17
G3 Z.45 I.179 J.739 P1  F36000
G1 X166.1 Y182.467 Z.45
G1 X175.5 Y180.198
G1 X185.316 Y177.828
G1 Z.2
G1 E.5 F1800
G1 X185.316 Y166.65 E.3153
G1 X184.919 Y166.253 E.01583
G1 X184.919 Y177.997 E.33127
G1 X184.612 Y178.304 E.01222
G1 X184.522 Y178.304 E.00255
G1 X184.522 Y165.947 E.34856
G1 X184.125 Y165.947 E.01119
G1 X184.125 Y178.304 E.34856
G1 X183.729 Y178.304 E.01119
G1 X183.729 Y165.947 E.34856
G1 X183.332 Y165.947 E.01119
G1 X183.332 Y178.304 E.34856
G1 X182.935 Y178.304 E.01119
G1 X182.935 Y165.947 E.34856
G1 X182.538 Y165.947 E.01119
G1 X182.538 Y178.304 E.34856
G1 X182.142 Y178.304 E.01119
G1 X182.142 Y165.947 E.34856
G1 X181.745 Y165.947 E.01119
G1 X181.745 Y178.304 E.34856
G1 X181.348 Y178.304 E.01119
G1 X181.348 Y165.947 E.34856
G1 X181.004 Y165.947 E.00969
G1 X180.951 Y165.928 E.00159
G1 X180.951 Y178.322 E.34959
G1 X180.589 Y178.447 E.01082
G1 X180.555 Y178.437 E.001
G1 X180.555 Y165.814 E.35606
G1 X180.158 Y165.931 E.01167
G1 X180.158 Y178.319 E.34944
G1 X179.761 Y178.202 E.01167
M73 P5 R11
G1 X179.761 Y166.048 E.34281
G1 X179.364 Y166.165 E.01167
G1 X179.364 Y178.084 E.33619
G1 X179.232 Y178.045 E.00388
G1 X178.968 Y177.281 E.02282
G1 X178.968 Y166.476 E.30478
G1 X181.008 Y165.608 F36000
G1 F1800
G1 X180.596 Y165.466 E.01226
G1 X178.981 Y165.944 E.04752
G1 X178.457 Y167.465 E.04537
G1 X178.7 Y168.284 E.0241
G1 X178.7 Y175.966 E.21668
G1 X178.457 Y176.789 E.0242
G1 X178.983 Y178.306 E.04531
G1 X180.596 Y178.784 E.04746
G1 X181.059 Y178.625 E.0138
G1 X184.746 Y178.625 E.104
G1 X186 Y177.371 E.05004
G1 X186 Y166.88 E.29592
G1 X184.746 Y165.625 E.05004
G1 X181.058 Y165.625 E.10401
;WIPE_START
G1 X183.058 Y165.625 E-.5
;WIPE_END
G17
G3 Z.45 I-.256 J-.716 P1  F36000
G1 X175.5 Y168.329 Z.45
G1 X167.6 Y164.925
G1 X168.889 Y170.611
G1 X168.9 Y170.729
G1 X168.754 Y170.742
G1 Z.2
G1 E.5 F1800
;TYPE:Outer wall
;WIDTH:0.4242
G1 X168.621 Y170.7 E.0042
;WIDTH:0.399999
G1 X167.3 Y170.7 E.03727
G1 X167.3 Y164.625 E.17136
G1 X175.8 Y164.625 E.23976
G1 X175.8 Y185.375 E.58529
G1 X167.3 Y185.375 E.23976
G1 X167.3 Y183.953 E.04011
G1 X167.263 Y183.845 E.00323
G1 X167.121 Y183.775 E.00446
G1 X165.8 Y183.775 E.03727
G1 X165.8 Y179.175 E.12975
G1 X167.121 Y179.175 E.03727
G1 X167.242 Y179.128 E.00365
G1 X167.3 Y178.996 E.00406
G1 X167.3 Y175.3 E.10425
G1 X168.621 Y175.3 E.03727
G1 X168.74 Y175.256 E.00356
G1 X168.8 Y175.122 E.00414
G1 X168.8 Y171.415 E.10455
;WIDTH:0.435589
G1 X168.818 Y170.879 E.01665
G1 X168.763 Y170.76 E.00405
G1 X168.759 Y170.715
;WIPE_START
G1 X168.621 Y170.7 E-.03838
G1 X167.3 Y170.7 E-.33037
G1 X167.3 Y170.175 E-.13126
;WIPE_END
G17
G3 Z.45 I0 J.761 P1  F36000
G1 X167.6 Y170.175 Z.45
G1 X169.525 Y168.223
G1 X169.874 Y167.974
G1 X170.263 Y167.796
G1 X170.48 Y167.744
G1 X170.551 Y168.037
G1 Z.2
G1 E.5 F1800
;WIDTH:0.399999
G1 X170.739 Y167.993 E.00546
G1 X171.11 Y167.978 E.01046
G1 X171.476 Y168.034 E.01046
G1 X171.825 Y168.159 E.01046
G1 X172.226 Y168.417 E.01345
G1 X172.423 Y168.592 E.00743
G1 X172.649 Y168.885 E.01046
G1 X172.816 Y169.216 E.01046
G1 X172.918 Y169.573 E.01046
G1 X172.95 Y169.942 E.01046
G1 X172.911 Y170.311 E.01046
G1 X172.804 Y170.666 E.01046
G1 X172.631 Y170.994 E.01046
G1 X172.399 Y171.283 E.01046
G1 X172.117 Y171.523 E.01046
G1 X171.795 Y171.706 E.01046
G1 X171.443 Y171.824 E.01046
G1 X171.076 Y171.874 E.01046
G1 X170.706 Y171.853 E.01046
G1 X170.346 Y171.762 E.01046
G1 X170.01 Y171.605 E.01046
G1 X169.71 Y171.388 E.01046
G1 X169.457 Y171.117 E.01046
;WIDTH:0.442202
G1 X169.177 Y170.656 E.017
G1 X169.067 Y170.161 E.01602
;WIDTH:0.399999
G1 X169.057 Y169.821 E.00957
G1 X169.134 Y169.36 E.01321
G1 X169.275 Y169.017 E.01046
G1 X169.478 Y168.707 E.01046
G1 X169.736 Y168.441 E.01046
G1 X170.04 Y168.228 E.01046
G1 X170.378 Y168.077 E.01046
G1 X170.531 Y168.041 E.00444
G1 X170.561 Y167.999
;WIPE_START
G1 X170.739 Y167.993 E-.05335
G1 X171.11 Y167.978 E-.09267
G1 X171.476 Y168.034 E-.09267
G1 X171.825 Y168.159 E-.09267
G1 X172.226 Y168.417 E-.11917
G1 X172.374 Y168.549 E-.04946
;WIPE_END
G17
G3 Z.45 I.518 J.557 P1  F36000
G1 X175.693 Y165.457 Z.45
G1 Z.2
G1 E.5 F1800
;TYPE:Bottom surface
;WIDTH:0.401347
G1 F3000
G1 X175.129 Y164.893 E.01719
G1 X174.622 Y164.893 E.00957
G1 X175.532 Y165.803 E.03053
G1 X175.532 Y166.31 E.00957
G1 X174.115 Y164.893 E.05045
G1 X173.608 Y164.893 E.00957
G1 X175.532 Y166.817 E.07057
G1 X175.532 Y167.324 E.00957
G1 X173.101 Y164.893 E.09072
G1 X172.594 Y164.893 E.00957
G1 X175.532 Y167.831 E.11091
G1 X175.532 Y168.338 E.00957
G1 X172.088 Y164.893 E.13113
G1 X171.581 Y164.893 E.00957
G1 X175.532 Y168.845 E.15155
G1 X175.532 Y169.351 E.00957
G1 X171.074 Y164.893 E.17225
G1 X170.567 Y164.893 E.00957
G1 X175.532 Y169.858 E.19321
G1 X175.532 Y170.365 E.00957
G1 X170.06 Y164.893 E.21444
G1 X169.553 Y164.893 E.00957
M73 P6 R11
G1 X175.532 Y170.872 E.23593
G1 X175.532 Y171.379 E.00957
G1 X169.046 Y164.893 E.25769
G1 X168.539 Y164.893 E.00957
G1 X171.397 Y167.751 E.10771
G1 X171.071 Y167.709 E.00536
G1 X170.86 Y167.721 E.00275
G1 X168.032 Y164.893 E.10651
G1 X167.568 Y164.893 E.0085
G1 X167.568 Y164.935 E.00013
G1 X170.423 Y167.791 E.10763
G1 X170.308 Y167.819 E.00098
G1 X170.055 Y167.929 E.00418
G1 X167.568 Y165.442 E.09296
G1 X167.568 Y165.949 E.00957
G1 X169.737 Y168.118 E.0803
G1 X169.522 Y168.272 E.00393
G1 X169.456 Y168.344 E.00067
G1 X167.568 Y166.456 E.06914
G1 X167.568 Y166.963 E.00957
G1 X169.217 Y168.612 E.05964
G1 X169.025 Y168.927 E.00625
G1 X167.568 Y167.47 E.05204
G1 X167.568 Y167.977 E.00957
G1 X168.878 Y169.287 E.04623
G1 X168.796 Y169.712 E.00773
G1 X167.568 Y168.484 E.04299
G1 X167.568 Y168.99 E.00957
G1 X168.805 Y170.228 E.04334
G1 X168.843 Y170.48 E.00372
G1 X168.631 Y170.432 E.00287
G1 X168.503 Y170.432 E.00113
G1 X167.568 Y169.497 E.03149
G1 X167.568 Y170.004 E.00957
G1 X168.157 Y170.593 E.01813
;WIPE_START
G1 X167.568 Y170.004 E-.20818
G1 X167.568 Y169.497 E-.12672
G1 X168.035 Y169.964 E-.1651
;WIPE_END
G17
G3 Z.45 I0 J-.761 P1  F36000
G1 X167.6 Y169.964 Z.45
G1 X169.525 Y168.223
G1 X169.874 Y167.974
G1 X170.263 Y167.796
G1 X170.679 Y167.695
G1 X171.107 Y167.675
G1 X171.531 Y167.736
G1 X171.936 Y167.876
G1 X172.307 Y168.09
G1 X172.63 Y168.371
G1 X172.895 Y168.707
G1 X173.091 Y169.088
G1 X173.139 Y169.249
G1 X172.95 Y169.304
G1 Z.2
G1 E.5 F1800
G1 F3000
G1 X175.532 Y171.886 E.09674
G1 X175.532 Y172.393 E.00957
G1 X173.204 Y170.065 E.08664
G1 X173.17 Y170.379 E.00508
G1 X173.133 Y170.5 E.0011
G1 X175.532 Y172.9 E.08947
G1 X175.532 Y173.407 E.00957
G1 X172.998 Y170.873 E.09482
G1 X172.884 Y171.095 E.0036
G1 X172.81 Y171.192 E.00102
G1 X175.532 Y173.914 E.10231
G1 X175.532 Y174.42 E.00957
G1 X172.583 Y171.471 E.11137
G1 X172.315 Y171.71 E.00603
G1 X175.532 Y174.927 E.12203
G1 X175.532 Y175.434 E.00957
G1 X171.994 Y171.896 E.13487
G1 X171.89 Y171.956 E.001
G1 X171.635 Y172.043 E.00405
G1 X175.532 Y175.941 E.14937
G1 X175.532 Y176.448 E.00957
G1 X171.212 Y172.128 E.16659
G1 X170.697 Y172.12 E.00977
G1 X175.532 Y176.955 E.1878
G1 X175.532 Y177.462 E.00957
G1 X169.93 Y171.859 E.21994
G1 X169.861 Y171.828 E.0004
G1 X169.522 Y171.578 E.00746
G1 X169.281 Y171.325 E.00582
G1 X169.085 Y171.067 E.00524
G1 X169.067 Y171.504 E.00783
G1 X175.532 Y177.969 E.25677
G1 X175.532 Y178.476 E.00957
G1 X169.066 Y172.009 E.25683
G1 X169.065 Y172.515 E.00953
G1 X175.532 Y178.982 E.25689
G1 X175.532 Y179.489 E.00957
G1 X169.063 Y173.02 E.25695
G1 X169.062 Y173.526 E.00953
G1 X175.532 Y179.996 E.25701
G1 X175.532 Y180.503 E.00957
G1 X169.06 Y174.031 E.25707
G1 X169.059 Y174.537 E.00953
G1 X175.532 Y181.01 E.25713
G1 X175.532 Y181.517 E.00957
G1 X169.058 Y175.042 E.25719
G1 X169.057 Y175.224 E.00213
G1 X169.021 Y175.323 E.00077
G1 X168.939 Y175.43 E.00125
G1 X175.532 Y182.024 E.26233
G1 X175.532 Y182.531 E.00957
G1 X168.57 Y175.568 E.27839
G1 X168.063 Y175.568 E.00957
G1 X175.532 Y183.038 E.29909
G1 X175.532 Y183.544 E.00957
G1 X167.568 Y175.58 E.3189
G1 X167.568 Y176.087 E.00957
G1 X175.532 Y184.051 E.3189
G1 X175.532 Y184.558 E.00957
G1 X167.568 Y176.594 E.3189
G1 X167.568 Y177.101 E.00957
G1 X175.532 Y185.065 E.3189
G1 X175.532 Y185.107 E.00013
G1 X175.068 Y185.107 E.00851
G1 X167.568 Y177.608 E.3003
G1 X167.568 Y178.115 E.00957
G1 X174.561 Y185.107 E.27971
G1 X174.054 Y185.107 E.00957
G1 X167.568 Y178.621 E.25768
G1 X167.568 Y179.006 E.0066
G1 X167.546 Y179.106 E.00074
G1 X173.547 Y185.107 E.23686
G1 X173.04 Y185.107 E.00957
G1 X167.327 Y179.395 E.2246
G1 X167.132 Y179.443 E.00253
G1 X166.868 Y179.443 E.00392
G1 X172.533 Y185.107 E.22257
G1 X172.026 Y185.107 E.00957
M73 P7 R11
G1 X166.361 Y179.443 E.22257
G1 X166.068 Y179.443 E.00457
G1 X166.068 Y179.656 E.0028
G1 X171.519 Y185.107 E.21356
G1 X171.012 Y185.107 E.00957
G1 X166.068 Y180.163 E.19235
G1 X166.068 Y180.67 E.00957
G1 X170.506 Y185.107 E.1714
G1 X169.999 Y185.107 E.00957
G1 X166.068 Y181.177 E.15071
G1 X166.068 Y181.683 E.00957
G1 X169.492 Y185.107 E.1303
G1 X168.985 Y185.107 E.00957
G1 X166.068 Y182.19 E.11008
G1 X166.068 Y182.697 E.00957
G1 X166.878 Y183.507 E.02661
G1 X167.132 Y183.507 E.00371
G1 X167.325 Y183.554 E.00248
G1 X167.426 Y183.626 E.00107
G1 X167.534 Y183.777 E.00222
G1 X167.568 Y183.944 E.0019
G1 X167.568 Y184.197 E.00367
G1 X168.478 Y185.107 E.03052
G1 X167.971 Y185.107 E.00957
G1 X167.407 Y184.543 E.01719
;WIPE_START
G1 X167.971 Y185.107 E-.19938
G1 X168.478 Y185.107 E-.12672
G1 X167.986 Y184.616 E-.17389
;WIPE_END
G17
G3 Z.45 I0 J-.761 P1  F36000
G1 X167.6 Y184.616 Z.45
G1 X167.6 Y183.475
G1 X166.531 Y183.475
G1 X166.531 Y183.668
G1 Z.2
G1 E.5 F1800
G1 F3000
G1 X165.907 Y183.043 E.01947
; stop printing object sv08-btt-eddy-mount_rap-v307-single-model.stl id:0 copy 0
;LAYER_CHANGE
;Z:0.4
;HEIGHT:0.2
TIMELAPSE_TAKE_FRAME
G92 E0
;WIPE_START
G1 F3000
G1 X166.531 Y183.668 E-.5
;WIPE_END
EXCLUDE_OBJECT_END NAME=sv08-btt-eddy-mount_rap-v307-single-model.stl_id_0_copy_0
;_SET_FAN_SPEED_CHANGING_LAYER
SET_VELOCITY_LIMIT ACCEL=20000 ACCEL_TO_DECEL=10000
M140 S60 ; set bed temperature
; printing object sv08-btt-eddy-mount_rap-v307-single-model.stl id:0 copy 0
EXCLUDE_OBJECT_START NAME=sv08-btt-eddy-mount_rap-v307-single-model.stl_id_0_copy_0
G17
G3 Z.65 I.761 J0 P1  F36000
G1 X166.531 Y183.239 Z.65
G1 X169.336 Y175.836
G1 X169.392 Y171.188
G1 X169.237 Y170.834
G1 X169.087 Y170.487
G1 X168.938 Y170.122
G1 X168.816 Y169.717
G1 X168.754 Y169.266
G1 X168.787 Y168.784
G1 X169.043 Y168.386
G1 X169.37 Y168.044
G1 X169.755 Y167.769
G1 X170.186 Y167.573
G1 X170.498 Y167.497
G1 X170.365 Y166.945
G1 Z.4
G1 E.5 F1800
SET_VELOCITY_LIMIT ACCEL=12000 ACCEL_TO_DECEL=6000
;TYPE:Inner wall
;WIDTH:0.599999
G1 F2200
G1 X170.125 Y166.992 E.01075
G1 X169.586 Y167.211 E.02561
G1 X169.098 Y167.527 E.02561
G1 X168.678 Y167.931 E.02561
G1 X168.414 Y168.295 E.01979
G1 X168.414 Y165.539 E.12126
G1 X174.886 Y165.539 E.28479
G1 X174.886 Y168.4 E.12588
;WIDTH:0.618439
G1 X174.877 Y169.086 E.03119
;WIDTH:0.662787
G1 X174.854 Y169.202 E.00581
;WIDTH:0.707135
G1 X174.832 Y169.319 E.00623
;WIDTH:0.751482
G1 X174.81 Y169.436 E.00664
G1 X174.82 Y169.925 E.02741
;WIDTH:0.761135
G1 X174.805 Y170.558 E.03592
G1 X174.825 Y170.689 E.00752
;WIDTH:0.720851
G1 X174.846 Y170.82 E.0071
;WIDTH:0.680567
G1 X174.866 Y170.951 E.00668
