; HEADER_BLOCK_START
; generated by OrcaSlicer 2.3.1 on 2025-12-23 at 14:29:09
; total layer number: 476
; filament_density: 1.24
; filament_diameter: 1.75
; max_z_height: 95.00
; HEADER_BLOCK_END

; THUMBNAIL_BLOCK_START

;
; THUMBNAIL_BLOCK_END

; THUMBNAIL_BLOCK_START

;
; THUMBNAIL_BLOCK_END

; THUMBNAIL_BLOCK_START

;
; THUMBNAIL_BLOCK_END

; external perimeters extrusion width = 0.60mm
; perimeters extrusion width = 0.60mm
; infill extrusion width = 0.40mm
; solid infill extrusion width = 0.40mm
; top infill extrusion width = 0.40mm
; support material extrusion width = 0.40mm
; first layer extrusion width = 0.40mm

; EXECUTABLE_BLOCK_START
EXCLUDE_OBJECT_DEFINE NAME=VFA.stl_id_0_copy_0 CENTER=175,175 POLYGON=[[118.56,149.429],[118.565,149.366],[118.582,149.304],[118.609,149.246],[118.646,149.193],[118.691,149.148],[118.744,149.111],[168.338,118.376],[173.073,118.376],[231.354,178.507],[231.391,178.56],[231.418,178.618],[231.435,178.68],[231.44,178.744],[231.435,178.807],[231.418,178.869],[214.092,221.433],[214.06,221.488],[214.019,221.538],[213.97,221.579],[213.914,221.611],[213.854,221.633],[213.791,221.644],[141.455,231.618],[141.391,231.624],[141.327,231.618],[141.265,231.602],[141.207,231.575],[141.155,231.538],[141.109,231.493],[141.073,231.44],[141.046,231.382],[118.582,149.555],[118.565,149.493],[118.56,149.429]]
M73 P0 R49
;TYPE:Custom
G28
G90
G1 X0 F9000
G1 Y20
G1 Z0.600 F600
G1 Y0 F9000
START_PRINT EXTRUDER_TEMP=225 BED_TEMP=60
G90
G1 X0 F9000
G1 Y20
G1 Z0.600 F600
G1 Y0 F9000
M400
G91
M83
M140 S60 ;set bed temp
M104 S225 ;set extruder temp
M190 S60 ;wait for bed temp
M109 S225;wait for extruder temp
G1 E25 F300
G4 P1000
G1 E-0.200 Z5 F600
G1 X88.000 F9000
G1 Z-5.000 F600
G1 X87.000 E20.88 F1800
G1 X87.000 E13.92 F1800
G1 Y1 E0.16 F1800
G1 X-87.000 E13.92 F1800
G1 X-87.000 E20.88 F1800
G1 Y1 E0.24 F1800
G1 X87.000 E20.88 F1800
G1 X87.000 E13.92 F1800
G1 E-0.200 Z1 F600
M400
G90
G21
M83 ; use relative distances for extrusion
; Filament gcode
M106 S0
;LAYER_CHANGE
;Z:0.2
;HEIGHT:0.2
TIMELAPSE_TAKE_FRAME
G92 E0
G1 Z.2 F36000
;_SET_FAN_SPEED_CHANGING_LAYER
SET_VELOCITY_LIMIT ACCEL=3000 ACCEL_TO_DECEL=1500
G1 E-.5 F1800
G1 Z.45 F36000
G1 X130.023 Y138.732
G1 Z.2
G1 Z.2
G1 E.5 F1800
;TYPE:Skirt
;WIDTH:0.4
G1 F3000
G1 X167.009 Y115.648 E1.26861
G1 X167.578 Y115.439 E.01766
G1 X168.338 Y115.341 E.02228
G1 X173.089 Y115.342 E.13826
G1 X173.654 Y115.398 E.0165
G1 X174.198 Y115.558 E.0165
G1 X174.702 Y115.817 E.0165
G1 X175.145 Y116.159 E.0163
G1 X233.145 Y176.159 E2.4282
G1 X233.526 Y176.59 E.01671
G1 X234 Y177.578 E.0319
G1 X234.108 Y178.376 E.02343
G1 X234.051 Y179.692 E.03833
G1 X233.897 Y180.223 E.01608
G1 X216.88 Y222.031 E1.31343
G1 X216.633 Y222.558 E.01692
G1 X216.18 Y223.146 E.0216
G1 X215.194 Y224.054 E.039
G1 X214.696 Y224.326 E.0165
G1 X214.158 Y224.5 E.01647
G1 X142.051 Y234.456 E2.11803
G1 X141.496 Y234.467 E.01615
M73 P1 R49
G1 X140.936 Y234.375 E.0165
G1 X140.192 Y234.069 E.02343
G1 X139.08 Y233.361 E.03833
G1 X138.397 Y232.504 E.0319
G1 X138.17 Y231.96 E.01714
G1 X115.841 Y150.635 E2.45393
G1 X115.726 Y150.068 E.01683
G1 X115.809 Y148.975 E.0319
G1 X116.115 Y148.23 E.02343
G1 X116.801 Y147.144 E.03737
G1 X117.207 Y146.748 E.0165
G1 X117.68 Y146.435 E.0165
G1 X129.989 Y138.753 E.42219
; printing object VFA.stl id:0 copy 0
;WIPE_START
G1 X131.685 Y137.694 E-.5
;WIPE_END
G1 Z.45 F36000
EXCLUDE_OBJECT_START NAME=VFA.stl_id_0_copy_0
G1 X124.123 Y148.912 Z.2
G1 E.5 F1800
;TYPE:Brim
G1 X137.397 Y156.576 E.44597
G1 X137.526 Y156.595 E.00382
G1 X137.64 Y156.51 E.00413
G1 X140.116 Y152.223 E.14406
G1 X140.41 Y151.808 E.0148
G1 X140.771 Y151.461 E.01456
G1 X141.189 Y151.187 E.01456
G1 X141.652 Y150.996 E.01456
G1 X142.142 Y150.894 E.01456
G1 X142.642 Y150.885 E.01456
G1 X143.132 Y150.969 E.01446
G1 X143.788 Y151.241 E.02068
G1 X156.239 Y158.429 E.41831
G1 X156.653 Y158.724 E.0148
G1 X157 Y159.084 E.01456
G1 X157.274 Y159.503 E.01456
G1 X157.466 Y159.965 E.01456
G1 X157.567 Y160.455 E.01456
G1 X157.576 Y160.956 E.01456
G1 X157.493 Y161.446 E.01446
G1 X157.22 Y162.102 E.02068
G1 X154.746 Y166.387 E.14396
G1 X154.727 Y166.516 E.00382
G1 X154.812 Y166.631 E.00413
G1 X166.835 Y173.572 E.40396
G1 X166.971 Y173.637 E.00441
G1 X167.09 Y173.661 E.00352
G1 X167.193 Y173.643 E.00304
G1 X167.374 Y173.55 E.00592
G1 X167.569 Y173.392 E.00731
G1 X167.631 Y173.281 E.0037
G1 X167.66 Y173.071 E.00616
G1 X167.66 Y121.824 E1.49115
G1 X167.611 Y121.702 E.00382
G1 X167.53 Y121.653 E.00276
G1 X167.359 Y121.603 E.0052
G1 X166.912 Y121.377 E.01456
G1 X166.515 Y121.072 E.01456
G1 X166.182 Y120.699 E.01456
G1 X165.924 Y120.27 E.01456
G1 X165.752 Y119.804 E.01446
G1 X165.66 Y119.099 E.02068
G1 X165.66 Y118.384 E.0208
G1 X165.707 Y117.878 E.0148
G1 X165.846 Y117.397 E.01456
G1 X166.071 Y116.951 E.01456
G1 X166.376 Y116.554 E.01456
G1 X166.75 Y116.221 E.01456
G1 X167.178 Y115.963 E.01456
G1 X167.645 Y115.79 E.01446
G1 X168.349 Y115.698 E.02068
G1 X173.064 Y115.698 E.13719
G1 X173.571 Y115.746 E.0148
G1 X174.052 Y115.884 E.01456
G1 X174.498 Y116.11 E.01456
G1 X174.895 Y116.415 E.01456
G1 X175.228 Y116.788 E.01456
G1 X175.486 Y117.217 E.01456
G1 X175.658 Y117.683 E.01446
G1 X175.751 Y118.388 E.02068
G1 X175.751 Y119.103 E.0208
G1 X175.703 Y119.609 E.0148
G1 X175.565 Y120.09 E.01456
G1 X175.339 Y120.537 E.01456
G1 X175.034 Y120.933 E.01456
G1 X174.661 Y121.267 E.01456
G1 X174.232 Y121.524 E.01456
G1 X173.867 Y121.659 E.01131
G1 X173.77 Y121.747 E.00382
G1 X173.751 Y121.827 E.00239
G1 X173.751 Y142.821 E.61088
G1 X173.799 Y142.943 E.00382
G1 X173.929 Y143 E.00413
G1 X179.708 Y143 E.16815
G1 X180.215 Y143.047 E.0148
G1 X180.695 Y143.186 E.01456
G1 X181.142 Y143.411 E.01456
G1 X181.539 Y143.716 E.01456
G1 X181.872 Y144.09 E.01456
G1 X182.13 Y144.518 E.01456
G1 X182.302 Y144.985 E.01446
G1 X182.394 Y145.689 E.02068
G1 X182.394 Y159.569 E.40387
G1 X182.347 Y160.076 E.0148
G1 X182.208 Y160.557 E.01456
G1 X181.983 Y161.003 E.01456
G1 X181.678 Y161.4 E.01456
G1 X181.304 Y161.733 E.01456
G1 X180.876 Y161.991 E.01456
G1 X180.409 Y162.163 E.01446
G1 X179.705 Y162.256 E.02068
G1 X173.929 Y162.256 E.16805
G1 X173.807 Y162.304 E.00382
G1 X173.751 Y162.434 E.00413
G1 X173.751 Y169.89 E.21694
G1 X173.799 Y170.676 E.02291
G1 X173.925 Y171.355 E.02009
G1 X174.124 Y171.993 E.01946
G1 X174.406 Y172.623 E.02009
G1 X174.762 Y173.214 E.02009
G1 X175.201 Y173.775 E.02071
G1 X175.69 Y174.262 E.02009
G1 X176.234 Y174.687 E.02009
G1 X176.807 Y175.033 E.01946
G1 X177.436 Y175.317 E.02009
G1 X178.094 Y175.524 E.02009
G1 X178.773 Y175.649 E.02009
G1 X179.548 Y175.698 E.0226
G1 X231.064 Y175.698 E1.49899
G1 X231.571 Y175.746 E.0148
G1 X232.052 Y175.884 E.01456
G1 X232.498 Y176.11 E.01456
G1 X232.895 Y176.415 E.01456
G1 X233.228 Y176.788 E.01456
G1 X233.486 Y177.217 E.01456
G1 X233.658 Y177.683 E.01446
G1 X233.751 Y178.388 E.02068
G1 X233.751 Y179.103 E.0208
G1 X233.703 Y179.609 E.0148
G1 X233.565 Y180.09 E.01456
G1 X233.339 Y180.537 E.01456
G1 X233.034 Y180.933 E.01456
G1 X232.661 Y181.267 E.01456
G1 X232.232 Y181.524 E.01456
G1 X231.766 Y181.697 E.01446
G1 X231.061 Y181.789 E.02068
G1 X209.607 Y181.789 E.62426
G1 X209.485 Y181.837 E.00382
G1 X209.428 Y181.968 E.00413
G1 X209.428 Y189.185 E.21
G1 X209.381 Y189.691 E.0148
G1 X209.242 Y190.172 E.01456
G1 X209.017 Y190.619 E.01456
G1 X208.712 Y191.015 E.01456
G1 X208.338 Y191.349 E.01456
G1 X207.91 Y191.606 E.01456
G1 X207.443 Y191.779 E.01446
G1 X206.739 Y191.871 E.02068
G1 X195.56 Y191.871 E.32527
G1 X195.053 Y191.824 E.0148
G1 X194.573 Y191.685 E.01456
G1 X194.126 Y191.459 E.01456
G1 X193.729 Y191.154 E.01456
G1 X193.396 Y190.781 E.01456
G1 X193.138 Y190.352 E.01456
G1 X192.966 Y189.886 E.01446
G1 X192.873 Y189.181 E.02068
G1 X192.873 Y181.968 E.2099
G1 X192.825 Y181.846 E.00382
G1 X192.695 Y181.789 E.00413
G1 X179.475 Y181.789 E.38467
G1 X179.292 Y181.808 E.00536
G1 X179.188 Y181.856 E.00332
G1 X179.109 Y181.93 E.00317
G1 X179.053 Y182.065 E.00424
G1 X179.056 Y182.174 E.00317
G1 X179.096 Y182.281 E.00332
G1 X179.212 Y182.424 E.00536
G1 X215.907 Y219.118 E1.50998
G1 X216.231 Y219.51 E.0148
G1 X216.473 Y219.948 E.01456
G1 X216.629 Y220.423 E.01456
G1 X216.694 Y220.919 E.01456
G1 X216.666 Y221.419 E.01456
G1 X216.545 Y221.905 E.01456
G1 X216.337 Y222.356 E.01446
G1 X215.904 Y222.92 E.02068
G1 X215.399 Y223.425 E.0208
G1 X215.007 Y223.75 E.0148
G1 X214.569 Y223.992 E.01456
G1 X214.094 Y224.148 E.01456
G1 X213.597 Y224.213 E.01456
G1 X213.098 Y224.185 E.01456
G1 X212.612 Y224.064 E.01456
G1 X212.161 Y223.856 E.01446
G1 X211.597 Y223.423 E.02068
G1 X199.678 Y211.504 E.49047
G1 X199.558 Y211.452 E.00382
G1 X199.426 Y211.504 E.00413
G1 X193.08 Y217.849 E.26111
G1 X192.689 Y218.174 E.0148
G1 X192.251 Y218.416 E.01456
G1 X191.775 Y218.572 E.01456
G1 X191.279 Y218.637 E.01456
G1 X190.78 Y218.608 E.01456
G1 X190.294 Y218.488 E.01456
G1 X189.842 Y218.28 E.01446
G1 X189.279 Y217.847 E.02068
G1 X176.704 Y205.272 E.51744
G1 X176.38 Y204.881 E.0148
G1 X176.138 Y204.443 E.01456
G1 X175.982 Y203.967 E.01456
G1 X175.917 Y203.471 E.01456
G1 X175.945 Y202.972 E.01456
G1 X176.066 Y202.486 E.01456
G1 X176.274 Y202.034 E.01446
G1 X176.707 Y201.471 E.02068
G1 X183.05 Y195.128 E.26101
G1 X183.102 Y195.008 E.00382
G1 X183.05 Y194.876 E.00413
G1 X174.668 Y186.495 E.34488
G1 X174.282 Y186.166 E.01475
M73 P1 R48
G1 X173.962 Y185.968 E.01095
G1 X173.6 Y185.811 E.01149
G1 X173.187 Y185.705 E.01239
G1 X172.79 Y185.668 E.0116
G1 X172.394 Y185.692 E.01157
G1 X172.025 Y185.77 E.01095
G1 X171.655 Y185.907 E.01149
G1 X171.284 Y186.116 E.01239
G1 X170.992 Y186.345 E.01081
G1 X170.718 Y186.635 E.0116
G1 X170.422 Y187.064 E.01518
G1 X144.033 Y232.772 E1.53572
G1 X143.738 Y233.187 E.0148
G1 X143.378 Y233.534 E.01456
G1 X142.959 Y233.808 E.01456
G1 X142.497 Y233.999 E.01456
G1 X142.007 Y234.101 E.01456
G1 X141.506 Y234.11 E.01456
G1 X141.016 Y234.026 E.01446
G1 X140.36 Y233.754 E.02068
G1 X139.741 Y233.396 E.0208
G1 X139.326 Y233.102 E.0148
G1 X138.979 Y232.741 E.01456
G1 X138.705 Y232.322 E.01456
G1 X138.514 Y231.86 E.01456
G1 X138.412 Y231.37 E.01456
G1 X138.403 Y230.87 E.01456
G1 X138.487 Y230.38 E.01446
G1 X138.759 Y229.723 E.02068
G1 X148.951 Y212.07 E.59313
G1 X148.97 Y211.941 E.00382
G1 X148.886 Y211.826 E.00413
G1 X143.524 Y208.731 E.18014
G1 X143.109 Y208.437 E.0148
G1 X142.762 Y208.076 E.01456
G1 X142.488 Y207.657 E.01456
G1 X142.297 Y207.195 E.01456
G1 X142.195 Y206.705 E.01456
G1 X142.187 Y206.205 E.01456
G1 X142.27 Y205.715 E.01446
G1 X142.543 Y205.058 E.02068
G1 X149.502 Y193.004 E.40501
G1 X149.797 Y192.589 E.0148
G1 X150.157 Y192.242 E.01456
G1 X150.576 Y191.968 E.01456
G1 X151.038 Y191.777 E.01456
G1 X151.528 Y191.675 E.01456
G1 X152.028 Y191.666 E.01456
G1 X152.518 Y191.75 E.01446
G1 X153.175 Y192.022 E.02068
G1 X158.188 Y194.917 E.16845
G1 X158.318 Y194.936 E.00382
G1 X158.449 Y194.813 E.00522
G1 X158.909 Y193.261 E.04712
G1 X159.234 Y191.728 E.04558
G1 X159.441 Y190.181 E.04543
G1 X159.529 Y188.622 E.04543
G1 X159.499 Y187.061 E.04543
G1 X159.351 Y185.511 E.0453
G1 X159.084 Y183.968 E.04556
G1 X158.701 Y182.455 E.04542
G1 X158.204 Y180.974 E.04543
G1 X157.596 Y179.536 E.04543
G1 X156.88 Y178.149 E.04543
G1 X156.061 Y176.819 E.04543
G1 X155.144 Y175.556 E.04543
G1 X154.133 Y174.366 E.04543
G1 X153.024 Y173.248 E.04583
G1 X151.844 Y172.226 E.04543
G1 X150.589 Y171.297 E.04543
G1 X149.227 Y170.44 E.04682
G1 X117.412 Y152.071 E1.06896
G1 X116.997 Y151.777 E.0148
G1 X116.65 Y151.416 E.01456
G1 X116.376 Y150.997 E.01456
G1 X116.185 Y150.535 E.01456
G1 X116.083 Y150.045 E.01456
G1 X116.074 Y149.545 E.01456
G1 X116.158 Y149.055 E.01446
G1 X116.43 Y148.398 E.02068
G1 X116.788 Y147.779 E.0208
G1 X117.082 Y147.364 E.0148
G1 X117.443 Y147.017 E.01456
G1 X117.861 Y146.743 E.01456
G1 X118.324 Y146.552 E.01456
G1 X118.814 Y146.45 E.01456
G1 X119.314 Y146.441 E.01456
G1 X119.804 Y146.525 E.01446
G1 X120.46 Y146.798 E.02068
G1 X124.089 Y148.892 E.12191
G1 X123.91 Y149.202 F36000
G1 F1800
G1 X137.209 Y156.88 E.44684
G1 X137.462 Y156.946 E.00759
G1 X137.641 Y156.931 E.00524
G1 X137.746 Y156.877 E.00344
G1 X137.844 Y156.804 E.00356
G1 X137.955 Y156.679 E.00485
G1 X140.414 Y152.42 E.1431
G1 X140.676 Y152.05 E.0132
G1 X140.987 Y151.748 E.0126
G1 X141.348 Y151.51 E.0126
G1 X141.748 Y151.342 E.0126
G1 X142.192 Y151.25 E.01318
G1 X142.605 Y151.243 E.01202
G1 X143.02 Y151.312 E.01226
G1 X143.624 Y151.559 E.01897
G1 X156.041 Y158.728 E.4172
G1 X156.411 Y158.99 E.0132
G1 X156.726 Y159.316 E.01318
G1 X156.961 Y159.68 E.0126
G1 X157.119 Y160.062 E.01202
G1 X157.209 Y160.485 E.0126
G1 X157.217 Y160.938 E.01318
G1 X157.143 Y161.357 E.01237
G1 X156.896 Y161.95 E.01868
G1 X154.442 Y166.199 E.14278
G1 X154.376 Y166.452 E.00759
G1 X154.391 Y166.627 E.00511
G1 X154.522 Y166.837 E.00721
G1 X154.643 Y166.945 E.00472
G1 X166.651 Y173.878 E.40345
G1 X166.912 Y173.99 E.00828
G1 X167.158 Y174.011 E.00717
G1 X167.366 Y173.955 E.00626
G1 X167.528 Y173.872 E.00531
G1 X167.787 Y173.674 E.00948
G1 X167.886 Y173.556 E.00449
G1 X167.986 Y173.32 E.00747
G1 X168.017 Y173.064 E.00748
G1 X168.017 Y121.834 E1.49067
G1 X167.95 Y121.587 E.00745
M73 P2 R48
G1 X167.786 Y121.392 E.00743
G1 X167.619 Y121.307 E.00543
G1 X167.481 Y121.265 E.00421
G1 X167.112 Y121.078 E.01202
G1 X166.767 Y120.816 E.0126
G1 X166.478 Y120.494 E.0126
G1 X166.253 Y120.124 E.0126
G1 X166.099 Y119.706 E.01295
G1 X166.018 Y119.083 E.01828
G1 X166.017 Y118.406 E.0197
G1 X166.059 Y117.955 E.01319
G1 X166.184 Y117.519 E.01318
G1 X166.37 Y117.15 E.01202
G1 X166.633 Y116.806 E.0126
G1 X166.971 Y116.504 E.01318
G1 X167.325 Y116.291 E.01202
G1 X167.72 Y116.143 E.01226
G1 X168.38 Y116.055 E.01938
G1 X173.053 Y116.056 E.13597
G1 X173.494 Y116.097 E.0129
G1 X173.911 Y116.215 E.0126
G1 X174.298 Y116.409 E.0126
G1 X174.658 Y116.685 E.01318
G1 X174.945 Y117.009 E.0126
G1 X175.166 Y117.382 E.0126
G1 X175.311 Y117.781 E.01237
G1 X175.394 Y118.418 E.01868
G1 X175.394 Y119.081 E.01929
G1 X175.352 Y119.533 E.01319
G1 X175.234 Y119.949 E.0126
G1 X175.04 Y120.337 E.0126
G1 X174.777 Y120.681 E.0126
G1 X174.455 Y120.971 E.0126
G1 X174.085 Y121.196 E.0126
G1 X173.753 Y121.321 E.01033
G1 X173.544 Y121.47 E.00748
G1 X173.42 Y121.678 E.00703
G1 X173.394 Y121.836 E.00466
G1 X173.394 Y142.811 E.61033
G1 X173.422 Y142.962 E.00447
G1 X173.462 Y143.063 E.00316
G1 X173.563 Y143.207 E.00511
G1 X173.782 Y143.324 E.00721
G1 X173.94 Y143.357 E.00472
G1 X179.686 Y143.357 E.16719
G1 X180.138 Y143.399 E.01319
G1 X180.554 Y143.517 E.0126
G1 X180.959 Y143.721 E.01318
G1 X181.301 Y143.987 E.0126
G1 X181.588 Y144.311 E.0126
G1 X181.801 Y144.665 E.01202
G1 X181.949 Y145.06 E.01226
G1 X182.037 Y145.72 E.01938
G1 X182.037 Y159.547 E.40236
G1 X181.992 Y160.019 E.01377
G1 X181.877 Y160.416 E.01202
G1 X181.683 Y160.803 E.0126
G1 X181.421 Y161.148 E.0126
G1 X181.099 Y161.438 E.0126
G1 X180.711 Y161.671 E.01318
G1 X180.311 Y161.816 E.01237
G1 X179.674 Y161.899 E.01868
G1 X173.939 Y161.899 E.16687
G1 X173.688 Y161.967 E.00759
G1 X173.543 Y162.068 E.00511
G1 X173.427 Y162.286 E.00721
G1 X173.394 Y162.445 E.00472
G1 X173.394 Y169.886 E.21652
G1 X173.449 Y170.747 E.0251
G1 X173.573 Y171.414 E.01972
G1 X173.781 Y172.094 E.0207
G1 X174.078 Y172.763 E.02131
G1 X174.485 Y173.44 E.02297
G1 X174.954 Y174.032 E.02198
G1 X175.434 Y174.511 E.01972
G1 X176.01 Y174.965 E.02135
G1 X176.617 Y175.335 E.02069
G1 X177.283 Y175.64 E.02131
G1 X177.982 Y175.863 E.02134
G1 X178.702 Y175.999 E.02134
G1 X179.523 Y176.054 E.02394
G1 X231.043 Y176.055 E1.49909
G1 X231.494 Y176.097 E.01319
G1 X231.911 Y176.215 E.0126
G1 X232.315 Y176.42 E.01318
G1 X232.658 Y176.685 E.0126
G1 X232.933 Y176.993 E.01202
G1 X233.158 Y177.364 E.0126
G1 X233.311 Y177.781 E.01295
G1 X233.393 Y178.404 E.01828
G1 X233.394 Y179.081 E.0197
G1 X233.348 Y179.552 E.01377
G1 X233.234 Y179.949 E.01202
G1 X233.04 Y180.337 E.0126
G1 X232.777 Y180.681 E.0126
G1 X232.455 Y180.971 E.0126
G1 X232.085 Y181.196 E.0126
G1 X231.691 Y181.344 E.01226
G1 X231.045 Y181.431 E.01897
G1 X209.617 Y181.432 E.62349
G1 X209.365 Y181.501 E.00759
G1 X209.218 Y181.604 E.00524
G1 X209.154 Y181.703 E.00344
G1 X209.105 Y181.816 E.00356
